%PM
N9001
N1( PARTNO : 1797609IN_PROD_1 )
N2G70
N3( MACHINE : MAHO MC 400 - US )
N4G0Z390.000
N5X-50.000Y-600.000
N6T75M6
N7( PART PROGRAM COORDINATE SYSTEM )
N8B0.000G54
N9S918M3
N10M8
N11G0X2.080Y-2.005
N12Z0.787
N13Z0.098
N14F5
N15G81Y0.098Z-0.048F5
N16G79Z0.000
N17G0Z0.787
N18Z3.937
N19( MACHINE COORDINATE SYSTEM )
N20G53
N21T0M67
N22G0Z390.000
N23X-50.000Y-600.000
N24T75M6
N25( PART PROGRAM COORDINATE SYSTEM )
N26B180.000G55
N27G42
N28S919M3
N29G0X-0.026Y4.516
N30Z0.787
N31E1=-0.054
N32Z0.098
N33X-0.026Y4.516
N34Z=E1
N35F12
N36G1Y3.470
N37F9
N38G2Y3.288I-0.389J3.379
N39F12
N40G1Y0.722
N41F9
N42G2Y0.540I-0.389J0.631
N43F12
N44G1Y-0.056
N45F12
N46X-0.219
N47F9
N48G3X-0.069Y0.350I-0.694J0.350
N49F12
N50G1Y0.436
N51F9
N52G3X-0.437Y1.003I-0.389J0.631
N53F12
N54G1X-0.635Y1.005
N55F12
N56Y3.004
N57F12
N58X-0.725
N59F12
N60X-1.013Y3.007
N61F9
N62G2X-1.244Y3.052I-1.061J3.379
N63F12
N64G1Y0.958
N65F9
N66G3X-1.354Y0.397I-1.061J0.631
N67F12
N68G1X-1.381Y0.350
N69F9
N70G3X-1.244Y-0.040I-0.756J0.350
N71F12
N72G1Y-0.056
N73F12
N74X-1.854
N75F12
N76Y1.100
N77F12
N78X-2.463
N79F12
N80Y-0.056
N81F12
N82X-3.072
N83F12
N84Y1.365
N85F12
N86X-3.355
N87F9
N88G2X-3.682Y1.457I-3.355J1.990
N89F12
N90G1Y-0.056
N91F12
N92X-3.761
N93F12
N94Y1.515
N95F9
N96G3X-3.355Y1.365I-3.355J1.990
N97F12
N98G1X-2.730
N99F12
N100Y2.005
N101F12
N102Y2.645
N103F12
N104X-3.355
N105F9
N106G3X-3.682Y2.553I-3.355J2.020
N107F12
N108G1Y4.066
N109F12
N110X-3.072
N111F12
N112Y2.645
N113F12
N114X-3.355
N115F9
N116G3X-3.761Y2.495I-3.355J2.020
N117F12
N118G1Y4.066
N119F12
N120X-2.463
N121F12
N122Y2.910
N123F12
N124X-1.854
N125F12
N126Y4.066
N127F12
N128X-1.244
N129F12
N130Y4.050
N131G0Z0.098
N132X-2.622Y2.455
N133Z=E1
N134F12
N135G1X-2.713Y2.193
N136F12
N137Y1.817
N138F12
N139X-2.465Y1.100
N140F12
N141X-1.678
N142F12
N143X-1.473Y1.828
N144F12
N145Y2.182
N146F12
N147X-1.678Y2.910
N148F12
N149X-2.465
N150F12
N151X-2.622Y2.455
N152G0Z0.098
N153E1=E1-0.054
N154G14N1=31N2=153J2
N155G0Z0.787
N156G40
N157( MACHINE COORDINATE SYSTEM )
N158G53
N159T0M67
N160G0Z390.000
N161X-50.000Y-600.000
N162T79M6
N163( PART PROGRAM COORDINATE SYSTEM )
N164G54
N165G42
N166S1145M3
N167G0X1.887Y-1.957
N168Z0.098
N169F9
N170G1Z=E1
N171F14
N172G3Y-2.053I2.080J-2.005
N173F14
N174G2Y-1.957I2.080J-2.005
N175G0Z0.098
N176Z0.787
N177G40
N178( MACHINE COORDINATE SYSTEM )
N179G53
N180T0M67
N181G0Z390.000
N182X-50.000Y-600.000
N183T98M6
N184( PART PROGRAM COORDINATE SYSTEM )
N185G54
N186G41
N187S3147M3
N188G0X1.752Y-1.953
N189Z0.098
N190Z=E1
N191F11
N192G1X1.626Y-1.990
N193F8
N194G3Y-2.020I1.630J-2.005
N195F11
N196G1X1.752Y-2.057
N197G0Z0.098
N198Z0.787
N199G40
N200( MACHINE COORDINATE SYSTEM )
N201G53
N202T0M67
N203G0Z390.000
N204X-50.000Y-600.000
N205T87M6
N206( PART PROGRAM COORDINATE SYSTEM )
N207B0.000G55
N208G41
N209S1577M3
N210G0X0.162Y2.106
N211Z0.098
N212Z=E1
N213F13
N214G1X-0.551
N215F13
N216Y1.904
N217F13
N218X0.162
N219G0Z0.098
N220Y2.461
N221Z=E1
N222F13
N223G1X-0.906
N224F13
N225Y1.549
N226F13
N227X0.162
N228G0Z0.098
N229Y2.816
N230Z=E1
N231F13
N232G1X-1.230
N233F10
N234G3X-1.262Y2.785I-1.230J2.785
N235F13
N236G1Y1.225
N237F10
N238G3X-1.230Y1.194I-1.230J1.225
N239F13
N240G1X0.162
N241G0Z0.098
N242Z0.787
N243G40
N244( MACHINE COORDINATE SYSTEM )
N245G53
N246T0M67
N247G0Z390.000
N248X-50.000Y-600.000
N249T75M6
N250( PART PROGRAM COORDINATE SYSTEM )
N251G55
N252G42
N253S919M3
N254G0X-0.873Y1.406
N255E1=-0.198
N256Z0.098
N257X-0.873Y1.406
N258F6
N259G1Z=E1
N260F12
N261X-0.667
N262F12
N263Y1.375
N264F12
N265X-1.080
N266F12
N267Y1.406
N268F12
N269X-0.873
N270G0Z0.098
N271E1=E1-0.060
N272G14N1=255N2=271J1
N273G0Z0.787
N274G40
N275( MACHINE COORDINATE SYSTEM )
N276G53
N277T0M67
N278G0Z390.000
N279X-50.000Y-600.000
N280T105M6
N281( PART PROGRAM COORDINATE SYSTEM )
N282G55
N283S5038M3
N284G0X-0.874Y1.380
N285Z0.098
N286F37
N287G81Y0.098Z-0.068F37
N288G79Z-0.282
N289G0Z0.787
N290( MACHINE COORDINATE SYSTEM )
N291G53
N292T0M67
N293G0Z390.000
N294X-50.000Y-600.000
N295T105M6
N296( PART PROGRAM COORDINATE SYSTEM )
N297G55
N298S5600M3
N299G0X-1.320Y1.930
N300Z0.098
N301F42
N302G81Y0.098Z-0.021F42
N303G79Z-0.198
N304G0Z0.787
N305( MACHINE COORDINATE SYSTEM )
N306G53
N307T0M67
N308G0Z390.000
N309X-50.000Y-600.000
N310T105M6
N311( PART PROGRAM COORDINATE SYSTEM )
N312G55
N313G0X-1.124Y2.357
N314Z0.098
N315G81Y0.098Z-0.021F42
N316G79Z-0.198
N317G0Z0.787
N318( MACHINE COORDINATE SYSTEM )
N319G53
N320T0M67
N321G0Z390.000
N322X-50.000Y-600.000
N323T105M6
N324( PART PROGRAM COORDINATE SYSTEM )
N325G55
N326G0X-1.320Y2.535
N327Z0.098
N328G81Y0.098Z-0.021F42
N329G79Z-0.198
N330G0Z0.787
N331( MACHINE COORDINATE SYSTEM )
N332G53
N333T0M67
N334G0Z390.000
N335X-50.000Y-600.000
N336T105M6
N337( PART PROGRAM COORDINATE SYSTEM )
N338G55
N339G0X-0.920Y2.880
N340Z0.098
N341G81Y0.098Z-0.021F42
N342G79Z-0.198
N343G0Z0.787
N344( MACHINE COORDINATE SYSTEM )
N345G53
N346T0M67
N347G0Z390.000
N348X-50.000Y-600.000
N349T105M6
N350( PART PROGRAM COORDINATE SYSTEM )
N351G55
N352G0X-0.322Y2.821
N353Z0.098
N354G81Y0.098Z-0.021F42
N355G79Z-0.198
N356G0Z0.787
N357( MACHINE COORDINATE SYSTEM )
N358G53
N359T0M67
N360G0Z390.000
N361X-50.000Y-600.000
N362T105M6
N363( PART PROGRAM COORDINATE SYSTEM )
N364G55
N365S5038M3
N366G0X-0.589Y2.357
N367Z0.098
N368F37
N369G81Y0.098Z-0.068F37
N370G79Z-0.198
N371G0Z0.787
N372( MACHINE COORDINATE SYSTEM )
N373G53
N374T0M67
N375G0Z390.000
N376X-50.000Y-600.000
N377T105M6
N378( PART PROGRAM COORDINATE SYSTEM )
N379G55
N380S5600M3
N381G0X-0.322Y1.894
N382Z0.098
N383F42
N384G81Y0.098Z-0.021F42
N385G79Z-0.198
N386G0Z0.787
N387( MACHINE COORDINATE SYSTEM )
N388G53
N389T0M67
N390G0Z390.000
N391X-50.000Y-600.000
N392T105M6
N393( PART PROGRAM COORDINATE SYSTEM )
N394G55
N395G0X-1.763Y0.959
N396Z0.098
N397G81Y0.098Z-0.030F42
N398G79Z-0.162
N399G0Z0.787
N400( MACHINE COORDINATE SYSTEM )
N401G53
N402T0M67
N403G0Z390.000
N404X-50.000Y-600.000
N405T105M6
N406( PART PROGRAM COORDINATE SYSTEM )
N407G55
N408S5250M3
N409G0X-2.080Y2.005
N410Z0.098
N411F39
N412G81Y0.098Z-0.066F39
N413G79Z0.000
N414G0Z0.787
N415( MACHINE COORDINATE SYSTEM )
N416G53
N417T0M67
N418G0Z390.000
N419X-50.000Y-600.000
N420T105M6
N421( PART PROGRAM COORDINATE SYSTEM )
N422G55
N423S5600M3
N424G0X-1.763Y3.051
N425Z0.098
N426F42
N427G81Y0.098Z-0.030F42
N428G79Z-0.162
N429G0Z0.787
N430Z3.937
N431( MACHINE COORDINATE SYSTEM )
N432G53
N433T0M67
N434G0Z390.000
N435X-50.000Y-600.000
N436T105M6
N437( PART PROGRAM COORDINATE SYSTEM )
N438B180.000G54
N439G0X1.156Y-2.913
N440Z0.787
N441Z0.098
N442G81Y0.098Z-0.035F42
N443G79Z0.000
N444G0Z0.787
N445( MACHINE COORDINATE SYSTEM )
N446G53
N447T0M67
N448G0Z390.000
N449X-50.000Y-600.000
N450T105M6
N451( PART PROGRAM COORDINATE SYSTEM )
N452G54
N453G0X1.170Y-3.160
N454Z0.098
N455G81Y0.098Z-0.042F42
N456G79Z0.000
N457G0Z0.787
N458( MACHINE COORDINATE SYSTEM )
N459G53
N460T0M67
N461G0Z390.000
N462X-50.000Y-600.000
N463T105M6
N464( PART PROGRAM COORDINATE SYSTEM )
N465G54
N466G0X0.320Y-3.160
N467Z0.098
N468G81Y0.098Z-0.042F42
N469G79Z0.000
N470G0Z0.787
N471( MACHINE COORDINATE SYSTEM )
N472G53
N473T0M67
N474G0Z390.000
N475X-50.000Y-600.000
N476T105M6
N477( PART PROGRAM COORDINATE SYSTEM )
N478G54
N479G0X0.591Y-2.348
N480Z0.098
N481G81Y0.098Z-0.035F42
N482G79Z0.000
N483G0Z0.787
N484( MACHINE COORDINATE SYSTEM )
N485G53
N486T0M67
N487G0Z390.000
N488X-50.000Y-600.000
N489T105M6
N490( PART PROGRAM COORDINATE SYSTEM )
N491G54
N492G0X1.630Y-2.005
N493Z0.098
N494G81Y0.098Z-0.042F42
N495G79Z-0.048
N496G0Z0.787
N497( MACHINE COORDINATE SYSTEM )
N498G53
N499T0M67
N500G0Z390.000
N501X-50.000Y-600.000
N502T105M6
N503( PART PROGRAM COORDINATE SYSTEM )
N504G54
N505G0X1.913Y-2.294
N506Z0.098
N507G81Y0.098Z-0.020F42
N508G79Z-0.048
N509G0Z0.787
N510( MACHINE COORDINATE SYSTEM )
N511G53
N512T0M67
N513G0Z390.000
N514X-50.000Y-600.000
N515T105M6
N516( PART PROGRAM COORDINATE SYSTEM )
N517G54
N518G0X1.913Y-1.715
N519Z0.098
N520G81Y0.098Z-0.020F42
N521G79Z-0.048
N522G0Z0.787
N523( MACHINE COORDINATE SYSTEM )
N524G53
N525T0M67
N526G0Z390.000
N527X-50.000Y-600.000
N528T105M6
N529( PART PROGRAM COORDINATE SYSTEM )
N530G54
N531G0X2.415Y-2.005
N532Z0.098
N533G81Y0.098Z-0.021F42
N534G79Z-0.048
N535G0Z0.787
N536( MACHINE COORDINATE SYSTEM )
N537G53
N538T0M67
N539G0Z390.000
N540X-50.000Y-600.000
N541T105M6
N542( PART PROGRAM COORDINATE SYSTEM )
N543G54
N544G0X1.170Y-0.850
N545Z0.098
N546G81Y0.098Z-0.042F42
N547G79Z0.000
N548G0Z0.787
N549( MACHINE COORDINATE SYSTEM )
N550G53
N551T0M67
N552G0Z390.000
N553X-50.000Y-600.000
N554T105M6
N555( PART PROGRAM COORDINATE SYSTEM )
N556G54
N557G0X0.320Y-0.850
N558Z0.098
N559G81Y0.098Z-0.042F42
N560G79Z0.000
N561G0Z0.787
N562Z3.937
N563( MACHINE COORDINATE SYSTEM )
N564G53
N565T0M67
N566G0Z390.000
N567X-50.000Y-600.000
N568T86M6
N569( PART PROGRAM COORDINATE SYSTEM )
N570B0.000G55
N571S3022M3
N572G0X-0.589Y2.357
N573Z0.787
N574Z0.098
N575F20
N576G81Y0.098Z-0.288F20
N577G79Z-0.198
N578G0Z0.787
N579( MACHINE COORDINATE SYSTEM )
N580G53
N581T0M67
N582G0Z390.000
N583X-50.000Y-600.000
N584T86M6
N585( PART PROGRAM COORDINATE SYSTEM )
N586G55
N587G0X-0.874Y1.380
N588Z0.098
N589G81Y0.098Z-0.204F20
N590G79Z-0.282
N591G0Z0.787
N592( MACHINE COORDINATE SYSTEM )
N593G53
N594T0M67
N595G0Z390.000
N596X-50.000Y-600.000
N597T51M6
N598( PART PROGRAM COORDINATE SYSTEM )
N599G55
N600S1521M3
N601G0X-0.589Y2.357
N602Z0.098
N603F17
N604G81Y0.098Z-0.391F17
N605G79Z-0.198
N606G0Z0.787
N607( MACHINE COORDINATE SYSTEM )
N608G53
N609T0M67
N610G0Z390.000
N611X-50.000Y-600.000
N612T87M6
N613( PART PROGRAM COORDINATE SYSTEM )
N614G55
N615G41
N616S919M3
N617G0Z1.000
N618X0.299Y2.155
N619E1=-0.162
N620Z0.100
N621X0.299Y2.155
N622F12
N623G1Z=E1
N624F12
N625G3X0.148Y2.005I0.299J2.005
N626F12
N627G1Y0.477
N628F12
N629X-0.194
N630F12
N631G3X-0.196Y0.475I-0.194J0.475
N632F12
N633G1Y0.350
N634F12
N635G2X-0.694Y-0.148I-0.694J0.350
N636F12
N637G1X-0.756
N638F12
N639G2X-1.255Y0.350I-0.756J0.350
N640F12
N641G1Y0.475
N642F12
N643G3X-1.256Y0.477I-1.256J0.475
N644F12
N645G1X-1.958
N646F12
N647X-2.853Y1.372
N648F12
N649Y1.490
N650F12
N651G3X-2.855Y1.491I-2.855J1.490
N652F12
N653G1X-3.355
N654F12
N655G2X-3.853Y1.989I-3.355J1.990
N656F12
N657G1Y2.020
N658F12
N659G2X-3.355Y2.519I-3.355J2.020
N660F12
N661G1X-2.855
N662F12
N663G3X-2.853Y2.520I-2.855J2.520
N664F12
N665G1Y2.638
N666F12
N667X-1.958Y3.533
N668F12
N669X-1.256
N670F12
N671G3X-1.255Y3.535I-1.256J3.535
N672F12
N673G1Y3.660
N674F12
N675G2X-0.756Y4.159I-0.756J3.660
N676F12
N677G1X-0.694
N678F12
N679G2X-0.196Y3.660I-0.694J3.660
N680F12
N681G1Y3.535
N682F12
N683G3X-0.194Y3.533I-0.194J3.535
N684F12
N685G1X0.148
N686F12
N687Y2.005
N688F12
N689G3X0.299Y1.855I0.299J2.005
N690G0Z0.100
N691X0.269Y2.155
N692F12
N693G1Z=E1
N694F12
N695G3X0.119Y2.005I0.269J2.005
N696F12
N697G1Y0.507
N698F12
N699X-0.194
N700F12
N701G3X-0.226Y0.475I-0.194J0.475
N702F12
N703G1Y0.350
N704F12
N705G2X-0.694Y-0.119I-0.694J0.350
N706F12
N707G1X-0.756
N708F12
N709G2X-1.224Y0.350I-0.756J0.350
N710F12
N711G1Y0.475
N712F12
N713G3X-1.256Y0.507I-1.256J0.475
N714F12
N715G1X-1.946
N716F12
N717X-2.823Y1.384
N718F12
N719Y1.490
N720F12
N721G3X-2.855Y1.521I-2.855J1.490
N722F12
N723G1X-3.355
N724F12
N725G2X-3.823Y1.989I-3.355J1.990
N726F12
N727G1Y2.020
N728F12
N729G2X-3.355Y2.489I-3.355J2.020
N730F12
N731G1X-2.855
N732F12
N733G3X-2.823Y2.520I-2.855J2.520
N734F12
N735G1Y2.626
N736F12
N737X-1.946Y3.503
N738F12
N739X-1.256
N740F12
N741G3X-1.224Y3.535I-1.256J3.535
N742F12
N743G1Y3.660
N744F12
N745G2X-0.756Y4.128I-0.756J3.660
N746F12
N747G1X-0.694
N748F12
N749G2X-0.226Y3.660I-0.694J3.660
N750F12
N751G1Y3.535
N752F12
N753G3X-0.194Y3.503I-0.194J3.535
N754F12
N755G1X0.119
N756F12
N757Y2.005
N758F12
N759G3X0.269Y1.855I0.269J2.005
N760G0Z0.100
N761E1=E1-0.108
N762G14N1=619N2=761J3
N763G0Z1.000
N764G40
N765( MACHINE COORDINATE SYSTEM )
N766G53
N767T0M67
N768G0Z390.000
N769X-50.000Y-600.000
N770T79M6
N771( PART PROGRAM COORDINATE SYSTEM )
N772G55
N773S1144M3
N774G0X-0.589Y2.357
N775Z0.787
N776Z0.098
N777F5
N778G81Y0.098Z-0.335F5
N779G79Z-0.198
N780G0Z0.787
N781( MACHINE COORDINATE SYSTEM )
N782G53
N783T0M67
N784G0Z390.000
N785X-50.000Y-600.000
N786T27M6
N787( PART PROGRAM COORDINATE SYSTEM )
N788G55
N789S5600M3
N790G0X-0.322Y2.821
N791Z0.098
N792F11
N793G81Y0.098Z-0.216F11
N794G79Z-0.198
N795G0Z0.787
N796( MACHINE COORDINATE SYSTEM )
N797G53
N798T0M67
N799G0Z390.000
N800X-50.000Y-600.000
N801T27M6
N802( PART PROGRAM COORDINATE SYSTEM )
N803G55
N804G0X-0.920Y2.880
N805Z0.098
N806G81Y0.098Z-0.216F11
N807G79Z-0.198
N808G0Z0.787
N809( MACHINE COORDINATE SYSTEM )
N810G53
N811T0M67
N812G0Z390.000
N813X-50.000Y-600.000
N814T27M6
N815( PART PROGRAM COORDINATE SYSTEM )
N816G55
N817G0X-1.320Y2.535
N818Z0.098
N819G81Y0.098Z-0.216F11
N820G79Z-0.198
N821G0Z0.787
N822( MACHINE COORDINATE SYSTEM )
N823G53
N824T0M67
N825G0Z390.000
N826X-50.000Y-600.000
N827T27M6
N828( PART PROGRAM COORDINATE SYSTEM )
N829G55
N830G0X-1.124Y2.357
N831Z0.098
N832G81Y0.098Z-0.216F11
N833G79Z-0.198
N834G0Z0.787
N835( MACHINE COORDINATE SYSTEM )
N836G53
N837T0M67
N838G0Z390.000
N839X-50.000Y-600.000
N840T27M6
N841( PART PROGRAM COORDINATE SYSTEM )
N842G55
N843G0X-1.320Y1.930
N844Z0.098
N845G81Y0.098Z-0.216F11
N846G79Z-0.198
N847G0Z0.787
N848( MACHINE COORDINATE SYSTEM )
N849G53
N850T0M67
N851G0Z390.000
N852X-50.000Y-600.000
N853T27M6
N854( PART PROGRAM COORDINATE SYSTEM )
N855G55
N856G0X-0.322Y1.894
N857Z0.098
N858G81Y0.098Z-0.216F11
N859G79Z-0.198
N860G0Z0.787
N861Z3.937
N862( MACHINE COORDINATE SYSTEM )
N863G53
N864T0M67
N865G0Z390.000
N866X-50.000Y-600.000
N867T27M6
N868( PART PROGRAM COORDINATE SYSTEM )
N869B180.000G54
N870G0X2.415Y-2.005
N871Z0.787
N872Z0.098
N873G81Y0.098Z-0.204F11
N874G79Z-0.048
N875G0Z0.787
N876( MACHINE COORDINATE SYSTEM )
N877G53
N878T0M67
N879G0Z390.000
N880X-50.000Y-600.000
N881T37M6
N882( PART PROGRAM COORDINATE SYSTEM )
N883G54
N884G0X1.156Y-2.913
N885Z0.098
N886F19
N887G81Y0.098Z-0.153F19
N888G79Z0.000
N889G0Z0.787
N890( MACHINE COORDINATE SYSTEM )
N891G53
N892T0M67
N893G0Z390.000
N894X-50.000Y-600.000
N895T37M6
N896( PART PROGRAM COORDINATE SYSTEM )
N897G54
N898G0X0.591Y-2.348
N899Z0.098
N900G81Y0.098Z-0.153F19
N901G79Z0.000
N902G0Z0.787
N903( MACHINE COORDINATE SYSTEM )
N904G53
N905T0M67
N906G0Z390.000
N907X-50.000Y-600.000
N908T16M6
N909( PART PROGRAM COORDINATE SYSTEM )
N910G54
N911S4923M3
N912G0X0.320Y-3.160
N913Z0.098
N914F31
N915G81Y0.098Z-0.284F31
N916G79Z0.000
N917G0Z0.787
N918( MACHINE COORDINATE SYSTEM )
N919G53
N920T0M67
N921G0Z390.000
N922X-50.000Y-600.000
N923T16M6
N924( PART PROGRAM COORDINATE SYSTEM )
N925G54
N926G0X1.170Y-3.160
N927Z0.098
N928G81Y0.098Z-0.284F31
N929G79Z0.000
N930G0Z0.787
N931( MACHINE COORDINATE SYSTEM )
N932G53
N933T0M67
N934G0Z390.000
N935X-50.000Y-600.000
N936T16M6
N937( PART PROGRAM COORDINATE SYSTEM )
N938G54
N939G0X1.630Y-2.005
N940Z0.098
N941G81Y0.098Z-0.236F31
N942G79Z-0.048
N943G0Z0.787
N944( MACHINE COORDINATE SYSTEM )
N945G53
N946T0M67
N947G0Z390.000
N948X-50.000Y-600.000
N949T16M6
N950( PART PROGRAM COORDINATE SYSTEM )
N951G54
N952G0X1.170Y-0.850
N953Z0.098
N954G81Y0.098Z-0.284F31
N955G79Z0.000
N956G0Z0.787
N957( MACHINE COORDINATE SYSTEM )
N958G53
N959T0M67
N960G0Z390.000
N961X-50.000Y-600.000
N962T16M6
N963( PART PROGRAM COORDINATE SYSTEM )
N964G54
N965G0X0.320Y-0.850
N966Z0.098
N967G81Y0.098Z-0.284F31
N968G79Z0.000
N969G0Z0.787
N970( MACHINE COORDINATE SYSTEM )
N971G53
N972T0M67
N973G0Z390.000
N974X-50.000Y-600.000
N975T15M6
N976( PART PROGRAM COORDINATE SYSTEM )
N977G54
N978S5600M3
N979G0X1.913Y-1.715
N980Z0.098
N981F16
N982G81Y0.098Z-0.164F16
N983G79Z-0.048
N984G0Z0.787
N985( MACHINE COORDINATE SYSTEM )
N986G53
N987T0M67
N988G0Z390.000
N989X-50.000Y-600.000
N990T15M6
N991( PART PROGRAM COORDINATE SYSTEM )
N992G54
N993G0X1.913Y-2.294
N994Z0.098
N995G81Y0.098Z-0.164F16
N996G79Z-0.048
N997G0Z0.787
N998( MACHINE COORDINATE SYSTEM )
N999G53
N1000T0M67
N1001G0Z390.000
N1002X-50.000Y-600.000
N1003T84M6
N1004( PART PROGRAM COORDINATE SYSTEM )
N1005G54
N1006G0X1.913Y-2.294
N1007Z0.098
N1008F1
N1009G81Y0.098Z-0.172F1
N1010G79Z-0.048
N1011G0Z0.787
N1012( MACHINE COORDINATE SYSTEM )
N1013G53
N1014T0M67
N1015G0Z390.000
N1016X-50.000Y-600.000
N1017T84M6
N1018( PART PROGRAM COORDINATE SYSTEM )
N1019G54
N1020G0X1.913Y-1.715
N1021Z0.098
N1022G81Y0.098Z-0.172F1
N1023G79Z-0.048
N1024G0Z0.787
N1025Z3.937
N1026( MACHINE COORDINATE SYSTEM )
N1027G53
N1028T0M67
N1029G0Z390.000
N1030X-50.000Y-600.000
N1031T77M6
N1032( PART PROGRAM COORDINATE SYSTEM )
N1033B0.000G55
N1034S2289M3
N1035G0X-0.874Y1.380
N1036Z0.787
N1037Z0.098
N1038F6
N1039G81Y0.098Z-0.175F6
N1040G79Z-0.282
N1041G0Z0.787
N1042( MACHINE COORDINATE SYSTEM )
N1043G53
N1044T0M67
N1045G0Z390.000
N1046X-50.000Y-600.000
N1047T23M6
N1048( PART PROGRAM COORDINATE SYSTEM )
N1049G55
N1050S3150M3
N1051G0X-2.080Y2.005
N1052Z0.098
N1053F20
N1054G81Y0.098Z-0.434F20
N1055G79Z0.000
N1056G0Z0.787
N1057( MACHINE COORDINATE SYSTEM )
N1058G53
N1059T0M67
N1060G0Z390.000
N1061X-50.000Y-600.000
N1062T3M6
N1063( PART PROGRAM COORDINATE SYSTEM )
N1064G55
N1065S2205M3
N1066G0X-2.080Y2.005
N1067Z0.098
N1068G81Y0.098Z-0.477F20
N1069G79Z0.000
N1070G0Z0.787
N1071( MACHINE COORDINATE SYSTEM )
N1072G53
N1073T0M67
N1074G0Z390.000
N1075X-50.000Y-600.000
N1076T82M6
N1077( PART PROGRAM COORDINATE SYSTEM )
N1078G55
N1079S1903M3
N1080G0X-2.080Y2.005
N1081Z0.098
N1082F6
N1083G81Y0.098Z-0.424F6
N1084G79Z0.000
N1085G0Z0.787
N1086( MACHINE COORDINATE SYSTEM )
N1087G53
N1088T0M67
N1089G0Z390.000
N1090X-50.000Y-600.000
N1091T81M6
N1092( PART PROGRAM COORDINATE SYSTEM )
N1093G55
N1094S5600M3
N1095G0X-1.763Y3.051
N1096Z0.098
N1097F17
N1098G81Y0.098Z-0.166F17
N1099G79Z-0.162
N1100G0Z0.787
N1101( MACHINE COORDINATE SYSTEM )
N1102G53
N1103T0M67
N1104G0Z390.000
N1105X-50.000Y-600.000
N1106T81M6
N1107( PART PROGRAM COORDINATE SYSTEM )
N1108G55
N1109G0X-1.763Y0.959
N1110Z0.098
N1111G81Y0.098Z-0.166F17
N1112G79Z-0.162
N1113G0Z0.787
N1114( MACHINE COORDINATE SYSTEM )
N1115G53
N1116T0M67
N1117G0Z390.000
N1118X-50.000Y-600.000
N1119T74M6
N1120( PART PROGRAM COORDINATE SYSTEM )
N1121G55
N1122S5558M3
N1123G0X-1.763Y0.959
N1124Z0.098
N1125F4
N1126G81Y0.098Z-0.151F4
N1127G79Z-0.162
N1128G0Z0.787
N1129( MACHINE COORDINATE SYSTEM )
N1130G53
N1131T0M67
N1132G0Z390.000
N1133X-50.000Y-600.000
N1134T74M6
N1135( PART PROGRAM COORDINATE SYSTEM )
N1136G55
N1137G0X-1.763Y3.051
N1138Z0.098
N1139G81Y0.098Z-0.151F4
N1140G79Z-0.162
N1141G0Z0.787
N1142Z3.937
N1143( MACHINE COORDINATE SYSTEM )
N1144G53
N1145T0M67
N1146G0Z390.000
N1147X-50.000Y-600.000
N1148T100M6
N1149( PART PROGRAM COORDINATE SYSTEM )
N1150B180.000G54
N1151G41
N1152S4418M3
N1153G0X2.126Y-3.112
N1154Z0.787
N1155E1=-0.050
N1156Z0.098
N1157X2.126Y-3.112
N1158F5
N1159G1Z=E1
N1160F9
N1161X2.151Y-3.109
N1162F9
N1163X2.150Y-3.087
N1164F9
N1165X2.134Y-3.088
N1166F7
N1167G2X1.688Y-3.016I2.080J-2.005
N1168F7
N1169G3X1.676Y-3.045I1.682J-3.030
N1170F7
N1171G3X1.957Y-3.114I2.080J-2.005
N1172F9
N1173G1X2.040Y-3.123
N1174F9
N1175X2.126Y-3.112
N1176G0Z0.098
N1177E1=E1-0.050
N1178G14N1=1155N2=1177J1
N1179G0Z0.787
N1180G40
N1181( MACHINE COORDINATE SYSTEM )
N1182G53
N1183T0M67
N1184G0Z390.000
N1185X-50.000Y-600.000
N1186T100M6
N1187( PART PROGRAM COORDINATE SYSTEM )
N1188G54
N1189G41
N1190G0X2.126Y-0.898
N1191E1=0.000
N1192Z0.098
N1193X2.126Y-0.898
N1194F5
N1195G1Z=E1
N1196F9
N1197X2.040Y-0.887
N1198F9
N1199X1.957Y-0.896
N1200F7
N1201G3X0.966Y-2.068I2.080J-2.005
N1202F7
N1203G3X0.998Y-2.066I0.982J-2.067
N1204F7
N1205G2X1.051Y-1.663I2.080J-2.005
N1206F9
N1207G1X1.076Y-1.597
N1208F7
N1209G2X2.134Y-0.922I2.080J-2.005
N1210F9
N1211G1X2.150Y-0.923
N1212F9
N1213X2.151Y-0.901
N1214F9
N1215X2.126Y-0.898
N1216G0Z0.098
N1217E1=E1-0.050
N1218G14N1=1191N2=1217J1
N1219G0Z0.787
N1220Z3.937
N1221G40
N1222( MACHINE COORDINATE SYSTEM )
N1223G53
N1224T0M67
N1225G0Z390.000
N1226X-50.000Y-600.000
N1227T39M6
N1228( PART PROGRAM COORDINATE SYSTEM )
N1229B0.000G55
N1230S400M3
N1231M9
N1232G0X-0.589Y2.357
N1233Z0.787
N1234Z0.098
N1235F12
N1236G85Y0.098Z-0.282F12
N1237G79Z-0.198
N1238G0Z0.787
N1239( MACHINE COORDINATE SYSTEM )
N1240G53
N1241T0M67
N1242G0Z390.000
N1243X-50.000Y-600.000
N1244T108M6
N1245( PART PROGRAM COORDINATE SYSTEM )
N1246G55
N1247S5600M3
N1248M8
N1249G0X-0.322Y2.821
N1250Z0.098
N1251F84
N1252G81Y0.098Z-0.045F84
N1253G79Z-0.198
N1254G0Z0.787
N1255( MACHINE COORDINATE SYSTEM )
N1256G53
N1257T0M67
N1258G0Z390.000
N1259X-50.000Y-600.000
N1260T108M6
N1261( PART PROGRAM COORDINATE SYSTEM )
N1262G55
N1263G0X-0.920Y2.880
N1264Z0.098
N1265G81Y0.098Z-0.045F84
N1266G79Z-0.198
N1267G0Z0.787
N1268( MACHINE COORDINATE SYSTEM )
N1269G53
N1270T0M67
N1271G0Z390.000
N1272X-50.000Y-600.000
N1273T108M6
N1274( PART PROGRAM COORDINATE SYSTEM )
N1275G55
N1276G0X-1.320Y2.535
N1277Z0.098
N1278G81Y0.098Z-0.045F84
N1279G79Z-0.198
N1280G0Z0.787
N1281( MACHINE COORDINATE SYSTEM )
N1282G53
N1283T0M67
N1284G0Z390.000
N1285X-50.000Y-600.000
N1286T108M6
N1287( PART PROGRAM COORDINATE SYSTEM )
N1288G55
N1289G0X-1.124Y2.357
N1290Z0.098
N1291G81Y0.098Z-0.045F84
N1292G79Z-0.198
N1293G0Z0.787
N1294( MACHINE COORDINATE SYSTEM )
N1295G53
N1296T0M67
N1297G0Z390.000
N1298X-50.000Y-600.000
N1299T108M6
N1300( PART PROGRAM COORDINATE SYSTEM )
N1301G55
N1302G0X-1.320Y1.930
N1303Z0.098
N1304G81Y0.098Z-0.045F84
N1305G79Z-0.198
N1306G0Z0.787
N1307( MACHINE COORDINATE SYSTEM )
N1308G53
N1309T0M67
N1310G0Z390.000
N1311X-50.000Y-600.000
N1312T108M6
N1313( PART PROGRAM COORDINATE SYSTEM )
N1314G55
N1315G0X-0.322Y1.894
N1316Z0.098
N1317G81Y0.098Z-0.045F84
N1318G79Z-0.198
N1319G0Z0.787
N1320Z3.937
N1321( MACHINE COORDINATE SYSTEM )
N1322G53
N1323T0M67
N1324G0Z390.000
N1325X-50.000Y-600.000
N1326T108M6
N1327( PART PROGRAM COORDINATE SYSTEM )
N1328B180.000G54
N1329G0X1.913Y-2.294
N1330Z0.787
N1331Z0.098
N1332G81Y0.098Z-0.045F84
N1333G79Z-0.048
N1334G0Z0.787
N1335( MACHINE COORDINATE SYSTEM )
N1336G53
N1337T0M67
N1338G0Z390.000
N1339X-50.000Y-600.000
N1340T108M6
N1341( PART PROGRAM COORDINATE SYSTEM )
N1342G54
N1343G0X1.913Y-1.715
N1344Z0.098
N1345G81Y0.098Z-0.045F84
N1346G79Z-0.048
N1347G0Z0.787
N1348( MACHINE COORDINATE SYSTEM )
N1349G53
N1350T0M67
N1351G0Z390.000
N1352X-50.000Y-600.000
N1353T108M6
N1354( PART PROGRAM COORDINATE SYSTEM )
N1355G54
N1356G0X2.415Y-2.005
N1357Z0.098
N1358G81Y0.098Z-0.045F84
N1359G79Z-0.048
N1360G0Z0.787
N1361( MACHINE COORDINATE SYSTEM )
N1362G53
N1363T0M67
N1364G0Z390.000
N1365X-50.000Y-600.000
N1366T112M6
N1367( PART PROGRAM COORDINATE SYSTEM )
N1368G54
N1369S2660M3
N1370G0X1.630Y-2.005
N1371Z0.098
N1372F39
N1373G81Y0.098Z-0.149F39
N1374G79Z-0.048
N1375G0Z0.787
N1376( MACHINE COORDINATE SYSTEM )
N1377G53
N1378T0M67
N1379G0Z390.000
N1380X-50.000Y-600.000
N1381T112M6
N1382( PART PROGRAM COORDINATE SYSTEM )
N1383G54
N1384S3434M3
N1385G0X1.156Y-2.913
N1386Z0.098
N1387F51
N1388G81Y0.098Z-0.115F51
N1389G79Z0.000
N1390G0Z0.787
N1391( MACHINE COORDINATE SYSTEM )
N1392G53
N1393T0M67
N1394G0Z390.000
N1395X-50.000Y-600.000
N1396T112M6
N1397( PART PROGRAM COORDINATE SYSTEM )
N1398G54
N1399S2660M3
N1400G0X1.170Y-3.160
N1401Z0.098
N1402F39
N1403G81Y0.098Z-0.149F39
N1404G79Z0.000
N1405G0Z0.787
N1406( MACHINE COORDINATE SYSTEM )
N1407G53
N1408T0M67
N1409G0Z390.000
N1410X-50.000Y-600.000
N1411T112M6
N1412( PART PROGRAM COORDINATE SYSTEM )
N1413G54
N1414G0X0.320Y-3.160
N1415Z0.098
N1416G81Y0.098Z-0.149F39
N1417G79Z0.000
N1418G0Z0.787
N1419( MACHINE COORDINATE SYSTEM )
N1420G53
N1421T0M67
N1422G0Z390.000
N1423X-50.000Y-600.000
N1424T112M6
N1425( PART PROGRAM COORDINATE SYSTEM )
N1426G54
N1427S3434M3
N1428G0X0.591Y-2.348
N1429Z0.098
N1430F51
N1431G81Y0.098Z-0.115F51
N1432G79Z0.000
N1433G0Z0.787
N1434( MACHINE COORDINATE SYSTEM )
N1435G53
N1436T0M67
N1437G0Z390.000
N1438X-50.000Y-600.000
N1439T112M6
N1440( PART PROGRAM COORDINATE SYSTEM )
N1441G54
N1442S2660M3
N1443G0X0.320Y-0.850
N1444Z0.098
N1445F39
N1446G81Y0.098Z-0.149F39
N1447G79Z0.000
N1448G0Z0.787
N1449( MACHINE COORDINATE SYSTEM )
N1450G53
N1451T0M67
N1452G0Z390.000
N1453X-50.000Y-600.000
N1454T112M6
N1455( PART PROGRAM COORDINATE SYSTEM )
N1456G54
N1457G0X1.170Y-0.850
N1458Z0.098
N1459G81Y0.098Z-0.149F39
N1460G79Z0.000
N1461G0Z0.787
N1462( MACHINE COORDINATE SYSTEM )
N1463G53
N1464T0M67
N1465G0Z390.000
N1466X-50.000Y-600.000
N1467T87M6
N1468( PART PROGRAM COORDINATE SYSTEM )
N1469G54
N1470G42
N1471S1577M3
N1472G0Z1.000
N1473X0.590Y-1.734
N1474Z0.100
N1475Z=E1
N1476F13
N1477G1X0.068
N1478F13
N1479Y-1.572
N1480F13
N1481X0.590
N1482G0Z0.100
N1483Z1.000
N1484G40
N1485( MACHINE COORDINATE SYSTEM )
N1486G53
N1487T0M67
N1488G0Z390.000
N1489X-50.000Y-600.000
N1490T87M6
N1491( PART PROGRAM COORDINATE SYSTEM )
N1492B0.000G55
N1493G42
N1494G0X-0.940Y1.555
N1495Z0.787
N1496Z0.098
N1497F10
N1498G1Z=E1
N1499F15
N1500G2X-0.883Y1.587I-0.883J1.522
N1501F20
N1502G1X-0.873
N1503F20
N1504X-0.517
N1505F15
N1506G2X-0.486Y1.556I-0.517J1.556
N1507F20
N1508G1Y1.225
N1509F15
N1510G2X-0.517Y1.194I-0.517J1.225
N1511F20
N1512G1X-1.230
N1513F15
N1514G2X-1.262Y1.225I-1.230J1.225
N1515F20
N1516G1Y1.556
N1517F15
N1518G2X-1.230Y1.587I-1.230J1.556
N1519F20
N1520G1X-0.873
N1521F20
N1522X-0.863
N1523F15
N1524G2X-0.807Y1.555I-0.863J1.522
N1525G0Z0.098
N1526Z0.787
N1527G40
N1528( MACHINE COORDINATE SYSTEM )
N1529G53
N1530T0M67
N1531G0Z390.000
N1532X-50.000Y-600.000
N1533T41M6
N1534( PART PROGRAM COORDINATE SYSTEM )
N1535G55
N1536S801M3
N1537M9
N1538G0X-0.874Y1.380
N1539Z0.098
N1540F10
N1541G85Y0.098Z-0.198F10
N1542G79Z-0.282
N1543G0Z0.787
N1544( MACHINE COORDINATE SYSTEM )
N1545G53
N1546T0M67
N1547G0Z390.000
N1548X-50.000Y-600.000
N1549T40M6
N1550( PART PROGRAM COORDINATE SYSTEM )
N1551G55
N1552S668M3
N1553G0X-2.080Y2.005
N1554Z0.098
N1555G85Y0.098Z-0.432F10
N1556G79Z0.000
N1557G0Z0.787
N1558( MACHINE COORDINATE SYSTEM )
N1559G53
N1560T0M67
N1561G0Z390.000
N1562X-50.000Y-600.000
N1563T80M6
N1564( PART PROGRAM COORDINATE SYSTEM )
N1565G55
N1566S1955M3
N1567G0X-1.763Y3.051
N1568Z0.098
N1569G85Y0.098Z-0.218F10
N1570G79Z-0.162
N1571G0Z0.787
N1572( MACHINE COORDINATE SYSTEM )
N1573G53
N1574T0M67
N1575G0Z390.000
N1576X-50.000Y-600.000
N1577T80M6
N1578( PART PROGRAM COORDINATE SYSTEM )
N1579G55
N1580G0X-1.763Y0.959
N1581Z0.098
N1582G85Y0.098Z-0.218F10
N1583G79Z-0.162
N1584G0Z0.787
N1585M30
