%PM
N9001
N1( PARTNO : 898752_PROD_2 )
N2G70
N3( MACHINE : MAHO MC 400 - US )
N4G0Z390.000
N5X-50.000Y-600.000
N6T42M6
N7( PART PROGRAM COORDINATE SYSTEM )
N8B0.000G56
N9G41
N10S459M3
N11M8
N12G0X0.840Y-5.100
N13Z1.000
N14E1=-0.185
N15Z0.100
N16X0.840Y-5.100
N17Z=E1
N18F8
N19G1X-1.600
N20G0Z0.100
N21E1=E1-0.185
N22G14N1=14N2=21J2
N23G0Z1.000
N24G40
N25( MACHINE COORDINATE SYSTEM )
N26G53
N27T0M67
N28G0Z390.000
N29X-50.000Y-600.000
N30T42M6
N31( PART PROGRAM COORDINATE SYSTEM )
N32B180.000G57
N33G41
N34G0X1.600Y-5.100
N35E1=-0.237
N36Z0.100
N37X1.600Y-5.100
N38Z=E1
N39G1X-0.840
N40G0Z0.100
N41E1=E1-0.237
N42G14N1=35N2=41J3
N43G0Z1.000
N44G40
N45( MACHINE COORDINATE SYSTEM )
N46G53
N47T0M67
N48G0Z390.000
N49X-50.000Y-600.000
N50T42M6
N51( PART PROGRAM COORDINATE SYSTEM )
N52B90.000G54
N53G0X-8.916Y-0.037
N54E1=-0.237
N55Z0.100
N56X-8.916Y-0.037
N57Z=E1
N58F6
N59G3X-8.882Y0.088I-9.132J0.088
N60F8
N61G1Y2.532
N62F6
N63G3X-8.916Y2.657I-9.132J2.532
N64G0Z0.100
N65E1=E1-0.233
N66G14N1=54N2=65J2
N67G0Z1.000
N68( MACHINE COORDINATE SYSTEM )
N69G53
N70T0M67
N71G0Z390.000
N72X-50.000Y-600.000
N73T105M6
N74( PART PROGRAM COORDINATE SYSTEM )
N75G54
N76S4307M3
N77G0Z2.000
N78X-7.986Y1.331
N79Z0.100
N80F32
N81G81Y0.100Z-0.080F32
N82G79Z-2.310
N83G0Z0.100
N84Z2.000
N85( MACHINE COORDINATE SYSTEM )
N86G53
N87T0M67
N88G0Z390.000
N89X-50.000Y-600.000
N90T20M6
N91( PART PROGRAM COORDINATE SYSTEM )
N92G54
N93S4412M3
N94G0X-7.986Y1.331
N95Z1.000
N96Z0.100
N97F20
N98G81Y0.100Z-0.720F20
N99G79Z-2.310
N100G0Z1.000
N101Z4.000
N102( MACHINE COORDINATE SYSTEM )
N103G53
N104T0M67
N105G0Z390.000
N106X-50.000Y-600.000
N107T93M6
N108( PART PROGRAM COORDINATE SYSTEM )
N109B6.507G54
N110S3725M3
N111G0X-7.986Y1.331
N112Z1.000
N113Z0.100
N114F5
N115G81Y0.100Z-0.750F5
N116G79Z-2.310
N117G0Z1.000
N118Z4.000
N119M30
