%PM
N9001
N1( PARTNO : 2827056_PROD_1 )
N2G70
N3( MACHINE : MAHO MC 400 - US )
N4G0Z390.000
N5X-50.000Y-600.000
N6T42M6
N7( PART PROGRAM COORDINATE SYSTEM )
N8B0.000G54
N9G42
N10S459M3
N11M8
N12G0X-0.575Y0.520
N13Z1.000
N14Z0.100
N15Z=E1
N16F12
N17G1Y-5.180
N18G0Z0.100
N19Z1.000
N20G40
N21( MACHINE COORDINATE SYSTEM )
N22G53
N23T0M67
N24G0Z390.000
N25X-50.000Y-600.000
N26T42M6
N27( PART PROGRAM COORDINATE SYSTEM )
N28G54
N29G42
N30G0X-0.420Y0.900
N31Z0.100
N32Z=E1
N33F12
N34G1Y-5.560
N35G0Z0.100
N36Z1.000
N37G40
N38( MACHINE COORDINATE SYSTEM )
N39G53
N40T0M67
N41G0Z390.000
N42X-50.000Y-600.000
N43T42M6
N44( PART PROGRAM COORDINATE SYSTEM )
N45G54
N46G42
N47G0X1.962Y-2.330
N48Z0.100
N49F4
N50G1Z=E1
N51F8
N52Y-1.633
N53X2.077
N54Y-3.027
N55X1.962
N56Y-2.330
N57X1.250
N58Y-1.304
N59F6
N60G2X1.634Y-0.920I1.634J-1.304
N61F8
N62G1X2.406
N63F6
N64G2X2.790Y-1.304I2.406J-1.304
N65F8
N66G1Y-3.356
N67F6
N68G2X2.406Y-3.740I2.406J-3.356
N69F8
N70G1X1.634
N71F6
N72G2X1.250Y-3.356I1.634J-3.356
N73F8
N74G1Y-2.330
N75G0Z0.100
N76Z1.000
N77G40
N78( MACHINE COORDINATE SYSTEM )
N79G53
N80T0M67
N81G0Z390.000
N82X-50.000Y-600.000
N83T42M6
N84( PART PROGRAM COORDINATE SYSTEM )
N85G54
N86G42
N87M9
N88G0X4.610Y-5.560
N89Z0.100
N90Z=E1
N91F12
N92G1Y0.900
N93G0Z0.100
N94Z1.000
N95G40
N96( MACHINE COORDINATE SYSTEM )
N97G53
N98T0M67
N99G0Z390.000
N100X-50.000Y-600.000
N101T42M6
N102( PART PROGRAM COORDINATE SYSTEM )
N103G54
N104G42
N105M8
N106G0X4.460Y-5.560
N107Z0.100
N108Z=E1
N109F12
N110G1Y0.900
N111G0Z0.100
N112Z1.000
N113Z4.000
N114G40
N115( MACHINE COORDINATE SYSTEM )
N116G53
N117T0M67
N118G0Z390.000
N119X-50.000Y-600.000
N120T42M6
N121( PART PROGRAM COORDINATE SYSTEM )
N122B180.000G55
N123G42
N124G0X0.540Y0.720
N125Z1.000
N126Z0.100
N127Z=E1
N128F12
N129G1X-4.580
N130G0Z0.100
N131Z1.000
N132G40
N133( MACHINE COORDINATE SYSTEM )
N134G53
N135T0M67
N136G0Z390.000
N137X-50.000Y-600.000
N138T42M6
N139( PART PROGRAM COORDINATE SYSTEM )
N140G55
N141G42
N142G0X-4.580Y-5.380
N143Z0.100
N144Z=E1
N145F12
N146G1X0.540
N147G0Z0.100
N148Z1.000
N149Z4.000
N150G40
N151( MACHINE COORDINATE SYSTEM )
N152G53
N153T0M67
N154G0Z390.000
N155X-50.000Y-600.000
N156T70M6
N157( PART PROGRAM COORDINATE SYSTEM )
N158B0.000G54
N159G42
N160S551M3
N161G0X1.110Y-2.330
N162Z1.000
N163Z0.100
N164F5
N165G1Z=E1
N166F10
N167Y-0.785
N168F7
N169G2X1.115Y-0.780I1.115J-0.785
N170F10
N171G1X2.925
N172F7
N173G2X2.930Y-0.785I2.925J-0.785
N174F10
N175G1Y-3.875
N176F7
N177G2X2.925Y-3.880I2.925J-3.875
N178F10
N179G1X1.115
N180F7
N181G2X1.110Y-3.875I1.115J-3.875
N182F10
N183G1Y-2.330
N184G0Z1.000
N185G40
N186( MACHINE COORDINATE SYSTEM )
N187G53
N188T0M67
N189G0Z390.000
N190X-50.000Y-600.000
N191T79M6
N192( PART PROGRAM COORDINATE SYSTEM )
N193G54
N194G42
N195S1145M3
N196G0X0.771Y-2.330
N197Z0.100
N198F6
N199G1Z=E1
N200F12
N201Y-0.490
N202F9
N203G2X0.820Y-0.441I0.820J-0.490
N204F12
N205G1X3.220
N206F9
N207G2X3.269Y-0.490I3.220J-0.490
N208F12
N209G1Y-4.170
N210F9
N211G2X3.220Y-4.219I3.220J-4.170
N212F12
N213G1X0.820
N214F9
N215G2X0.771Y-4.170I0.820J-4.170
N216F12
N217G1Y-2.330
N218G0Z1.000
N219G40
N220( MACHINE COORDINATE SYSTEM )
N221G53
N222T0M67
N223G0Z390.000
N224X-50.000Y-600.000
N225T88M6
N226( PART PROGRAM COORDINATE SYSTEM )
N227G54
N228G42
N229S1838M3
N230G0X0.642Y-2.330
N231Z0.100
N232E1=-0.069
N233F7
N234G1X0.642Y-2.330Z=E1
N235F14
N236Y-0.319
N237F10
N238G2X0.649Y-0.313I0.649J-0.319
N239F14
N240G1X3.391
N241F10
N242G2X3.398Y-0.319I3.391J-0.319
N243F14
N244G1Y-4.341
N245F10
N246G2X3.391Y-4.347I3.391J-4.341
N247F14
N248G1X0.649
N249F10
N250G2X0.642Y-4.341I0.649J-4.341
N251F14
N252G1Y-2.330
N253E1=E1-0.068
N254G14N1=232N2=253J1
N255G0Z1.000
N256G40
N257( MACHINE COORDINATE SYSTEM )
N258G53
N259T0M67
N260G0Z390.000
N261X-50.000Y-600.000
N262T90M6
N263( PART PROGRAM COORDINATE SYSTEM )
N264G54
N265G42
N266S3446M3
N267G0X0.540Y-2.330
N268Z0.100
N269E1=-0.069
N270F5
N271G1X0.540Y-2.330Z=E1
N272F10
N273Y-0.218
N274F8
N275G2X0.548Y-0.210I0.548J-0.218
N276F10
N277G1X3.492
N278F8
N279G2X3.500Y-0.218I3.492J-0.218
N280F10
N281G1Y-4.442
N282F8
N283G2X3.492Y-4.450I3.492J-4.442
N284F10
N285G1X0.548
N286F8
N287G2X0.540Y-4.442I0.548J-4.442
N288F10
N289G1Y-2.330
N290E1=E1-0.068
N291G14N1=269N2=290J1
N292G0Z1.000
N293G40
N294( MACHINE COORDINATE SYSTEM )
N295G53
N296T0M67
N297G0Z390.000
N298X-50.000Y-600.000
N299T38M6
N300( PART PROGRAM COORDINATE SYSTEM )
N301G54
N302G41
N303S5600M3
N304G0X3.465Y-2.430
N305E1=-0.068
N306Z0.100
N307X3.465Y-2.430
N308F6
N309G1Z=E1
N310F6
N311G3X3.565Y-2.330I3.465J-2.330
N312F6
N313G1Y-0.155
N314F6
N315G3X3.555Y-0.145I3.555J-0.155
N316F6
N317G1X0.485
N318F6
N319G3X0.475Y-0.155I0.485J-0.155
N320F6
N321G1Y-4.505
N322F6
N323G3X0.485Y-4.515I0.485J-4.505
N324F6
N325G1X3.555
N326F6
N327G3X3.565Y-4.505I3.555J-4.505
N328F6
N329G1Y-2.330
N330F6
N331G3X3.465Y-2.230I3.465J-2.330
N332G0Z0.100
N333E1=E1-0.068
N334G14N1=305N2=333J1
N335G0Z1.000
N336G40
N337( MACHINE COORDINATE SYSTEM )
N338G53
N339T0M67
N340G0Z390.000
N341X-50.000Y-600.000
N342T98M6
N343( PART PROGRAM COORDINATE SYSTEM )
N344G54
N345G41
N346S3147M3
N347G0X1.934Y-2.330
N348E1=-0.247
N349Z0.100
N350X1.934Y-2.330
N351F16
N352G1Z=E1
N353F16
N354Y-2.756
N355F16
N356X2.105
N357F16
N358Y-1.908
N359F16
N360X1.934
N361F16
N362Y-2.330
N363F16
N364X1.835
N365F16
N366Y-2.855
N367F16
N368X2.206
N369F16
N370Y-1.809
N371F16
N372X1.835
N373F16
N374Y-2.330
N375F16
N376X1.734
N377F16
N378Y-2.956
N379F16
N380X2.306
N381F16
N382Y-1.709
N383F16
N384X1.734
N385F16
N386Y-2.330
N387F16
N388X1.635
N389F16
N390Y-3.056
N391F16
N392X2.405
N393F16
N394Y-1.609
N395F16
N396X1.635
N397F16
N398Y-2.330
N399F16
N400X1.535
N401F16
N402Y-3.155
N403F16
N404X2.506
N405F16
N406Y-1.508
N407F16
N408X1.535
N409F16
N410Y-2.330
N411F16
N412X1.434
N413F16
N414Y-3.256
N415F16
N416X2.605
N417F16
N418Y-1.408
N419F16
N420X1.434
N421F16
N422Y-2.330
N423F16
N424X1.335
N425F16
N426Y-3.355
N427F16
N428X2.706
N429F16
N430Y-1.309
N431F16
N432X1.335
N433F16
N434Y-2.330
N435F16
N436X1.235
N437F16
N438Y-3.456
N439F16
N440X2.806
N441F16
N442Y-1.209
N443F16
N444X1.235
N445F16
N446Y-2.330
N447F16
N448X1.135
N449F16
N450Y-3.715
N451F16
N452X1.206
N453F16
N454Y-3.556
N455F16
N456X2.905
N457F16
N458Y-1.109
N459F16
N460X1.278
N461F16
N462Y-0.945
N463F16
N464X1.135
N465F16
N466Y-2.330
N467F16
N468X1.035
N469F16
N470Y-3.816
N471F16
N472X1.306
N473F16
N474Y-3.655
N475F16
N476X3.006
N477F16
N478Y-1.008
N479F16
N480X1.378
N481F16
N482Y-0.845
N483F16
N484X1.035
N485F16
N486Y-2.330
N487F16
N488X0.934
N489F16
N490Y-3.915
N491F16
N492X1.405
N493F16
N494Y-3.756
N495F16
N496X3.105
N497F16
N498Y-0.909
N499F16
N500X1.477
N501F16
N502Y-0.744
N503F16
N504X0.934
N505F16
N506Y-2.330
N507F16
N508X0.835
N509F16
N510Y-4.016
N511F16
N512X1.506
N513F16
N514Y-3.855
N515F16
N516X3.206
N517F16
N518Y-0.808
N519F16
N520X1.577
N521F16
N522Y-0.645
N523F16
N524X0.835
N525F16
N526Y-2.330
N527F16
N528X0.734
N529F16
N530Y-4.115
N531F16
N532X1.605
N533F16
N534Y-3.956
N535F16
N536X3.306
N537F16
N538Y-0.709
N539F16
N540X1.678
N541F16
N542Y-0.544
N543F16
N544X0.734
N545F16
N546Y-2.330
N547F16
N548X0.635
N549F16
N550Y-4.215
N551F16
N552X1.706
N553F16
N554Y-4.056
N555F16
N556X3.405
N557F16
N558Y-0.609
N559F16
N560X1.777
N561F16
N562Y-0.444
N563F16
N564X0.635
N565F16
N566Y-2.330
N567F16
N568X0.535
N569F16
N570Y-4.390
N571F16
N572G3X0.565Y-4.394I0.550J-4.390
N573F16
N574G1X0.588Y-4.315
N575F16
N576X1.790
N577F16
N578G3X1.806Y-4.300I1.790J-4.300
N579F16
N580G1Y-4.155
N581F16
N582X3.452
N583F16
N584X3.475Y-4.234
N585F16
N586G3X3.506Y-4.230I3.490J-4.230
N587F16
N588G1Y-0.434
N589F16
N590G3X3.475Y-0.430I3.490J-0.434
N591F16
N592G1X3.452Y-0.508
N593F16
N594X1.878
N595F16
N596Y-0.360
N597F16
N598G3X1.862Y-0.345I1.862J-0.360
N599F16
N600G1X0.588
N601F16
N602X0.565Y-0.266
N603F16
N604G3X0.535Y-0.270I0.550J-0.270
N605F16
N606G1Y-2.330
N607G0Z0.100
N608E1=E1-0.110
N609G14N1=348N2=608J1
N610G0Z1.000
N611G40
N612( MACHINE COORDINATE SYSTEM )
N613G53
N614T0M67
N615G0Z390.000
N616X-50.000Y-600.000
N617T38M6
N618( PART PROGRAM COORDINATE SYSTEM )
N619G54
N620G42
N621S5600M3
N622G0X2.745Y-2.332
N623Z0.100
N624E1=-0.390
N625F3
N626G1X2.745Y-2.332Z=E1
N627F6
N628Y-3.462
N629F5
N630G2X2.725I2.735J-3.462
N631F6
N632G1Y-1.202
N633F5
N634G2X2.745I2.735J-1.202
N635F6
N636G1Y-2.332
N637E1=E1-0.033
N638G14N1=624N2=637J4
N639G0Z1.000
N640Z4.000
N641G40
N642( MACHINE COORDINATE SYSTEM )
N643G53
N644T0M67
N645G0Z390.000
N646X-50.000Y-600.000
N647T38M6
N648( PART PROGRAM COORDINATE SYSTEM )
N649B180.000G55
N650G42
N651G0X-0.125Y-4.340
N652Z1.000
N653E1=-0.032
N654Z0.100
N655X-0.125Y-4.340
N656Z=E1
N657F6
N658G1Y-0.320
N659G0Z0.100
N660E1=E1-0.032
N661G14N1=653N2=660J3
N662G0Z1.000
N663G40
N664( MACHINE COORDINATE SYSTEM )
N665G53
N666T0M67
N667G0Z390.000
N668X-50.000Y-600.000
N669T38M6
N670( PART PROGRAM COORDINATE SYSTEM )
N671G55
N672G42
N673G0X-3.910Y-0.380
N674E1=-0.032
N675Z0.100
N676X-3.910Y-0.380
N677Z=E1
N678F6
N679G1Y-4.280
N680G0Z0.100
N681E1=E1-0.032
N682G14N1=674N2=681J3
N683G0Z1.000
N684Z4.000
N685G40
N686( MACHINE COORDINATE SYSTEM )
N687G53
N688T0M67
N689G0Z390.000
N690X-50.000Y-600.000
N691T110M6
N692( PART PROGRAM COORDINATE SYSTEM )
N693B0.000G54
N694G42
N695S2101M3
N696M9
N697G0X-0.071Y0.167
N698Z1.000
N699E1=-0.211
N700Z-0.211
N701X0.196Y0.167
N702F32
N703G1Y-0.200
N704F24
N705G2X0.180Y-0.216I0.180J-0.200
N706F32
N707G1X-0.022
N708G0Z0.100
N709E1=E1-0.131
N710G14N1=699N2=709J2
N711G0Z1.000
N712G40
N713( MACHINE COORDINATE SYSTEM )
N714G53
N715T0M67
N716G0Z390.000
N717X-50.000Y-600.000
N718T110M6
N719( PART PROGRAM COORDINATE SYSTEM )
N720G54
N721G42
N722G0X4.110Y-4.827
N723E1=-0.211
N724Z-0.211
N725X3.844Y-4.827
N726F32
N727G1Y-4.460
N728F24
N729G2X3.860Y-4.444I3.860J-4.460
N730F32
N731G1X4.057
N732G0Z0.100
N733E1=E1-0.131
N734G14N1=723N2=733J2
N735G0Z1.000
N736G40
N737( MACHINE COORDINATE SYSTEM )
N738G53
N739T0M67
N740G0Z390.000
N741X-50.000Y-600.000
N742T110M6
N743( PART PROGRAM COORDINATE SYSTEM )
N744G54
N745G42
N746G0X-0.022Y-4.710
N747E1=-0.211
N748Z0.100
N749X-0.022Y-4.444
N750Z=E1
N751F32
N752G1X0.180
N753F24
N754G2X0.196Y-4.460I0.180J-4.460
N755F32
N756G1Y-4.827
N757G0Z0.100
N758E1=E1-0.131
N759G14N1=747N2=758J2
N760G0Z1.000
N761G40
N762( MACHINE COORDINATE SYSTEM )
N763G53
N764T0M67
N765G0Z390.000
N766X-50.000Y-600.000
N767T110M6
N768( PART PROGRAM COORDINATE SYSTEM )
N769G54
N770G42
N771G0X4.057Y0.051
N772E1=-0.211
N773Z0.100
N774X4.057Y-0.216
N775Z=E1
N776F32
N777G1X3.860
N778F24
N779G2X3.844Y-0.200I3.860J-0.200
N780F32
N781G1Y0.167
N782G0Z0.100
N783E1=E1-0.131
N784G14N1=772N2=783J2
N785G0Z1.000
N786G40
N787( MACHINE COORDINATE SYSTEM )
N788G53
N789T0M67
N790G0Z390.000
N791X-50.000Y-600.000
N792T101M6
N793( PART PROGRAM COORDINATE SYSTEM )
N794G54
N795G42
N796S2209M3
N797M8
N798G0X2.809Y-2.329
N799Z0.100
N800F12
N801G1Z=E1
N802F12
N803Y-2.498
N804F12
N805G3X2.661Y-2.619I3.190J-3.116
N806F12
N807G1X2.631
N808F12
N809Y-2.038
N810F12
N811X2.661
N812F12
N813G3X2.809Y-2.159I3.190J-1.541
N814F12
N815G1Y-2.329
N816F12
N817X2.909
N818F12
N819Y-2.557
N820F12
N821G3X2.706Y-2.719I3.190J-3.116
N822F12
N823G1X2.564
N824F12
N825X2.531Y-2.682
N826F12
N827Y-1.975
N828F12
N829X2.564Y-1.938
N830F12
N831X2.706
N832F12
N833G3X2.909Y-2.100I3.190J-1.541
N834F12
N835G1Y-2.329
N836F12
N837X3.009
N838F12
N839Y-2.622
N840F12
N841G3X2.756Y-2.819I3.190J-3.116
N842F12
N843G1X2.514
N844F12
N845G3X2.431Y-2.724I2.080J-3.116
N846F12
N847G1Y-1.933
N848F12
N849G3X2.514Y-1.838I2.080J-1.541
N850F12
N851G1X2.756
N852F12
N853G3X3.009Y-2.035I3.190J-1.541
N854F12
N855G1Y-2.329
N856F12
N857X3.109
N858F12
N859Y-2.698
N860F12
N861G3X2.812Y-2.919I3.190J-3.116
N862F12
N863G1X2.458
N864F12
N865G3X2.298Y-2.750I2.080J-3.116
N866F12
N867G1X2.331
N868F12
N869Y-1.885
N870F12
N871G3X2.458Y-1.738I2.080J-1.541
N872F12
N873G1X2.812
N874F12
N875G3X3.109Y-1.959I3.190J-1.541
N876F12
N877G1Y-2.329
N878F12
N879X3.209
N880F12
N881Y-2.790
N882F12
N883X3.190
N884F12
N885G3X2.879Y-3.019I3.190J-3.116
N886F12
N887G1X2.391
N888F12
N889G3X2.080Y-2.790I2.080J-3.116
N890F12
N891G1X2.051
N892F12
N893Y-2.650
N894F12
N895X2.231
N896F12
N897Y-1.830
N898F12
N899G3X2.391Y-1.638I2.080J-1.541
N900F12
N901G1X2.879
N902F12
N903G3X3.190Y-1.867I3.190J-1.541
N904F12
N905G1X3.209
N906F12
N907Y-2.329
N908F12
N909X3.309
N910F12
N911Y-2.901
N912F12
N913G3X3.240Y-2.890I3.240J-3.116
N914F12
N915G1X3.190
N916F12
N917G3X2.964Y-3.116I3.190J-3.116
N918F12
N919G1Y-3.119
N920F12
N921X2.306
N922F12
N923Y-3.116
N924F12
N925G3X2.080Y-2.890I2.080J-3.116
N926F12
N927G1X2.030
N928F12
N929G3X1.951Y-2.904I2.030J-3.116
N930F12
N931G1Y-2.550
N932F12
N933X2.131
N934F12
N935Y-1.761
N936F12
N937G3X2.306Y-1.541I2.080J-1.541
N938F12
N939G1Y-1.538
N940F12
N941X2.964
N942F12
N943Y-1.541
N944F12
N945G3X3.190Y-1.767I3.190J-1.541
N946F12
N947G1X3.240
N948F12
N949G3X3.309Y-1.756I3.240J-1.541
N950F12
N951G1Y-2.329
N952G0Z0.100
N953Z1.000
N954G40
N955( MACHINE COORDINATE SYSTEM )
N956G53
N957T0M67
N958G0Z390.000
N959X-50.000Y-600.000
N960T78M6
N961( PART PROGRAM COORDINATE SYSTEM )
N962G54
N963G41
N964G0X3.392Y-2.329
N965Z0.100
N966F12
N967G1Z=E1
N968F12
N969Y-1.455
N970F12
N971X3.383
N972F12
N973Y-1.541
N974F12
N975G2X3.240Y-1.684I3.240J-1.541
N976F12
N977G1X3.190
N978F12
N979G2X3.047Y-1.541I3.190J-1.541
N980F12
N981G1Y-1.455
N982F12
N983X2.223
N984F12
N985Y-1.541
N986F12
N987G2X2.080Y-1.684I2.080J-1.541
N988F12
N989G1X2.030
N990F12
N991G2X1.887Y-1.541I2.030J-1.541
N992F12
N993G1Y-1.455
N994F12
N995X1.868
N996F12
N997Y-1.721
N998F12
N999X2.048
N1000F12
N1001Y-2.467
N1002F12
N1003X1.868
N1004F12
N1005Y-3.202
N1006F12
N1007X1.887
N1008F12
N1009Y-3.116
N1010F12
N1011G2X2.030Y-2.973I2.030J-3.116
N1012F12
N1013G1X2.080
N1014F12
N1015G2X2.223Y-3.116I2.080J-3.116
N1016F12
N1017G1Y-3.202
N1018F12
N1019X3.047
N1020F12
N1021Y-3.116
N1022F12
N1023G2X3.190Y-2.973I3.190J-3.116
N1024F12
N1025G1X3.240
N1026F12
N1027G2X3.383Y-3.116I3.240J-3.116
N1028F12
N1029G1Y-3.202
N1030F12
N1031X3.392
N1032F12
N1033Y-2.329
N1034Z1.000
N1035G40
N1036( MACHINE COORDINATE SYSTEM )
N1037G53
N1038T0M67
N1039G0Z390.000
N1040X-50.000Y-600.000
N1041T38M6
N1042( PART PROGRAM COORDINATE SYSTEM )
N1043G54
N1044G42
N1045S5600M3
N1046G0X3.389Y-2.279
N1047E1=-0.175
N1048Z0.100
N1049X3.389Y-2.279
N1050F5
N1051G1Z=E1
N1052F9
N1053X3.399Y-2.268
N1054F7
N1055G2X3.425Y-2.279I3.410J-2.279
N1056F9
N1057G1Y-2.329
N1058F9
N1059Y-3.225
N1060F7
N1061G2X3.415Y-3.235I3.415J-3.225
N1062F9
N1063G1X3.360
N1064F7
N1065G2X3.350Y-3.225I3.360J-3.225
N1066F9
N1067G1Y-3.116
N1068F7
N1069G3X3.240Y-3.006I3.240J-3.116
N1070F9
N1071G1X3.190
N1072F7
N1073G3X3.080Y-3.116I3.190J-3.116
N1074F9
N1075G1Y-3.225
N1076F7
N1077G2X3.070Y-3.235I3.070J-3.225
N1078F9
N1079G1X2.200
N1080F7
N1081G2X2.190Y-3.225I2.200J-3.225
N1082F9
N1083G1Y-3.116
N1084F7
N1085G3X2.080Y-3.006I2.080J-3.116
N1086F9
N1087G1X2.030
N1088F7
N1089G3X1.920Y-3.116I2.030J-3.116
N1090F9
N1091G1Y-3.225
N1092F7
N1093G2X1.910Y-3.235I1.910J-3.225
N1094F9
N1095G1X1.845
N1096F7
N1097G2X1.835Y-3.225I1.845J-3.225
N1098F9
N1099G1Y-2.444
N1100F7
N1101G2X1.845Y-2.434I1.845J-2.444
N1102F9
N1103G1X2.015
N1104F9
N1105Y-1.754
N1106F9
N1107X1.845
N1108F7
N1109G2X1.835Y-1.744I1.845J-1.744
N1110F9
N1111G1Y-1.432
N1112F7
N1113G2X1.845Y-1.422I1.845J-1.432
N1114F9
N1115G1X1.910
N1116F7
N1117G2X1.920Y-1.432I1.910J-1.432
N1118F9
N1119G1Y-1.541
N1120F7
N1121G3X2.030Y-1.651I2.030J-1.541
N1122F9
N1123G1X2.080
N1124F7
N1125G3X2.190Y-1.541I2.080J-1.541
N1126F9
N1127G1Y-1.432
N1128F7
N1129G2X2.200Y-1.422I2.200J-1.432
N1130F9
N1131G1X3.070
N1132F7
N1133G2X3.080Y-1.432I3.070J-1.432
N1134F9
N1135G1Y-1.541
N1136F7
N1137G3X3.190Y-1.651I3.190J-1.541
N1138F9
N1139G1X3.240
N1140F7
N1141G3X3.350Y-1.541I3.240J-1.541
N1142F9
N1143G1Y-1.432
N1144F7
N1145G2X3.360Y-1.422I3.360J-1.432
N1146F9
N1147G1X3.415
N1148F7
N1149G2X3.425Y-1.432I3.415J-1.432
N1150F9
N1151G1Y-2.329
N1152F9
N1153Y-2.428
N1154F7
N1155G2X3.423Y-2.436I3.410J-2.428
N1156F9
N1157G1X3.415Y-2.449
N1158G0Z0.100
N1159E1=E1-0.050
N1160G14N1=1047N2=1159J1
N1161G0Z1.000
N1162G40
N1163( MACHINE COORDINATE SYSTEM )
N1164G53
N1165T0M67
N1166G0Z390.000
N1167X-50.000Y-600.000
N1168T104M6
N1169( PART PROGRAM COORDINATE SYSTEM )
N1170G54
N1171G0X2.549Y-2.413
N1172Z0.100
N1173F26
N1174G81Y0.100Z-0.020F26
N1175G79Z-0.457
N1176G0Z1.000
N1177( MACHINE COORDINATE SYSTEM )
N1178G53
N1179T0M67
N1180G0Z390.000
N1181X-50.000Y-600.000
N1182T104M6
N1183( PART PROGRAM COORDINATE SYSTEM )
N1184G54
N1185G0X2.549Y-2.712
N1186Z0.100
N1187G81Y0.100Z-0.020F26
N1188G79Z-0.457
N1189G0Z1.000
N1190( MACHINE COORDINATE SYSTEM )
N1191G53
N1192T0M67
N1193G0Z390.000
N1194X-50.000Y-600.000
N1195T104M6
N1196( PART PROGRAM COORDINATE SYSTEM )
N1197G54
N1198G0X2.840Y-2.773
N1199Z0.100
N1200G81Y0.100Z-0.020F26
N1201G79Z-0.457
N1202G0Z1.000
N1203( MACHINE COORDINATE SYSTEM )
N1204G53
N1205T0M67
N1206G0Z390.000
N1207X-50.000Y-600.000
N1208T104M6
N1209( PART PROGRAM COORDINATE SYSTEM )
N1210G54
N1211G0X3.259Y-2.773
N1212Z0.100
N1213G81Y0.100Z-0.020F26
N1214G79Z-0.457
N1215G0Z1.000
N1216( MACHINE COORDINATE SYSTEM )
N1217G53
N1218T0M67
N1219G0Z390.000
N1220X-50.000Y-600.000
N1221T104M6
N1222( PART PROGRAM COORDINATE SYSTEM )
N1223G54
N1224G0X3.535Y-2.790
N1225Z0.100
N1226G81Y0.100Z-0.014F26
N1227G79Z-0.357
N1228G0Z1.000
N1229( MACHINE COORDINATE SYSTEM )
N1230G53
N1231T0M67
N1232G0Z390.000
N1233X-50.000Y-600.000
N1234T104M6
N1235( PART PROGRAM COORDINATE SYSTEM )
N1236G54
N1237G0X3.535Y-2.390
N1238Z0.100
N1239G81Y0.100Z-0.014F26
N1240G79Z-0.357
N1241G0Z1.000
N1242( MACHINE COORDINATE SYSTEM )
N1243G53
N1244T0M67
N1245G0Z390.000
N1246X-50.000Y-600.000
N1247T104M6
N1248( PART PROGRAM COORDINATE SYSTEM )
N1249G54
N1250G0X3.259Y-2.233
N1251Z0.100
N1252G81Y0.100Z-0.020F26
N1253G79Z-0.457
N1254G0Z1.000
N1255( MACHINE COORDINATE SYSTEM )
N1256G53
N1257T0M67
N1258G0Z390.000
N1259X-50.000Y-600.000
N1260T104M6
N1261( PART PROGRAM COORDINATE SYSTEM )
N1262G54
N1263G0X3.369Y-2.079
N1264Z0.100
N1265G81Y0.100Z-0.020F26
N1266G79Z-0.457
N1267G0Z1.000
N1268( MACHINE COORDINATE SYSTEM )
N1269G53
N1270T0M67
N1271G0Z390.000
N1272X-50.000Y-600.000
N1273T104M6
N1274( PART PROGRAM COORDINATE SYSTEM )
N1275G54
N1276G0X3.369Y-1.777
N1277Z0.100
N1278G81Y0.100Z-0.020F26
N1279G79Z-0.457
N1280G0Z1.000
N1281( MACHINE COORDINATE SYSTEM )
N1282G53
N1283T0M67
N1284G0Z390.000
N1285X-50.000Y-600.000
N1286T104M6
N1287( PART PROGRAM COORDINATE SYSTEM )
N1288G54
N1289G0X3.215Y-1.526
N1290Z0.100
N1291G81Y0.100Z-0.020F26
N1292G79Z-0.357
N1293G0Z1.000
N1294( MACHINE COORDINATE SYSTEM )
N1295G53
N1296T0M67
N1297G0Z390.000
N1298X-50.000Y-600.000
N1299T104M6
N1300( PART PROGRAM COORDINATE SYSTEM )
N1301G54
N1302G0X3.030Y-1.305
N1303Z0.100
N1304G81Y0.100Z-0.020F26
N1305G79Z-0.357
N1306G0Z1.000
N1307( MACHINE COORDINATE SYSTEM )
N1308G53
N1309T0M67
N1310G0Z390.000
N1311X-50.000Y-600.000
N1312T104M6
N1313( PART PROGRAM COORDINATE SYSTEM )
N1314G54
N1315G0X3.049Y-1.037
N1316Z0.100
N1317G81Y0.100Z-0.014F26
N1318G79Z-0.357
N1319G0Z1.000
N1320( MACHINE COORDINATE SYSTEM )
N1321G53
N1322T0M67
N1323G0Z390.000
N1324X-50.000Y-600.000
N1325T104M6
N1326( PART PROGRAM COORDINATE SYSTEM )
N1327G54
N1328G0X2.900Y-1.037
N1329Z0.100
N1330G81Y0.100Z-0.014F26
N1331G79Z-0.357
N1332G0Z1.000
N1333( MACHINE COORDINATE SYSTEM )
N1334G53
N1335T0M67
N1336G0Z390.000
N1337X-50.000Y-600.000
N1338T104M6
N1339( PART PROGRAM COORDINATE SYSTEM )
N1340G54
N1341G0X2.550Y-1.037
N1342Z0.100
N1343G81Y0.100Z-0.014F26
N1344G79Z-0.357
N1345G0Z1.000
N1346( MACHINE COORDINATE SYSTEM )
N1347G53
N1348T0M67
N1349G0Z390.000
N1350X-50.000Y-600.000
N1351T104M6
N1352( PART PROGRAM COORDINATE SYSTEM )
N1353G54
N1354G0X2.402Y-1.037
N1355Z0.100
N1356G81Y0.100Z-0.014F26
N1357G79Z-0.357
N1358G0Z1.000
N1359( MACHINE COORDINATE SYSTEM )
N1360G53
N1361T0M67
N1362G0Z390.000
N1363X-50.000Y-600.000
N1364T104M6
N1365( PART PROGRAM COORDINATE SYSTEM )
N1366G54
N1367G0X2.240Y-1.305
N1368Z0.100
N1369G81Y0.100Z-0.020F26
N1370G79Z-0.357
N1371G0Z1.000
N1372( MACHINE COORDINATE SYSTEM )
N1373G53
N1374T0M67
N1375G0Z390.000
N1376X-50.000Y-600.000
N1377T104M6
N1378( PART PROGRAM COORDINATE SYSTEM )
N1379G54
N1380G0X2.055Y-1.526
N1381Z0.100
N1382G81Y0.100Z-0.020F26
N1383G79Z-0.357
N1384G0Z1.000
N1385( MACHINE COORDINATE SYSTEM )
N1386G53
N1387T0M67
N1388G0Z390.000
N1389X-50.000Y-600.000
N1390T104M6
N1391( PART PROGRAM COORDINATE SYSTEM )
N1392G54
N1393G0X2.055Y-1.847
N1394Z0.100
N1395G81Y0.100Z-0.020F26
N1396G79Z-0.457
N1397G0Z1.000
N1398( MACHINE COORDINATE SYSTEM )
N1399G53
N1400T0M67
N1401G0Z390.000
N1402X-50.000Y-600.000
N1403T104M6
N1404( PART PROGRAM COORDINATE SYSTEM )
N1405G54
N1406G0X1.880Y-1.894
N1407Z0.100
N1408G81Y0.100Z-0.014F26
N1409G79Z-0.357
N1410G0Z1.000
N1411( MACHINE COORDINATE SYSTEM )
N1412G53
N1413T0M67
N1414G0Z390.000
N1415X-50.000Y-600.000
N1416T104M6
N1417( PART PROGRAM COORDINATE SYSTEM )
N1418G54
N1419G0X2.055Y-2.222
N1420Z0.100
N1421G81Y0.100Z-0.020F26
N1422G79Z-0.457
N1423G0Z1.000
N1424( MACHINE COORDINATE SYSTEM )
N1425G53
N1426T0M67
N1427G0Z390.000
N1428X-50.000Y-600.000
N1429T104M6
N1430( PART PROGRAM COORDINATE SYSTEM )
N1431G54
N1432G0X1.880Y-2.294
N1433Z0.100
N1434G81Y0.100Z-0.014F26
N1435G79Z-0.357
N1436G0Z1.000
N1437( MACHINE COORDINATE SYSTEM )
N1438G53
N1439T0M67
N1440G0Z390.000
N1441X-50.000Y-600.000
N1442T104M6
N1443( PART PROGRAM COORDINATE SYSTEM )
N1444G54
N1445G0X1.890Y-2.712
N1446Z0.100
N1447G81Y0.100Z-0.020F26
N1448G79Z-0.457
N1449G0Z1.000
N1450( MACHINE COORDINATE SYSTEM )
N1451G53
N1452T0M67
N1453G0Z390.000
N1454X-50.000Y-600.000
N1455T104M6
N1456( PART PROGRAM COORDINATE SYSTEM )
N1457G54
N1458G0X2.055Y-3.131
N1459Z0.100
N1460G81Y0.100Z-0.020F26
N1461G79Z-0.357
N1462G0Z1.000
N1463( MACHINE COORDINATE SYSTEM )
N1464G53
N1465T0M67
N1466G0Z390.000
N1467X-50.000Y-600.000
N1468T104M6
N1469( PART PROGRAM COORDINATE SYSTEM )
N1470G54
N1471G0X2.240Y-3.354
N1472Z0.100
N1473G81Y0.100Z-0.020F26
N1474G79Z-0.357
N1475G0Z1.000
N1476( MACHINE COORDINATE SYSTEM )
N1477G53
N1478T0M67
N1479G0Z390.000
N1480X-50.000Y-600.000
N1481T104M6
N1482( PART PROGRAM COORDINATE SYSTEM )
N1483G54
N1484G0X2.402Y-3.627
N1485Z0.100
N1486G81Y0.100Z-0.014F26
N1487G79Z-0.357
N1488G0Z1.000
N1489( MACHINE COORDINATE SYSTEM )
N1490G53
N1491T0M67
N1492G0Z390.000
N1493X-50.000Y-600.000
N1494T104M6
N1495( PART PROGRAM COORDINATE SYSTEM )
N1496G54
N1497G0X2.550Y-3.627
N1498Z0.100
N1499G81Y0.100Z-0.014F26
N1500G79Z-0.357
N1501G0Z1.000
N1502( MACHINE COORDINATE SYSTEM )
N1503G53
N1504T0M67
N1505G0Z390.000
N1506X-50.000Y-600.000
N1507T104M6
N1508( PART PROGRAM COORDINATE SYSTEM )
N1509G54
N1510G0X2.900Y-3.627
N1511Z0.100
N1512G81Y0.100Z-0.014F26
N1513G79Z-0.357
N1514G0Z1.000
N1515( MACHINE COORDINATE SYSTEM )
N1516G53
N1517T0M67
N1518G0Z390.000
N1519X-50.000Y-600.000
N1520T104M6
N1521( PART PROGRAM COORDINATE SYSTEM )
N1522G54
N1523G0X3.049Y-3.627
N1524Z0.100
N1525G81Y0.100Z-0.014F26
N1526G79Z-0.357
N1527G0Z1.000
N1528( MACHINE COORDINATE SYSTEM )
N1529G53
N1530T0M67
N1531G0Z390.000
N1532X-50.000Y-600.000
N1533T104M6
N1534( PART PROGRAM COORDINATE SYSTEM )
N1535G54
N1536G0X3.030Y-3.354
N1537Z0.100
N1538G81Y0.100Z-0.020F26
N1539G79Z-0.357
N1540G0Z1.000
N1541( MACHINE COORDINATE SYSTEM )
N1542G53
N1543T0M67
N1544G0Z390.000
N1545X-50.000Y-600.000
N1546T104M6
N1547( PART PROGRAM COORDINATE SYSTEM )
N1548G54
N1549G0X3.215Y-3.131
N1550Z0.100
N1551G81Y0.100Z-0.020F26
N1552G79Z-0.357
N1553G0Z1.000
N1554( MACHINE COORDINATE SYSTEM )
N1555G53
N1556T0M67
N1557G0Z390.000
N1558X-50.000Y-600.000
N1559T104M6
N1560( PART PROGRAM COORDINATE SYSTEM )
N1561G54
N1562G0X3.535Y-3.627
N1563Z0.100
N1564G81Y0.100Z-0.014F26
N1565G79Z-0.357
N1566G0Z1.000
N1567( MACHINE COORDINATE SYSTEM )
N1568G53
N1569T0M67
N1570G0Z390.000
N1571X-50.000Y-600.000
N1572T104M6
N1573( PART PROGRAM COORDINATE SYSTEM )
N1574G54
N1575G0X3.535Y-4.157
N1576Z0.100
N1577G81Y0.100Z-0.014F26
N1578G79Z-0.357
N1579G0Z1.000
N1580( MACHINE COORDINATE SYSTEM )
N1581G53
N1582T0M67
N1583G0Z390.000
N1584X-50.000Y-600.000
N1585T104M6
N1586( PART PROGRAM COORDINATE SYSTEM )
N1587G54
N1588G0X3.205Y-4.315
N1589Z0.100
N1590G81Y0.100Z-0.014F26
N1591G79Z-0.137
N1592G0Z1.000
N1593( MACHINE COORDINATE SYSTEM )
N1594G53
N1595T0M67
N1596G0Z390.000
N1597X-50.000Y-600.000
N1598T104M6
N1599( PART PROGRAM COORDINATE SYSTEM )
N1600G54
N1601G0X3.049Y-4.157
N1602Z0.100
N1603G81Y0.100Z-0.014F26
N1604G79Z-0.357
N1605G0Z1.000
N1606( MACHINE COORDINATE SYSTEM )
N1607G53
N1608T0M67
N1609G0Z390.000
N1610X-50.000Y-600.000
N1611T104M6
N1612( PART PROGRAM COORDINATE SYSTEM )
N1613G54
N1614G0X2.900Y-4.157
N1615Z0.100
N1616G81Y0.100Z-0.014F26
N1617G79Z-0.357
N1618G0Z1.000
N1619( MACHINE COORDINATE SYSTEM )
N1620G53
N1621T0M67
N1622G0Z390.000
N1623X-50.000Y-600.000
N1624T104M6
N1625( PART PROGRAM COORDINATE SYSTEM )
N1626G54
N1627G0X2.550Y-4.157
N1628Z0.100
N1629G81Y0.100Z-0.014F26
N1630G79Z-0.357
N1631G0Z1.000
N1632( MACHINE COORDINATE SYSTEM )
N1633G53
N1634T0M67
N1635G0Z390.000
N1636X-50.000Y-600.000
N1637T104M6
N1638( PART PROGRAM COORDINATE SYSTEM )
N1639G54
N1640G0X2.402Y-4.157
N1641Z0.100
N1642G81Y0.100Z-0.014F26
N1643G79Z-0.357
N1644G0Z1.000
N1645( MACHINE COORDINATE SYSTEM )
N1646G53
N1647T0M67
N1648G0Z390.000
N1649X-50.000Y-600.000
N1650T104M6
N1651( PART PROGRAM COORDINATE SYSTEM )
N1652G54
N1653G0X2.052Y-4.157
N1654Z0.100
N1655G81Y0.100Z-0.014F26
N1656G79Z-0.357
N1657G0Z1.000
N1658( MACHINE COORDINATE SYSTEM )
N1659G53
N1660T0M67
N1661G0Z390.000
N1662X-50.000Y-600.000
N1663T104M6
N1664( PART PROGRAM COORDINATE SYSTEM )
N1665G54
N1666G0X1.880Y-4.035
N1667Z0.100
N1668G81Y0.100Z-0.014F26
N1669G79Z-0.357
N1670G0Z1.000
N1671( MACHINE COORDINATE SYSTEM )
N1672G53
N1673T0M67
N1674G0Z390.000
N1675X-50.000Y-600.000
N1676T104M6
N1677( PART PROGRAM COORDINATE SYSTEM )
N1678G54
N1679G0X1.880Y-3.635
N1680Z0.100
N1681G81Y0.100Z-0.014F26
N1682G79Z-0.357
N1683G0Z1.000
N1684( MACHINE COORDINATE SYSTEM )
N1685G53
N1686T0M67
N1687G0Z390.000
N1688X-50.000Y-600.000
N1689T104M6
N1690( PART PROGRAM COORDINATE SYSTEM )
N1691G54
N1692G0X2.052Y-3.627
N1693Z0.100
N1694G81Y0.100Z-0.014F26
N1695G79Z-0.357
N1696G0Z1.000
N1697( MACHINE COORDINATE SYSTEM )
N1698G53
N1699T0M67
N1700G0Z390.000
N1701X-50.000Y-600.000
N1702T104M6
N1703( PART PROGRAM COORDINATE SYSTEM )
N1704G54
N1705G0X2.065Y-4.315
N1706Z0.100
N1707G81Y0.100Z-0.014F26
N1708G79Z-0.137
N1709G0Z1.000
N1710( MACHINE COORDINATE SYSTEM )
N1711G53
N1712T0M67
N1713G0Z390.000
N1714X-50.000Y-600.000
N1715T104M6
N1716( PART PROGRAM COORDINATE SYSTEM )
N1717G54
N1718G0X0.770Y-4.305
N1719Z0.100
N1720G81Y0.100Z-0.014F26
N1721G79Z-0.357
N1722G0Z1.000
N1723( MACHINE COORDINATE SYSTEM )
N1724G53
N1725T0M67
N1726G0Z390.000
N1727X-50.000Y-600.000
N1728T104M6
N1729( PART PROGRAM COORDINATE SYSTEM )
N1730G54
N1731G0X0.545Y-4.305
N1732Z0.100
N1733G81Y0.100Z-0.014F26
N1734G79Z-0.357
N1735G0Z1.000
N1736( MACHINE COORDINATE SYSTEM )
N1737G53
N1738T0M67
N1739G0Z390.000
N1740X-50.000Y-600.000
N1741T104M6
N1742( PART PROGRAM COORDINATE SYSTEM )
N1743G54
N1744G0X0.753Y-4.475
N1745Z0.100
N1746G81Y0.100Z-0.014F26
N1747G79Z-0.137
N1748G0Z1.000
N1749( MACHINE COORDINATE SYSTEM )
N1750G53
N1751T0M67
N1752G0Z390.000
N1753X-50.000Y-600.000
N1754T104M6
N1755( PART PROGRAM COORDINATE SYSTEM )
N1756G54
N1757G0X0.180Y-4.460
N1758Z0.100
N1759G81Y0.100Z-0.042F26
N1760G79Z-0.472
N1761G0Z1.000
N1762( MACHINE COORDINATE SYSTEM )
N1763G53
N1764T0M67
N1765G0Z390.000
N1766X-50.000Y-600.000
N1767T104M6
N1768( PART PROGRAM COORDINATE SYSTEM )
N1769G54
N1770G0X0.545Y-3.788
N1771Z0.100
N1772G81Y0.100Z-0.014F26
N1773G79Z-0.357
N1774G0Z1.000
N1775( MACHINE COORDINATE SYSTEM )
N1776G53
N1777T0M67
N1778G0Z390.000
N1779X-50.000Y-600.000
N1780T104M6
N1781( PART PROGRAM COORDINATE SYSTEM )
N1782G54
N1783G0X0.715Y-3.180
N1784Z0.100
N1785G81Y0.100Z-0.014F26
N1786G79Z-0.357
N1787G0Z1.000
N1788( MACHINE COORDINATE SYSTEM )
N1789G53
N1790T0M67
N1791G0Z390.000
N1792X-50.000Y-600.000
N1793T104M6
N1794( PART PROGRAM COORDINATE SYSTEM )
N1795G54
N1796G0X0.658Y-2.580
N1797Z0.100
N1798G81Y0.100Z-0.014F26
N1799G79Z-0.357
N1800G0Z1.000
N1801( MACHINE COORDINATE SYSTEM )
N1802G53
N1803T0M67
N1804G0Z390.000
N1805X-50.000Y-600.000
N1806T104M6
N1807( PART PROGRAM COORDINATE SYSTEM )
N1808G54
N1809G0X0.658Y-2.330
N1810Z0.100
N1811G81Y0.100Z-0.014F26
N1812G79Z-0.357
N1813G0Z1.000
N1814( MACHINE COORDINATE SYSTEM )
N1815G53
N1816T0M67
N1817G0Z390.000
N1818X-50.000Y-600.000
N1819T104M6
N1820( PART PROGRAM COORDINATE SYSTEM )
N1821G54
N1822G0X0.658Y-2.080
N1823Z0.100
N1824G81Y0.100Z-0.014F26
N1825G79Z-0.357
N1826G0Z1.000
N1827( MACHINE COORDINATE SYSTEM )
N1828G53
N1829T0M67
N1830G0Z390.000
N1831X-50.000Y-600.000
N1832T104M6
N1833( PART PROGRAM COORDINATE SYSTEM )
N1834G54
N1835G0X0.715Y-1.480
N1836Z0.100
N1837G81Y0.100Z-0.014F26
N1838G79Z-0.357
N1839G0Z1.000
N1840( MACHINE COORDINATE SYSTEM )
N1841G53
N1842T0M67
N1843G0Z390.000
N1844X-50.000Y-600.000
N1845T104M6
N1846( PART PROGRAM COORDINATE SYSTEM )
N1847G54
N1848G0X0.545Y-0.932
N1849Z0.100
N1850G81Y0.100Z-0.014F26
N1851G79Z-0.357
N1852G0Z1.000
N1853( MACHINE COORDINATE SYSTEM )
N1854G53
N1855T0M67
N1856G0Z390.000
N1857X-50.000Y-600.000
N1858T104M6
N1859( PART PROGRAM COORDINATE SYSTEM )
N1860G54
N1861G0X0.545Y-0.354
N1862Z0.100
N1863G81Y0.100Z-0.014F26
N1864G79Z-0.357
N1865G0Z1.000
N1866( MACHINE COORDINATE SYSTEM )
N1867G53
N1868T0M67
N1869G0Z390.000
N1870X-50.000Y-600.000
N1871T104M6
N1872( PART PROGRAM COORDINATE SYSTEM )
N1873G54
N1874G0X0.770Y-0.354
N1875Z0.100
N1876G81Y0.100Z-0.014F26
N1877G79Z-0.357
N1878G0Z1.000
N1879( MACHINE COORDINATE SYSTEM )
N1880G53
N1881T0M67
N1882G0Z390.000
N1883X-50.000Y-600.000
N1884T104M6
N1885( PART PROGRAM COORDINATE SYSTEM )
N1886G54
N1887G0X0.753Y-0.185
N1888Z0.100
N1889G81Y0.100Z-0.014F26
N1890G79Z-0.137
N1891G0Z1.000
N1892( MACHINE COORDINATE SYSTEM )
N1893G53
N1894T0M67
N1895G0Z390.000
N1896X-50.000Y-600.000
N1897T104M6
N1898( PART PROGRAM COORDINATE SYSTEM )
N1899G54
N1900G0X0.180Y-0.200
N1901Z0.100
N1902G81Y0.100Z-0.042F26
N1903G79Z-0.472
N1904G0Z1.000
N1905( MACHINE COORDINATE SYSTEM )
N1906G53
N1907T0M67
N1908G0Z390.000
N1909X-50.000Y-600.000
N1910T104M6
N1911( PART PROGRAM COORDINATE SYSTEM )
N1912G54
N1913G0X1.880Y-0.515
N1914Z0.100
N1915G81Y0.100Z-0.014F26
N1916G79Z-0.357
N1917G0Z1.000
N1918( MACHINE COORDINATE SYSTEM )
N1919G53
N1920T0M67
N1921G0Z390.000
N1922X-50.000Y-600.000
N1923T104M6
N1924( PART PROGRAM COORDINATE SYSTEM )
N1925G54
N1926G0X2.052Y-0.507
N1927Z0.100
N1928G81Y0.100Z-0.014F26
N1929G79Z-0.357
N1930G0Z1.000
N1931( MACHINE COORDINATE SYSTEM )
N1932G53
N1933T0M67
N1934G0Z390.000
N1935X-50.000Y-600.000
N1936T104M6
N1937( PART PROGRAM COORDINATE SYSTEM )
N1938G54
N1939G0X2.065Y-0.349
N1940Z0.100
N1941G81Y0.100Z-0.014F26
N1942G79Z-0.137
N1943G0Z1.000
N1944( MACHINE COORDINATE SYSTEM )
N1945G53
N1946T0M67
N1947G0Z390.000
N1948X-50.000Y-600.000
N1949T104M6
N1950( PART PROGRAM COORDINATE SYSTEM )
N1951G54
N1952G0X2.402Y-0.507
N1953Z0.100
N1954G81Y0.100Z-0.014F26
N1955G79Z-0.357
N1956G0Z1.000
N1957( MACHINE COORDINATE SYSTEM )
N1958G53
N1959T0M67
N1960G0Z390.000
N1961X-50.000Y-600.000
N1962T104M6
N1963( PART PROGRAM COORDINATE SYSTEM )
N1964G54
N1965G0X2.550Y-0.507
N1966Z0.100
N1967G81Y0.100Z-0.014F26
N1968G79Z-0.357
N1969G0Z1.000
N1970( MACHINE COORDINATE SYSTEM )
N1971G53
N1972T0M67
N1973G0Z390.000
N1974X-50.000Y-600.000
N1975T104M6
N1976( PART PROGRAM COORDINATE SYSTEM )
N1977G54
N1978G0X2.900Y-0.507
N1979Z0.100
N1980G81Y0.100Z-0.014F26
N1981G79Z-0.357
N1982G0Z1.000
N1983( MACHINE COORDINATE SYSTEM )
N1984G53
N1985T0M67
N1986G0Z390.000
N1987X-50.000Y-600.000
N1988T104M6
N1989( PART PROGRAM COORDINATE SYSTEM )
N1990G54
N1991G0X3.049Y-0.507
N1992Z0.100
N1993G81Y0.100Z-0.014F26
N1994G79Z-0.357
N1995G0Z1.000
N1996( MACHINE COORDINATE SYSTEM )
N1997G53
N1998T0M67
N1999G0Z390.000
N2000X-50.000Y-600.000
N2001T104M6
N2002( PART PROGRAM COORDINATE SYSTEM )
N2003G54
N2004G0X3.205Y-0.349
N2005Z0.100
N2006G81Y0.100Z-0.014F26
N2007G79Z-0.137
N2008G0Z1.000
N2009( MACHINE COORDINATE SYSTEM )
N2010G53
N2011T0M67
N2012G0Z390.000
N2013X-50.000Y-600.000
N2014T104M6
N2015( PART PROGRAM COORDINATE SYSTEM )
N2016G54
N2017G0X3.535Y-0.507
N2018Z0.100
N2019G81Y0.100Z-0.014F26
N2020G79Z-0.357
N2021G0Z1.000
N2022( MACHINE COORDINATE SYSTEM )
N2023G53
N2024T0M67
N2025G0Z390.000
N2026X-50.000Y-600.000
N2027T104M6
N2028( PART PROGRAM COORDINATE SYSTEM )
N2029G54
N2030G0X3.860Y-0.200
N2031Z0.100
N2032G81Y0.100Z-0.042F26
N2033G79Z-0.472
N2034G0Z1.000
N2035( MACHINE COORDINATE SYSTEM )
N2036G53
N2037T0M67
N2038G0Z390.000
N2039X-50.000Y-600.000
N2040T104M6
N2041( PART PROGRAM COORDINATE SYSTEM )
N2042G54
N2043G0X3.535Y-1.037
N2044Z0.100
N2045G81Y0.100Z-0.014F26
N2046G79Z-0.357
N2047G0Z1.000
N2048( MACHINE COORDINATE SYSTEM )
N2049G53
N2050T0M67
N2051G0Z390.000
N2052X-50.000Y-600.000
N2053T104M6
N2054( PART PROGRAM COORDINATE SYSTEM )
N2055G54
N2056G0X2.569Y-1.777
N2057Z0.100
N2058G81Y0.100Z-0.020F26
N2059G79Z-0.457
N2060G0Z1.000
N2061( MACHINE COORDINATE SYSTEM )
N2062G53
N2063T0M67
N2064G0Z390.000
N2065X-50.000Y-600.000
N2066T104M6
N2067( PART PROGRAM COORDINATE SYSTEM )
N2068G54
N2069G0X2.569Y-2.077
N2070Z0.100
N2071G81Y0.100Z-0.020F26
N2072G79Z-0.457
N2073G0Z1.000
N2074( MACHINE COORDINATE SYSTEM )
N2075G53
N2076T0M67
N2077G0Z390.000
N2078X-50.000Y-600.000
N2079T104M6
N2080( PART PROGRAM COORDINATE SYSTEM )
N2081G54
N2082G0X2.840Y-2.233
N2083Z0.100
N2084G81Y0.100Z-0.020F26
N2085G79Z-0.457
N2086G0Z1.000
N2087( MACHINE COORDINATE SYSTEM )
N2088G53
N2089T0M67
N2090G0Z390.000
N2091X-50.000Y-600.000
N2092T104M6
N2093( PART PROGRAM COORDINATE SYSTEM )
N2094G54
N2095G0X2.052Y-1.037
N2096Z0.100
N2097G81Y0.100Z-0.014F26
N2098G79Z-0.357
N2099G0Z1.000
N2100( MACHINE COORDINATE SYSTEM )
N2101G53
N2102T0M67
N2103G0Z390.000
N2104X-50.000Y-600.000
N2105T104M6
N2106( PART PROGRAM COORDINATE SYSTEM )
N2107G54
N2108G0X1.880Y-0.915
N2109Z0.100
N2110G81Y0.100Z-0.014F26
N2111G79Z-0.357
N2112G0Z1.000
N2113( MACHINE COORDINATE SYSTEM )
N2114G53
N2115T0M67
N2116G0Z390.000
N2117X-50.000Y-600.000
N2118T104M6
N2119( PART PROGRAM COORDINATE SYSTEM )
N2120G54
N2121G0X3.860Y-4.460
N2122Z0.100
N2123G81Y0.100Z-0.042F26
N2124G79Z-0.472
N2125G0Z1.000
N2126Z4.000
N2127( MACHINE COORDINATE SYSTEM )
N2128G53
N2129T0M67
N2130G0Z390.000
N2131X-50.000Y-600.000
N2132T104M6
N2133( PART PROGRAM COORDINATE SYSTEM )
N2134G56
N2135G0X0.287Y-4.030
N2136Z1.000
N2137Z0.100
N2138G81Y0.100Z-0.020F26
N2139G79Z-0.175
N2140G0Z1.000
N2141( MACHINE COORDINATE SYSTEM )
N2142G53
N2143T0M67
N2144G0Z390.000
N2145X-50.000Y-600.000
N2146T104M6
N2147( PART PROGRAM COORDINATE SYSTEM )
N2148G56
N2149G0X0.300Y-3.480
N2150Z0.100
N2151G81Y0.100Z-0.047F26
N2152G79Z-0.175
N2153G0Z1.000
N2154( MACHINE COORDINATE SYSTEM )
N2155G53
N2156T0M67
N2157G0Z390.000
N2158X-50.000Y-600.000
N2159T104M6
N2160( PART PROGRAM COORDINATE SYSTEM )
N2161G56
N2162G0X0.300Y-1.580
N2163Z0.100
N2164G81Y0.100Z-0.047F26
N2165G79Z-0.175
N2166G0Z1.000
N2167( MACHINE COORDINATE SYSTEM )
N2168G53
N2169T0M67
N2170G0Z390.000
N2171X-50.000Y-600.000
N2172T104M6
N2173( PART PROGRAM COORDINATE SYSTEM )
N2174G56
N2175G0X0.300Y-1.180
N2176Z0.100
N2177G81Y0.100Z-0.047F26
N2178G79Z-0.175
N2179G0Z1.000
N2180( MACHINE COORDINATE SYSTEM )
N2181G53
N2182T0M67
N2183G0Z390.000
N2184X-50.000Y-600.000
N2185T104M6
N2186( PART PROGRAM COORDINATE SYSTEM )
N2187G56
N2188G0X0.287Y-0.630
N2189Z0.100
N2190G81Y0.100Z-0.020F26
N2191G79Z-0.175
N2192G0Z1.000
N2193Z4.000
N2194( MACHINE COORDINATE SYSTEM )
N2195G53
N2196T0M67
N2197G0Z390.000
N2198X-50.000Y-600.000
N2199T104M6
N2200( PART PROGRAM COORDINATE SYSTEM )
N2201G57
N2202G0X-0.265Y-3.835
N2203Z1.000
N2204Z0.100
N2205G81Y0.100Z-0.020F26
N2206G79Z-0.180
N2207G0Z1.000
N2208( MACHINE COORDINATE SYSTEM )
N2209G53
N2210T0M67
N2211G0Z390.000
N2212X-50.000Y-600.000
N2213T104M6
N2214( PART PROGRAM COORDINATE SYSTEM )
N2215G57
N2216G0X-0.265Y-3.210
N2217Z0.100
N2218G81Y0.100Z-0.027F26
N2219G79Z-0.180
N2220G0Z1.000
N2221( MACHINE COORDINATE SYSTEM )
N2222G53
N2223T0M67
N2224G0Z390.000
N2225X-50.000Y-600.000
N2226T104M6
N2227( PART PROGRAM COORDINATE SYSTEM )
N2228G57
N2229G0X-0.265Y-2.590
N2230Z0.100
N2231G81Y0.100Z-0.020F26
N2232G79Z-0.180
N2233G0Z1.000
N2234( MACHINE COORDINATE SYSTEM )
N2235G53
N2236T0M67
N2237G0Z390.000
N2238X-50.000Y-600.000
N2239T104M6
N2240( PART PROGRAM COORDINATE SYSTEM )
N2241G57
N2242G0X-0.265Y-1.360
N2243Z0.100
N2244G81Y0.100Z-0.042F26
N2245G79Z-0.180
N2246G0Z1.000
N2247( MACHINE COORDINATE SYSTEM )
N2248G53
N2249T0M67
N2250G0Z390.000
N2251X-50.000Y-600.000
N2252T104M6
N2253( PART PROGRAM COORDINATE SYSTEM )
N2254G57
N2255G0X-0.265Y-0.715
N2256Z0.100
N2257G81Y0.100Z-0.020F26
N2258G79Z-0.180
N2259G0Z1.000
N2260Z4.000
N2261( MACHINE COORDINATE SYSTEM )
N2262G53
N2263T0M67
N2264G0Z390.000
N2265X-50.000Y-600.000
N2266T15M6
N2267( PART PROGRAM COORDINATE SYSTEM )
N2268G54
N2269G0X2.055Y-2.222
N2270Z1.000
N2271Z0.100
N2272F16
N2273G81Y0.100Z-0.042F16
N2274G79Z-0.457
N2275G0Z1.000
N2276( MACHINE COORDINATE SYSTEM )
N2277G53
N2278T0M67
N2279G0Z390.000
N2280X-50.000Y-600.000
N2281T15M6
N2282( PART PROGRAM COORDINATE SYSTEM )
N2283G54
N2284G0X2.055Y-1.847
N2285Z0.100
N2286G81Y0.100Z-0.042F16
N2287G79Z-0.457
N2288G0Z1.000
N2289( MACHINE COORDINATE SYSTEM )
N2290G53
N2291T0M67
N2292G0Z390.000
N2293X-50.000Y-600.000
N2294T15M6
N2295( PART PROGRAM COORDINATE SYSTEM )
N2296G54
N2297G0X2.055Y-1.526
N2298Z0.100
N2299G81Y0.100Z-0.162F16
N2300G79Z-0.357
N2301G0Z1.000
N2302( MACHINE COORDINATE SYSTEM )
N2303G53
N2304T0M67
N2305G0Z390.000
N2306X-50.000Y-600.000
N2307T15M6
N2308( PART PROGRAM COORDINATE SYSTEM )
N2309G54
N2310G0X2.240Y-1.305
N2311Z0.100
N2312G81Y0.100Z-0.162F16
N2313G79Z-0.357
N2314G0Z1.000
N2315( MACHINE COORDINATE SYSTEM )
N2316G53
N2317T0M67
N2318G0Z390.000
N2319X-50.000Y-600.000
N2320T15M6
N2321( PART PROGRAM COORDINATE SYSTEM )
N2322G54
N2323G0X2.569Y-1.777
N2324Z0.100
N2325G81Y0.100Z-0.042F16
N2326G79Z-0.457
N2327G0Z1.000
N2328( MACHINE COORDINATE SYSTEM )
N2329G53
N2330T0M67
N2331G0Z390.000
N2332X-50.000Y-600.000
N2333T15M6
N2334( PART PROGRAM COORDINATE SYSTEM )
N2335G54
N2336G0X2.569Y-2.077
N2337Z0.100
N2338G81Y0.100Z-0.042F16
N2339G79Z-0.457
N2340G0Z1.000
N2341( MACHINE COORDINATE SYSTEM )
N2342G53
N2343T0M67
N2344G0Z390.000
N2345X-50.000Y-600.000
N2346T15M6
N2347( PART PROGRAM COORDINATE SYSTEM )
N2348G54
N2349G0X2.840Y-2.233
N2350Z0.100
N2351G81Y0.100Z-0.042F16
N2352G79Z-0.457
N2353G0Z1.000
N2354( MACHINE COORDINATE SYSTEM )
N2355G53
N2356T0M67
N2357G0Z390.000
N2358X-50.000Y-600.000
N2359T15M6
N2360( PART PROGRAM COORDINATE SYSTEM )
N2361G54
N2362G0X2.549Y-2.413
N2363Z0.100
N2364G81Y0.100Z-0.042F16
N2365G79Z-0.457
N2366G0Z1.000
N2367( MACHINE COORDINATE SYSTEM )
N2368G53
N2369T0M67
N2370G0Z390.000
N2371X-50.000Y-600.000
N2372T15M6
N2373( PART PROGRAM COORDINATE SYSTEM )
N2374G54
N2375G0X2.549Y-2.712
N2376Z0.100
N2377G81Y0.100Z-0.042F16
N2378G79Z-0.457
N2379G0Z1.000
N2380( MACHINE COORDINATE SYSTEM )
N2381G53
N2382T0M67
N2383G0Z390.000
N2384X-50.000Y-600.000
N2385T15M6
N2386( PART PROGRAM COORDINATE SYSTEM )
N2387G54
N2388G0X2.840Y-2.773
N2389Z0.100
N2390G81Y0.100Z-0.042F16
N2391G79Z-0.457
N2392G0Z1.000
N2393( MACHINE COORDINATE SYSTEM )
N2394G53
N2395T0M67
N2396G0Z390.000
N2397X-50.000Y-600.000
N2398T15M6
N2399( PART PROGRAM COORDINATE SYSTEM )
N2400G54
N2401G0X3.259Y-2.773
N2402Z0.100
N2403G81Y0.100Z-0.042F16
N2404G79Z-0.457
N2405G0Z1.000
N2406( MACHINE COORDINATE SYSTEM )
N2407G53
N2408T0M67
N2409G0Z390.000
N2410X-50.000Y-600.000
N2411T15M6
N2412( PART PROGRAM COORDINATE SYSTEM )
N2413G54
N2414G0X3.215Y-3.131
N2415Z0.100
N2416G81Y0.100Z-0.162F16
N2417G79Z-0.357
N2418G0Z1.000
N2419( MACHINE COORDINATE SYSTEM )
N2420G53
N2421T0M67
N2422G0Z390.000
N2423X-50.000Y-600.000
N2424T15M6
N2425( PART PROGRAM COORDINATE SYSTEM )
N2426G54
N2427G0X3.030Y-3.354
N2428Z0.100
N2429G81Y0.100Z-0.162F16
N2430G79Z-0.357
N2431G0Z1.000
N2432( MACHINE COORDINATE SYSTEM )
N2433G53
N2434T0M67
N2435G0Z390.000
N2436X-50.000Y-600.000
N2437T15M6
N2438( PART PROGRAM COORDINATE SYSTEM )
N2439G54
N2440G0X2.240Y-3.354
N2441Z0.100
N2442G81Y0.100Z-0.162F16
N2443G79Z-0.357
N2444G0Z1.000
N2445( MACHINE COORDINATE SYSTEM )
N2446G53
N2447T0M67
N2448G0Z390.000
N2449X-50.000Y-600.000
N2450T15M6
N2451( PART PROGRAM COORDINATE SYSTEM )
N2452G54
N2453G0X2.055Y-3.131
N2454Z0.100
N2455G81Y0.100Z-0.162F16
N2456G79Z-0.357
N2457G0Z1.000
N2458( MACHINE COORDINATE SYSTEM )
N2459G53
N2460T0M67
N2461G0Z390.000
N2462X-50.000Y-600.000
N2463T15M6
N2464( PART PROGRAM COORDINATE SYSTEM )
N2465G54
N2466G0X1.890Y-2.712
N2467Z0.100
N2468G81Y0.100Z-0.042F16
N2469G79Z-0.457
N2470G0Z1.000
N2471( MACHINE COORDINATE SYSTEM )
N2472G53
N2473T0M67
N2474G0Z390.000
N2475X-50.000Y-600.000
N2476T15M6
N2477( PART PROGRAM COORDINATE SYSTEM )
N2478G54
N2479G0X3.259Y-2.233
N2480Z0.100
N2481G81Y0.100Z-0.042F16
N2482G79Z-0.457
N2483G0Z1.000
N2484( MACHINE COORDINATE SYSTEM )
N2485G53
N2486T0M67
N2487G0Z390.000
N2488X-50.000Y-600.000
N2489T15M6
N2490( PART PROGRAM COORDINATE SYSTEM )
N2491G54
N2492G0X3.369Y-2.079
N2493Z0.100
N2494G81Y0.100Z-0.042F16
N2495G79Z-0.457
N2496G0Z1.000
N2497( MACHINE COORDINATE SYSTEM )
N2498G53
N2499T0M67
N2500G0Z390.000
N2501X-50.000Y-600.000
N2502T15M6
N2503( PART PROGRAM COORDINATE SYSTEM )
N2504G54
N2505G0X3.369Y-1.777
N2506Z0.100
N2507G81Y0.100Z-0.042F16
N2508G79Z-0.457
N2509G0Z1.000
N2510( MACHINE COORDINATE SYSTEM )
N2511G53
N2512T0M67
N2513G0Z390.000
N2514X-50.000Y-600.000
N2515T15M6
N2516( PART PROGRAM COORDINATE SYSTEM )
N2517G54
N2518G0X3.215Y-1.526
N2519Z0.100
N2520G81Y0.100Z-0.162F16
N2521G79Z-0.357
N2522G0Z1.000
N2523( MACHINE COORDINATE SYSTEM )
N2524G53
N2525T0M67
N2526G0Z390.000
N2527X-50.000Y-600.000
N2528T15M6
N2529( PART PROGRAM COORDINATE SYSTEM )
N2530G54
N2531G0X3.030Y-1.305
N2532Z0.100
N2533G81Y0.100Z-0.162F16
N2534G79Z-0.357
N2535G0Z1.000
N2536Z4.000
N2537( MACHINE COORDINATE SYSTEM )
N2538G53
N2539T0M67
N2540G0Z390.000
N2541X-50.000Y-600.000
N2542T15M6
N2543( PART PROGRAM COORDINATE SYSTEM )
N2544G56
N2545G0X0.287Y-4.030
N2546Z1.000
N2547Z0.100
N2548G81Y0.100Z-0.280F16
N2549G79Z-0.175
N2550G0Z1.000
N2551( MACHINE COORDINATE SYSTEM )
N2552G53
N2553T0M67
N2554G0Z390.000
N2555X-50.000Y-600.000
N2556T15M6
N2557( PART PROGRAM COORDINATE SYSTEM )
N2558G56
N2559G0X0.287Y-0.630
N2560Z0.100
N2561G81Y0.100Z-0.280F16
N2562G79Z-0.175
N2563G0Z1.000
N2564Z4.000
N2565( MACHINE COORDINATE SYSTEM )
N2566G53
N2567T0M67
N2568G0Z390.000
N2569X-50.000Y-600.000
N2570T15M6
N2571( PART PROGRAM COORDINATE SYSTEM )
N2572G57
N2573G0X-0.265Y-3.835
N2574Z1.000
N2575Z0.100
N2576G81Y0.100Z-0.275F16
N2577G79Z-0.180
N2578G0Z1.000
N2579( MACHINE COORDINATE SYSTEM )
N2580G53
N2581T0M67
N2582G0Z390.000
N2583X-50.000Y-600.000
N2584T15M6
N2585( PART PROGRAM COORDINATE SYSTEM )
N2586G57
N2587G0X-0.265Y-2.590
N2588Z0.100
N2589G81Y0.100Z-0.275F16
N2590G79Z-0.180
N2591G0Z1.000
N2592( MACHINE COORDINATE SYSTEM )
N2593G53
N2594T0M67
N2595G0Z390.000
N2596X-50.000Y-600.000
N2597T15M6
N2598( PART PROGRAM COORDINATE SYSTEM )
N2599G57
N2600G0X-0.265Y-0.715
N2601Z0.100
N2602G81Y0.100Z-0.275F16
N2603G79Z-0.180
N2604G0Z1.000
N2605Z4.000
N2606( MACHINE COORDINATE SYSTEM )
N2607G53
N2608T0M67
N2609G0Z390.000
N2610X-50.000Y-600.000
N2611T84M6
N2612( PART PROGRAM COORDINATE SYSTEM )
N2613G54
N2614G0X3.369Y-1.777
N2615Z1.000
N2616Z0.100
N2617F1
N2618G81Y0.100Z-0.050F1
N2619G79Z-0.457
N2620G0Z1.000
N2621( MACHINE COORDINATE SYSTEM )
N2622G53
N2623T0M67
N2624G0Z390.000
N2625X-50.000Y-600.000
N2626T84M6
N2627( PART PROGRAM COORDINATE SYSTEM )
N2628G54
N2629G0X3.369Y-2.079
N2630Z0.100
N2631G81Y0.100Z-0.050F1
N2632G79Z-0.457
N2633G0Z1.000
N2634( MACHINE COORDINATE SYSTEM )
N2635G53
N2636T0M67
N2637G0Z390.000
N2638X-50.000Y-600.000
N2639T84M6
N2640( PART PROGRAM COORDINATE SYSTEM )
N2641G54
N2642G0X3.259Y-2.233
N2643Z0.100
N2644G81Y0.100Z-0.050F1
N2645G79Z-0.457
N2646G0Z1.000
N2647( MACHINE COORDINATE SYSTEM )
N2648G53
N2649T0M67
N2650G0Z390.000
N2651X-50.000Y-600.000
N2652T84M6
N2653( PART PROGRAM COORDINATE SYSTEM )
N2654G54
N2655G0X2.840Y-2.233
N2656Z0.100
N2657G81Y0.100Z-0.050F1
N2658G79Z-0.457
N2659G0Z1.000
N2660( MACHINE COORDINATE SYSTEM )
N2661G53
N2662T0M67
N2663G0Z390.000
N2664X-50.000Y-600.000
N2665T84M6
N2666( PART PROGRAM COORDINATE SYSTEM )
N2667G54
N2668G0X2.569Y-2.077
N2669Z0.100
N2670G81Y0.100Z-0.050F1
N2671G79Z-0.457
N2672G0Z1.000
N2673( MACHINE COORDINATE SYSTEM )
N2674G53
N2675T0M67
N2676G0Z390.000
N2677X-50.000Y-600.000
N2678T84M6
N2679( PART PROGRAM COORDINATE SYSTEM )
N2680G54
N2681G0X2.569Y-1.777
N2682Z0.100
N2683G81Y0.100Z-0.050F1
N2684G79Z-0.457
N2685G0Z1.000
N2686( MACHINE COORDINATE SYSTEM )
N2687G53
N2688T0M67
N2689G0Z390.000
N2690X-50.000Y-600.000
N2691T84M6
N2692( PART PROGRAM COORDINATE SYSTEM )
N2693G54
N2694G0X2.055Y-1.847
N2695Z0.100
N2696G81Y0.100Z-0.050F1
N2697G79Z-0.457
N2698G0Z1.000
N2699( MACHINE COORDINATE SYSTEM )
N2700G53
N2701T0M67
N2702G0Z390.000
N2703X-50.000Y-600.000
N2704T84M6
N2705( PART PROGRAM COORDINATE SYSTEM )
N2706G54
N2707G0X2.055Y-1.526
N2708Z0.100
N2709G81Y0.100Z-0.170F1
N2710G79Z-0.357
N2711G0Z1.000
N2712( MACHINE COORDINATE SYSTEM )
N2713G53
N2714T0M67
N2715G0Z390.000
N2716X-50.000Y-600.000
N2717T84M6
N2718( PART PROGRAM COORDINATE SYSTEM )
N2719G54
N2720G0X2.240Y-1.305
N2721Z0.100
N2722G81Y0.100Z-0.170F1
N2723G79Z-0.357
N2724G0Z1.000
N2725( MACHINE COORDINATE SYSTEM )
N2726G53
N2727T0M67
N2728G0Z390.000
N2729X-50.000Y-600.000
N2730T84M6
N2731( PART PROGRAM COORDINATE SYSTEM )
N2732G54
N2733G0X3.030Y-1.305
N2734Z0.100
N2735G81Y0.100Z-0.170F1
N2736G79Z-0.357
N2737G0Z1.000
N2738( MACHINE COORDINATE SYSTEM )
N2739G53
N2740T0M67
N2741G0Z390.000
N2742X-50.000Y-600.000
N2743T84M6
N2744( PART PROGRAM COORDINATE SYSTEM )
N2745G54
N2746G0X3.215Y-1.526
N2747Z0.100
N2748G81Y0.100Z-0.170F1
N2749G79Z-0.357
N2750G0Z1.000
N2751( MACHINE COORDINATE SYSTEM )
N2752G53
N2753T0M67
N2754G0Z390.000
N2755X-50.000Y-600.000
N2756T84M6
N2757( PART PROGRAM COORDINATE SYSTEM )
N2758G54
N2759G0X2.549Y-2.413
N2760Z0.100
N2761G81Y0.100Z-0.050F1
N2762G79Z-0.457
N2763G0Z1.000
N2764( MACHINE COORDINATE SYSTEM )
N2765G53
N2766T0M67
N2767G0Z390.000
N2768X-50.000Y-600.000
N2769T84M6
N2770( PART PROGRAM COORDINATE SYSTEM )
N2771G54
N2772G0X2.549Y-2.712
N2773Z0.100
N2774G81Y0.100Z-0.050F1
N2775G79Z-0.457
N2776G0Z1.000
N2777( MACHINE COORDINATE SYSTEM )
N2778G53
N2779T0M67
N2780G0Z390.000
N2781X-50.000Y-600.000
N2782T84M6
N2783( PART PROGRAM COORDINATE SYSTEM )
N2784G54
N2785G0X2.840Y-2.773
N2786Z0.100
N2787G81Y0.100Z-0.050F1
N2788G79Z-0.457
N2789G0Z1.000
N2790( MACHINE COORDINATE SYSTEM )
N2791G53
N2792T0M67
N2793G0Z390.000
N2794X-50.000Y-600.000
N2795T84M6
N2796( PART PROGRAM COORDINATE SYSTEM )
N2797G54
N2798G0X3.259Y-2.773
N2799Z0.100
N2800G81Y0.100Z-0.050F1
N2801G79Z-0.457
N2802G0Z1.000
N2803( MACHINE COORDINATE SYSTEM )
N2804G53
N2805T0M67
N2806G0Z390.000
N2807X-50.000Y-600.000
N2808T84M6
N2809( PART PROGRAM COORDINATE SYSTEM )
N2810G54
N2811G0X3.215Y-3.131
N2812Z0.100
N2813G81Y0.100Z-0.170F1
N2814G79Z-0.357
N2815G0Z1.000
N2816( MACHINE COORDINATE SYSTEM )
N2817G53
N2818T0M67
N2819G0Z390.000
N2820X-50.000Y-600.000
N2821T84M6
N2822( PART PROGRAM COORDINATE SYSTEM )
N2823G54
N2824G0X3.030Y-3.354
N2825Z0.100
N2826G81Y0.100Z-0.170F1
N2827G79Z-0.357
N2828G0Z1.000
N2829( MACHINE COORDINATE SYSTEM )
N2830G53
N2831T0M67
N2832G0Z390.000
N2833X-50.000Y-600.000
N2834T84M6
N2835( PART PROGRAM COORDINATE SYSTEM )
N2836G54
N2837G0X2.240Y-3.354
N2838Z0.100
N2839G81Y0.100Z-0.170F1
N2840G79Z-0.357
N2841G0Z1.000
N2842( MACHINE COORDINATE SYSTEM )
N2843G53
N2844T0M67
N2845G0Z390.000
N2846X-50.000Y-600.000
N2847T84M6
N2848( PART PROGRAM COORDINATE SYSTEM )
N2849G54
N2850G0X2.055Y-3.131
N2851Z0.100
N2852G81Y0.100Z-0.170F1
N2853G79Z-0.357
N2854G0Z1.000
N2855( MACHINE COORDINATE SYSTEM )
N2856G53
N2857T0M67
N2858G0Z390.000
N2859X-50.000Y-600.000
N2860T84M6
N2861( PART PROGRAM COORDINATE SYSTEM )
N2862G54
N2863G0X1.890Y-2.712
N2864Z0.100
N2865G81Y0.100Z-0.050F1
N2866G79Z-0.457
N2867G0Z1.000
N2868( MACHINE COORDINATE SYSTEM )
N2869G53
N2870T0M67
N2871G0Z390.000
N2872X-50.000Y-600.000
N2873T84M6
N2874( PART PROGRAM COORDINATE SYSTEM )
N2875G54
N2876G0X2.055Y-2.222
N2877Z0.100
N2878G81Y0.100Z-0.050F1
N2879G79Z-0.457
N2880G0Z1.000
N2881( MACHINE COORDINATE SYSTEM )
N2882G53
N2883T0M67
N2884G0Z390.000
N2885X-50.000Y-600.000
N2886T98M6
N2887( PART PROGRAM COORDINATE SYSTEM )
N2888G56
N2889S3147M3
N2890G0X0.287Y-4.030
N2891Z0.100
N2892F5
N2893G81Y0.100Z-0.210F5
N2894G79Z-0.175
N2895G0Z1.000
N2896( MACHINE COORDINATE SYSTEM )
N2897G53
N2898T0M67
N2899G0Z390.000
N2900X-50.000Y-600.000
N2901T98M6
N2902( PART PROGRAM COORDINATE SYSTEM )
N2903G56
N2904G0X0.287Y-0.630
N2905Z0.100
N2906G81Y0.100Z-0.210F5
N2907G79Z-0.175
N2908G0Z1.000
N2909Z4.000
N2910( MACHINE COORDINATE SYSTEM )
N2911G53
N2912T0M67
N2913G0Z390.000
N2914X-50.000Y-600.000
N2915T98M6
N2916( PART PROGRAM COORDINATE SYSTEM )
N2917G57
N2918G0X-0.265Y-3.835
N2919Z1.000
N2920Z0.100
N2921G81Y0.100Z-0.210F5
N2922G79Z-0.180
N2923G0Z1.000
N2924( MACHINE COORDINATE SYSTEM )
N2925G53
N2926T0M67
N2927G0Z390.000
N2928X-50.000Y-600.000
N2929T98M6
N2930( PART PROGRAM COORDINATE SYSTEM )
N2931G57
N2932G0X-0.265Y-2.590
N2933Z0.100
N2934G81Y0.100Z-0.210F5
N2935G79Z-0.180
N2936G0Z1.000
N2937( MACHINE COORDINATE SYSTEM )
N2938G53
N2939T0M67
N2940G0Z390.000
N2941X-50.000Y-600.000
N2942T98M6
N2943( PART PROGRAM COORDINATE SYSTEM )
N2944G57
N2945G0X-0.265Y-0.715
N2946Z0.100
N2947G81Y0.100Z-0.210F5
N2948G79Z-0.180
N2949G0Z1.000
N2950( MACHINE COORDINATE SYSTEM )
N2951G53
N2952T0M67
N2953G0Z390.000
N2954X-50.000Y-600.000
N2955T19M6
N2956( PART PROGRAM COORDINATE SYSTEM )
N2957G57
N2958S5600M3
N2959G0X-0.265Y-3.210
N2960Z0.100
N2961F14
N2962G81Y0.100Z-0.223F14
N2963G79Z-0.180
N2964G0Z1.000
N2965( MACHINE COORDINATE SYSTEM )
N2966G53
N2967T0M67
N2968G0Z390.000
N2969X-50.000Y-600.000
N2970T16M6
N2971( PART PROGRAM COORDINATE SYSTEM )
N2972G57
N2973S4923M3
N2974G0X-0.265Y-1.360
N2975Z0.100
N2976F31
N2977G81Y0.100Z-0.238F31
N2978G79Z-0.180
N2979G0Z1.000
N2980Z4.000
N2981( MACHINE COORDINATE SYSTEM )
N2982G53
N2983T0M67
N2984G0Z390.000
N2985X-50.000Y-600.000
N2986T16M6
N2987( PART PROGRAM COORDINATE SYSTEM )
N2988G54
N2989G0X3.860Y-0.200
N2990Z1.000
N2991Z0.100
N2992G81Y0.100Z-0.162F31
N2993G79Z-0.472
N2994G0Z1.000
N2995( MACHINE COORDINATE SYSTEM )
N2996G53
N2997T0M67
N2998G0Z390.000
N2999X-50.000Y-600.000
N3000T16M6
N3001( PART PROGRAM COORDINATE SYSTEM )
N3002G54
N3003G0X0.180Y-0.200
N3004Z0.100
N3005G81Y0.100Z-0.162F31
N3006G79Z-0.472
N3007G0Z1.000
N3008( MACHINE COORDINATE SYSTEM )
N3009G53
N3010T0M67
N3011G0Z390.000
N3012X-50.000Y-600.000
N3013T16M6
N3014( PART PROGRAM COORDINATE SYSTEM )
N3015G54
N3016G0X0.180Y-4.460
N3017Z0.100
N3018G81Y0.100Z-0.162F31
N3019G79Z-0.472
N3020G0Z1.000
N3021( MACHINE COORDINATE SYSTEM )
N3022G53
N3023T0M67
N3024G0Z390.000
N3025X-50.000Y-600.000
N3026T16M6
N3027( PART PROGRAM COORDINATE SYSTEM )
N3028G54
N3029G0X3.860Y-4.460
N3030Z0.100
N3031G81Y0.100Z-0.162F31
N3032G79Z-0.472
N3033G0Z1.000
N3034Z4.000
N3035( MACHINE COORDINATE SYSTEM )
N3036G53
N3037T0M67
N3038G0Z390.000
N3039X-50.000Y-600.000
N3040T100M6
N3041( PART PROGRAM COORDINATE SYSTEM )
N3042G57
N3043S4418M3
N3044G0X-0.265Y-1.360
N3045Z1.000
N3046Z0.100
N3047F4
N3048G81Y0.100Z-0.260F4
N3049G79Z-0.180
N3050G0Z1.000
N3051Z4.000
N3052( MACHINE COORDINATE SYSTEM )
N3053G53
N3054T0M67
N3055G0Z390.000
N3056X-50.000Y-600.000
N3057T7M6
N3058( PART PROGRAM COORDINATE SYSTEM )
N3059G54
N3060S5600M3
N3061G0X1.880Y-0.915
N3062Z1.000
N3063Z0.100
N3064F11
N3065G81Y0.100Z-0.185F11
N3066G79Z-0.357
N3067G0Z1.000
N3068( MACHINE COORDINATE SYSTEM )
N3069G53
N3070T0M67
N3071G0Z390.000
N3072X-50.000Y-600.000
N3073T7M6
N3074( PART PROGRAM COORDINATE SYSTEM )
N3075G54
N3076G0X2.052Y-1.037
N3077Z0.100
N3078G81Y0.100Z-0.185F11
N3079G79Z-0.357
N3080G0Z1.000
N3081( MACHINE COORDINATE SYSTEM )
N3082G53
N3083T0M67
N3084G0Z390.000
N3085X-50.000Y-600.000
N3086T7M6
N3087( PART PROGRAM COORDINATE SYSTEM )
N3088G54
N3089G0X2.402Y-1.037
N3090Z0.100
N3091G81Y0.100Z-0.185F11
N3092G79Z-0.357
N3093G0Z1.000
N3094( MACHINE COORDINATE SYSTEM )
N3095G53
N3096T0M67
N3097G0Z390.000
N3098X-50.000Y-600.000
N3099T7M6
N3100( PART PROGRAM COORDINATE SYSTEM )
N3101G54
N3102G0X2.550Y-1.037
N3103Z0.100
N3104G81Y0.100Z-0.185F11
N3105G79Z-0.357
N3106G0Z1.000
N3107( MACHINE COORDINATE SYSTEM )
N3108G53
N3109T0M67
N3110G0Z390.000
N3111X-50.000Y-600.000
N3112T7M6
N3113( PART PROGRAM COORDINATE SYSTEM )
N3114G54
N3115G0X2.900Y-1.037
N3116Z0.100
N3117G81Y0.100Z-0.185F11
N3118G79Z-0.357
N3119G0Z1.000
N3120( MACHINE COORDINATE SYSTEM )
N3121G53
N3122T0M67
N3123G0Z390.000
N3124X-50.000Y-600.000
N3125T7M6
N3126( PART PROGRAM COORDINATE SYSTEM )
N3127G54
N3128G0X3.049Y-1.037
N3129Z0.100
N3130G81Y0.100Z-0.185F11
N3131G79Z-0.357
N3132G0Z1.000
N3133( MACHINE COORDINATE SYSTEM )
N3134G53
N3135T0M67
N3136G0Z390.000
N3137X-50.000Y-600.000
N3138T7M6
N3139( PART PROGRAM COORDINATE SYSTEM )
N3140G54
N3141G0X3.535Y-1.037
N3142Z0.100
N3143G81Y0.100Z-0.185F11
N3144G79Z-0.357
N3145G0Z1.000
N3146( MACHINE COORDINATE SYSTEM )
N3147G53
N3148T0M67
N3149G0Z390.000
N3150X-50.000Y-600.000
N3151T7M6
N3152( PART PROGRAM COORDINATE SYSTEM )
N3153G54
N3154G0X3.535Y-0.507
N3155Z0.100
N3156G81Y0.100Z-0.185F11
N3157G79Z-0.357
N3158G0Z1.000
N3159( MACHINE COORDINATE SYSTEM )
N3160G53
N3161T0M67
N3162G0Z390.000
N3163X-50.000Y-600.000
N3164T7M6
N3165( PART PROGRAM COORDINATE SYSTEM )
N3166G54
N3167G0X3.205Y-0.349
N3168Z0.100
N3169G81Y0.100Z-0.185F11
N3170G79Z-0.137
N3171G0Z1.000
N3172( MACHINE COORDINATE SYSTEM )
N3173G53
N3174T0M67
N3175G0Z390.000
N3176X-50.000Y-600.000
N3177T7M6
N3178( PART PROGRAM COORDINATE SYSTEM )
N3179G54
N3180G0X3.049Y-0.507
N3181Z0.100
N3182G81Y0.100Z-0.185F11
N3183G79Z-0.357
N3184G0Z1.000
N3185( MACHINE COORDINATE SYSTEM )
N3186G53
N3187T0M67
N3188G0Z390.000
N3189X-50.000Y-600.000
N3190T7M6
N3191( PART PROGRAM COORDINATE SYSTEM )
N3192G54
N3193G0X2.900Y-0.507
N3194Z0.100
N3195G81Y0.100Z-0.185F11
N3196G79Z-0.357
N3197G0Z1.000
N3198( MACHINE COORDINATE SYSTEM )
N3199G53
N3200T0M67
N3201G0Z390.000
N3202X-50.000Y-600.000
N3203T7M6
N3204( PART PROGRAM COORDINATE SYSTEM )
N3205G54
N3206G0X2.550Y-0.507
N3207Z0.100
N3208G81Y0.100Z-0.185F11
N3209G79Z-0.357
N3210G0Z1.000
N3211( MACHINE COORDINATE SYSTEM )
N3212G53
N3213T0M67
N3214G0Z390.000
N3215X-50.000Y-600.000
N3216T7M6
N3217( PART PROGRAM COORDINATE SYSTEM )
N3218G54
N3219G0X2.402Y-0.507
N3220Z0.100
N3221G81Y0.100Z-0.185F11
N3222G79Z-0.357
N3223G0Z1.000
N3224( MACHINE COORDINATE SYSTEM )
N3225G53
N3226T0M67
N3227G0Z390.000
N3228X-50.000Y-600.000
N3229T7M6
N3230( PART PROGRAM COORDINATE SYSTEM )
N3231G54
N3232G0X2.052Y-0.507
N3233Z0.100
N3234G81Y0.100Z-0.185F11
N3235G79Z-0.357
N3236G0Z1.000
N3237( MACHINE COORDINATE SYSTEM )
N3238G53
N3239T0M67
N3240G0Z390.000
N3241X-50.000Y-600.000
N3242T7M6
N3243( PART PROGRAM COORDINATE SYSTEM )
N3244G54
N3245G0X1.880Y-0.515
N3246Z0.100
N3247G81Y0.100Z-0.185F11
N3248G79Z-0.357
N3249G0Z1.000
N3250( MACHINE COORDINATE SYSTEM )
N3251G53
N3252T0M67
N3253G0Z390.000
N3254X-50.000Y-600.000
N3255T7M6
N3256( PART PROGRAM COORDINATE SYSTEM )
N3257G54
N3258G0X2.065Y-0.349
N3259Z0.100
N3260G81Y0.100Z-0.185F11
N3261G79Z-0.137
N3262G0Z1.000
N3263( MACHINE COORDINATE SYSTEM )
N3264G53
N3265T0M67
N3266G0Z390.000
N3267X-50.000Y-600.000
N3268T7M6
N3269( PART PROGRAM COORDINATE SYSTEM )
N3270G54
N3271G0X0.770Y-0.354
N3272Z0.100
N3273G81Y0.100Z-0.185F11
N3274G79Z-0.357
N3275G0Z1.000
N3276( MACHINE COORDINATE SYSTEM )
N3277G53
N3278T0M67
N3279G0Z390.000
N3280X-50.000Y-600.000
N3281T7M6
N3282( PART PROGRAM COORDINATE SYSTEM )
N3283G54
N3284G0X0.545Y-0.354
N3285Z0.100
N3286G81Y0.100Z-0.185F11
N3287G79Z-0.357
N3288G0Z1.000
N3289( MACHINE COORDINATE SYSTEM )
N3290G53
N3291T0M67
N3292G0Z390.000
N3293X-50.000Y-600.000
N3294T7M6
N3295( PART PROGRAM COORDINATE SYSTEM )
N3296G54
N3297G0X0.753Y-0.185
N3298Z0.100
N3299G81Y0.100Z-0.185F11
N3300G79Z-0.137
N3301G0Z1.000
N3302( MACHINE COORDINATE SYSTEM )
N3303G53
N3304T0M67
N3305G0Z390.000
N3306X-50.000Y-600.000
N3307T7M6
N3308( PART PROGRAM COORDINATE SYSTEM )
N3309G54
N3310G0X0.545Y-0.932
N3311Z0.100
N3312G81Y0.100Z-0.185F11
N3313G79Z-0.357
N3314G0Z1.000
N3315( MACHINE COORDINATE SYSTEM )
N3316G53
N3317T0M67
N3318G0Z390.000
N3319X-50.000Y-600.000
N3320T7M6
N3321( PART PROGRAM COORDINATE SYSTEM )
N3322G54
N3323G0X0.715Y-1.480
N3324Z0.100
N3325G81Y0.100Z-0.185F11
N3326G79Z-0.357
N3327G0Z1.000
N3328( MACHINE COORDINATE SYSTEM )
N3329G53
N3330T0M67
N3331G0Z390.000
N3332X-50.000Y-600.000
N3333T7M6
N3334( PART PROGRAM COORDINATE SYSTEM )
N3335G54
N3336G0X0.658Y-2.080
N3337Z0.100
N3338G81Y0.100Z-0.185F11
N3339G79Z-0.357
N3340G0Z1.000
N3341( MACHINE COORDINATE SYSTEM )
N3342G53
N3343T0M67
N3344G0Z390.000
N3345X-50.000Y-600.000
N3346T7M6
N3347( PART PROGRAM COORDINATE SYSTEM )
N3348G54
N3349G0X0.658Y-2.330
N3350Z0.100
N3351G81Y0.100Z-0.185F11
N3352G79Z-0.357
N3353G0Z1.000
N3354( MACHINE COORDINATE SYSTEM )
N3355G53
N3356T0M67
N3357G0Z390.000
N3358X-50.000Y-600.000
N3359T7M6
N3360( PART PROGRAM COORDINATE SYSTEM )
N3361G54
N3362G0X0.658Y-2.580
N3363Z0.100
N3364G81Y0.100Z-0.185F11
N3365G79Z-0.357
N3366G0Z1.000
N3367( MACHINE COORDINATE SYSTEM )
N3368G53
N3369T0M67
N3370G0Z390.000
N3371X-50.000Y-600.000
N3372T7M6
N3373( PART PROGRAM COORDINATE SYSTEM )
N3374G54
N3375G0X0.715Y-3.180
N3376Z0.100
N3377G81Y0.100Z-0.185F11
N3378G79Z-0.357
N3379G0Z1.000
N3380( MACHINE COORDINATE SYSTEM )
N3381G53
N3382T0M67
N3383G0Z390.000
N3384X-50.000Y-600.000
N3385T7M6
N3386( PART PROGRAM COORDINATE SYSTEM )
N3387G54
N3388G0X0.545Y-3.788
N3389Z0.100
N3390G81Y0.100Z-0.185F11
N3391G79Z-0.357
N3392G0Z1.000
N3393( MACHINE COORDINATE SYSTEM )
N3394G53
N3395T0M67
N3396G0Z390.000
N3397X-50.000Y-600.000
N3398T7M6
N3399( PART PROGRAM COORDINATE SYSTEM )
N3400G54
N3401G0X0.545Y-4.305
N3402Z0.100
N3403G81Y0.100Z-0.185F11
N3404G79Z-0.357
N3405G0Z1.000
N3406( MACHINE COORDINATE SYSTEM )
N3407G53
N3408T0M67
N3409G0Z390.000
N3410X-50.000Y-600.000
N3411T7M6
N3412( PART PROGRAM COORDINATE SYSTEM )
N3413G54
N3414G0X0.770Y-4.305
N3415Z0.100
N3416G81Y0.100Z-0.185F11
N3417G79Z-0.357
N3418G0Z1.000
N3419( MACHINE COORDINATE SYSTEM )
N3420G53
N3421T0M67
N3422G0Z390.000
N3423X-50.000Y-600.000
N3424T7M6
N3425( PART PROGRAM COORDINATE SYSTEM )
N3426G54
N3427G0X0.753Y-4.475
N3428Z0.100
N3429G81Y0.100Z-0.185F11
N3430G79Z-0.137
N3431G0Z1.000
N3432( MACHINE COORDINATE SYSTEM )
N3433G53
N3434T0M67
N3435G0Z390.000
N3436X-50.000Y-600.000
N3437T7M6
N3438( PART PROGRAM COORDINATE SYSTEM )
N3439G54
N3440G0X1.880Y-4.035
N3441Z0.100
N3442G81Y0.100Z-0.185F11
N3443G79Z-0.357
N3444G0Z1.000
N3445( MACHINE COORDINATE SYSTEM )
N3446G53
N3447T0M67
N3448G0Z390.000
N3449X-50.000Y-600.000
N3450T7M6
N3451( PART PROGRAM COORDINATE SYSTEM )
N3452G54
N3453G0X2.052Y-4.157
N3454Z0.100
N3455G81Y0.100Z-0.185F11
N3456G79Z-0.357
N3457G0Z1.000
N3458( MACHINE COORDINATE SYSTEM )
N3459G53
N3460T0M67
N3461G0Z390.000
N3462X-50.000Y-600.000
N3463T7M6
N3464( PART PROGRAM COORDINATE SYSTEM )
N3465G54
N3466G0X2.065Y-4.315
N3467Z0.100
N3468G81Y0.100Z-0.185F11
N3469G79Z-0.137
N3470G0Z1.000
N3471( MACHINE COORDINATE SYSTEM )
N3472G53
N3473T0M67
N3474G0Z390.000
N3475X-50.000Y-600.000
N3476T7M6
N3477( PART PROGRAM COORDINATE SYSTEM )
N3478G54
N3479G0X2.402Y-4.157
N3480Z0.100
N3481G81Y0.100Z-0.185F11
N3482G79Z-0.357
N3483G0Z1.000
N3484( MACHINE COORDINATE SYSTEM )
N3485G53
N3486T0M67
N3487G0Z390.000
N3488X-50.000Y-600.000
N3489T7M6
N3490( PART PROGRAM COORDINATE SYSTEM )
N3491G54
N3492G0X2.550Y-4.157
N3493Z0.100
N3494G81Y0.100Z-0.185F11
N3495G79Z-0.357
N3496G0Z1.000
N3497( MACHINE COORDINATE SYSTEM )
N3498G53
N3499T0M67
N3500G0Z390.000
N3501X-50.000Y-600.000
N3502T7M6
N3503( PART PROGRAM COORDINATE SYSTEM )
N3504G54
N3505G0X2.900Y-4.157
N3506Z0.100
N3507G81Y0.100Z-0.185F11
N3508G79Z-0.357
N3509G0Z1.000
N3510( MACHINE COORDINATE SYSTEM )
N3511G53
N3512T0M67
N3513G0Z390.000
N3514X-50.000Y-600.000
N3515T7M6
N3516( PART PROGRAM COORDINATE SYSTEM )
N3517G54
N3518G0X3.049Y-4.157
N3519Z0.100
N3520G81Y0.100Z-0.185F11
N3521G79Z-0.357
N3522G0Z1.000
N3523( MACHINE COORDINATE SYSTEM )
N3524G53
N3525T0M67
N3526G0Z390.000
N3527X-50.000Y-600.000
N3528T7M6
N3529( PART PROGRAM COORDINATE SYSTEM )
N3530G54
N3531G0X3.205Y-4.315
N3532Z0.100
N3533G81Y0.100Z-0.185F11
N3534G79Z-0.137
N3535G0Z1.000
N3536( MACHINE COORDINATE SYSTEM )
N3537G53
N3538T0M67
N3539G0Z390.000
N3540X-50.000Y-600.000
N3541T7M6
N3542( PART PROGRAM COORDINATE SYSTEM )
N3543G54
N3544G0X3.535Y-4.157
N3545Z0.100
N3546G81Y0.100Z-0.185F11
N3547G79Z-0.357
N3548G0Z1.000
N3549( MACHINE COORDINATE SYSTEM )
N3550G53
N3551T0M67
N3552G0Z390.000
N3553X-50.000Y-600.000
N3554T7M6
N3555( PART PROGRAM COORDINATE SYSTEM )
N3556G54
N3557G0X3.535Y-3.627
N3558Z0.100
N3559G81Y0.100Z-0.185F11
N3560G79Z-0.357
N3561G0Z1.000
N3562( MACHINE COORDINATE SYSTEM )
N3563G53
N3564T0M67
N3565G0Z390.000
N3566X-50.000Y-600.000
N3567T7M6
N3568( PART PROGRAM COORDINATE SYSTEM )
N3569G54
N3570G0X3.049Y-3.627
N3571Z0.100
N3572G81Y0.100Z-0.185F11
N3573G79Z-0.357
N3574G0Z1.000
N3575( MACHINE COORDINATE SYSTEM )
N3576G53
N3577T0M67
N3578G0Z390.000
N3579X-50.000Y-600.000
N3580T7M6
N3581( PART PROGRAM COORDINATE SYSTEM )
N3582G54
N3583G0X2.900Y-3.627
N3584Z0.100
N3585G81Y0.100Z-0.185F11
N3586G79Z-0.357
N3587G0Z1.000
N3588( MACHINE COORDINATE SYSTEM )
N3589G53
N3590T0M67
N3591G0Z390.000
N3592X-50.000Y-600.000
N3593T7M6
N3594( PART PROGRAM COORDINATE SYSTEM )
N3595G54
N3596G0X2.550Y-3.627
N3597Z0.100
N3598G81Y0.100Z-0.185F11
N3599G79Z-0.357
N3600G0Z1.000
N3601( MACHINE COORDINATE SYSTEM )
N3602G53
N3603T0M67
N3604G0Z390.000
N3605X-50.000Y-600.000
N3606T7M6
N3607( PART PROGRAM COORDINATE SYSTEM )
N3608G54
N3609G0X2.402Y-3.627
N3610Z0.100
N3611G81Y0.100Z-0.185F11
N3612G79Z-0.357
N3613G0Z1.000
N3614( MACHINE COORDINATE SYSTEM )
N3615G53
N3616T0M67
N3617G0Z390.000
N3618X-50.000Y-600.000
N3619T7M6
N3620( PART PROGRAM COORDINATE SYSTEM )
N3621G54
N3622G0X2.052Y-3.627
N3623Z0.100
N3624G81Y0.100Z-0.185F11
N3625G79Z-0.357
N3626G0Z1.000
N3627( MACHINE COORDINATE SYSTEM )
N3628G53
N3629T0M67
N3630G0Z390.000
N3631X-50.000Y-600.000
N3632T7M6
N3633( PART PROGRAM COORDINATE SYSTEM )
N3634G54
N3635G0X1.880Y-3.635
N3636Z0.100
N3637G81Y0.100Z-0.185F11
N3638G79Z-0.357
N3639G0Z1.000
N3640( MACHINE COORDINATE SYSTEM )
N3641G53
N3642T0M67
N3643G0Z390.000
N3644X-50.000Y-600.000
N3645T7M6
N3646( PART PROGRAM COORDINATE SYSTEM )
N3647G54
N3648G0X1.880Y-2.294
N3649Z0.100
N3650G81Y0.100Z-0.185F11
N3651G79Z-0.357
N3652G0Z1.000
N3653( MACHINE COORDINATE SYSTEM )
N3654G53
N3655T0M67
N3656G0Z390.000
N3657X-50.000Y-600.000
N3658T7M6
N3659( PART PROGRAM COORDINATE SYSTEM )
N3660G54
N3661G0X1.880Y-1.894
N3662Z0.100
N3663G81Y0.100Z-0.185F11
N3664G79Z-0.357
N3665G0Z1.000
N3666( MACHINE COORDINATE SYSTEM )
N3667G53
N3668T0M67
N3669G0Z390.000
N3670X-50.000Y-600.000
N3671T7M6
N3672( PART PROGRAM COORDINATE SYSTEM )
N3673G54
N3674G0X3.535Y-2.390
N3675Z0.100
N3676G81Y0.100Z-0.185F11
N3677G79Z-0.357
N3678G0Z1.000
N3679( MACHINE COORDINATE SYSTEM )
N3680G53
N3681T0M67
N3682G0Z390.000
N3683X-50.000Y-600.000
N3684T7M6
N3685( PART PROGRAM COORDINATE SYSTEM )
N3686G54
N3687G0X3.535Y-2.790
N3688Z0.100
N3689G81Y0.100Z-0.185F11
N3690G79Z-0.357
N3691G0Z1.000
N3692Z4.000
N3693( MACHINE COORDINATE SYSTEM )
N3694G53
N3695T0M67
N3696G0Z390.000
N3697X-50.000Y-600.000
N3698T17M6
N3699( PART PROGRAM COORDINATE SYSTEM )
N3700G56
N3701S4418M3
N3702G0X0.300Y-3.480
N3703Z1.000
N3704Z0.100
N3705F31
N3706G81Y0.100Z-0.321F31
N3707G79Z-0.175
N3708G0Z1.000
N3709( MACHINE COORDINATE SYSTEM )
N3710G53
N3711T0M67
N3712G0Z390.000
N3713X-50.000Y-600.000
N3714T17M6
N3715( PART PROGRAM COORDINATE SYSTEM )
N3716G56
N3717G0X0.300Y-1.580
N3718Z0.100
N3719G81Y0.100Z-0.321F31
N3720G79Z-0.175
N3721G0Z1.000
N3722( MACHINE COORDINATE SYSTEM )
N3723G53
N3724T0M67
N3725G0Z390.000
N3726X-50.000Y-600.000
N3727T17M6
N3728( PART PROGRAM COORDINATE SYSTEM )
N3729G56
N3730G0X0.300Y-1.180
N3731Z0.100
N3732G81Y0.100Z-0.321F31
N3733G79Z-0.175
N3734G0Z1.000
N3735Z4.000
N3736( MACHINE COORDINATE SYSTEM )
N3737G53
N3738T0M67
N3739G0Z390.000
N3740X-50.000Y-600.000
N3741T99M6
N3742( PART PROGRAM COORDINATE SYSTEM )
N3743G54
N3744G42
N3745S5600M3
N3746G0X1.890Y-2.722
N3747Z1.000
N3748Z0.100
N3749F2
N3750G1Z=E1
N3751F5
N3752X1.883Y-2.715
N3753F4
N3754G2X1.890Y-2.698I1.890J-2.708
N3755F4
N3756G2Y-2.726I1.890J-2.712
N3757F4
N3758G2Y-2.698I1.890J-2.712
N3759F4
N3760G2X1.895Y-2.700I1.890J-2.708
N3761F5
N3762G1X1.904Y-2.705
N3763G0Z0.100
N3764Z1.000
N3765G40
N3766( MACHINE COORDINATE SYSTEM )
N3767G53
N3768T0M67
N3769G0Z390.000
N3770X-50.000Y-600.000
N3771T99M6
N3772( PART PROGRAM COORDINATE SYSTEM )
N3773G54
N3774G42
N3775G0X2.055Y-2.232
N3776Z0.100
N3777F2
N3778G1Z=E1
N3779F5
N3780X2.048Y-2.225
N3781F4
N3782G2X2.055Y-2.208I2.055J-2.218
N3783F4
N3784G2Y-2.236I2.055J-2.222
N3785F4
N3786G2Y-2.208I2.055J-2.222
N3787F4
N3788G2X2.060Y-2.210I2.055J-2.218
N3789F5
N3790G1X2.069Y-2.215
N3791G0Z0.100
N3792Z1.000
N3793G40
N3794( MACHINE COORDINATE SYSTEM )
N3795G53
N3796T0M67
N3797G0Z390.000
N3798X-50.000Y-600.000
N3799T99M6
N3800( PART PROGRAM COORDINATE SYSTEM )
N3801G54
N3802G42
N3803G0X2.055Y-1.857
N3804Z0.100
N3805F2
N3806G1Z=E1
N3807F5
N3808X2.048Y-1.850
N3809F4
N3810G2X2.055Y-1.834I2.055J-1.843
N3811F4
N3812G2Y-1.860I2.055J-1.847
N3813F4
N3814G2Y-1.834I2.055J-1.847
N3815F4
N3816G2X2.060Y-1.835I2.055J-1.843
N3817F5
N3818G1X2.069Y-1.840
N3819G0Z0.100
N3820Z1.000
N3821G40
N3822( MACHINE COORDINATE SYSTEM )
N3823G53
N3824T0M67
N3825G0Z390.000
N3826X-50.000Y-600.000
N3827T99M6
N3828( PART PROGRAM COORDINATE SYSTEM )
N3829G54
N3830G42
N3831G0X2.569Y-1.787
N3832Z0.100
N3833F2
N3834G1Z=E1
N3835F5
N3836X2.562Y-1.780
N3837F4
N3838G2X2.569Y-1.763I2.569J-1.773
N3839F4
N3840G2Y-1.790I2.569J-1.777
N3841F4
N3842G2Y-1.763I2.569J-1.777
N3843F4
N3844G2X2.574Y-1.765I2.569J-1.773
N3845F5
N3846G1X2.583Y-1.770
N3847G0Z0.100
N3848Z1.000
N3849G40
N3850( MACHINE COORDINATE SYSTEM )
N3851G53
N3852T0M67
N3853G0Z390.000
N3854X-50.000Y-600.000
N3855T99M6
N3856( PART PROGRAM COORDINATE SYSTEM )
N3857G54
N3858G42
N3859G0X2.569Y-2.087
N3860Z0.100
N3861F2
N3862G1Z=E1
N3863F5
N3864X2.562Y-2.080
N3865F4
N3866G2X2.569Y-2.063I2.569J-2.073
N3867F4
N3868G2Y-2.090I2.569J-2.077
N3869F4
N3870G2Y-2.063I2.569J-2.077
N3871F4
N3872G2X2.574Y-2.065I2.569J-2.073
N3873F5
N3874G1X2.583Y-2.070
N3875G0Z0.100
N3876Z1.000
N3877G40
N3878( MACHINE COORDINATE SYSTEM )
N3879G53
N3880T0M67
N3881G0Z390.000
N3882X-50.000Y-600.000
N3883T99M6
N3884( PART PROGRAM COORDINATE SYSTEM )
N3885G54
N3886G42
N3887G0X2.804Y-2.224
N3888Z0.100
N3889F2
N3890G1Z=E1
N3891F5
N3892X2.812Y-2.219
N3893F4
N3894G2X2.827Y-2.230I2.817J-2.227
N3895F4
N3896G3Y-2.236I2.840J-2.233
N3897F4
N3898G2Y-2.230I2.840J-2.233
N3899F4
N3900G2X2.829Y-2.225I2.837J-2.232
N3901F5
N3902G1X2.836Y-2.218
N3903G0Z0.100
N3904Z1.000
N3905G40
N3906( MACHINE COORDINATE SYSTEM )
N3907G53
N3908T0M67
N3909G0Z390.000
N3910X-50.000Y-600.000
N3911T99M6
N3912( PART PROGRAM COORDINATE SYSTEM )
N3913G54
N3914G42
N3915G0X2.549Y-2.423
N3916Z0.100
N3917F2
N3918G1Z=E1
N3919F5
N3920X2.542Y-2.416
N3921F4
N3922G2X2.549Y-2.399I2.549J-2.409
N3923F4
N3924G2Y-2.427I2.549J-2.413
N3925F4
N3926G2Y-2.399I2.549J-2.413
N3927F4
N3928G2X2.554Y-2.401I2.549J-2.409
N3929F5
N3930G1X2.563Y-2.406
N3931G0Z0.100
N3932Z1.000
N3933G40
N3934( MACHINE COORDINATE SYSTEM )
N3935G53
N3936T0M67
N3937G0Z390.000
N3938X-50.000Y-600.000
N3939T99M6
N3940( PART PROGRAM COORDINATE SYSTEM )
N3941G54
N3942G42
N3943G0X2.549Y-2.722
N3944Z0.100
N3945F2
N3946G1Z=E1
N3947F5
N3948X2.542Y-2.715
N3949F4
N3950G2X2.549Y-2.698I2.549J-2.708
N3951F4
N3952G2Y-2.726I2.549J-2.712
N3953F4
N3954G2Y-2.698I2.549J-2.712
N3955F4
N3956G2X2.554Y-2.700I2.549J-2.708
N3957F5
N3958G1X2.563Y-2.705
N3959G0Z0.100
N3960Z1.000
N3961G40
N3962( MACHINE COORDINATE SYSTEM )
N3963G53
N3964T0M67
N3965G0Z390.000
N3966X-50.000Y-600.000
N3967T99M6
N3968( PART PROGRAM COORDINATE SYSTEM )
N3969G54
N3970G42
N3971G0X2.804Y-2.764
N3972Z0.100
N3973F2
N3974G1Z=E1
N3975F5
N3976X2.812Y-2.759
N3977F4
N3978G2X2.827Y-2.770I2.817J-2.767
N3979F4
N3980G3Y-2.776I2.840J-2.773
N3981F4
N3982G2Y-2.770I2.840J-2.773
N3983F4
N3984G2X2.829Y-2.765I2.837J-2.772
N3985F5
N3986G1X2.836Y-2.758
N3987G0Z0.100
N3988Z1.000
N3989G40
N3990( MACHINE COORDINATE SYSTEM )
N3991G53
N3992T0M67
N3993G0Z390.000
N3994X-50.000Y-600.000
N3995T99M6
N3996( PART PROGRAM COORDINATE SYSTEM )
N3997G54
N3998G42
N3999G0X3.259Y-2.783
N4000Z0.100
N4001F2
N4002G1Z=E1
N4003F5
N4004X3.252Y-2.776
N4005F4
N4006G2X3.259Y-2.760I3.259J-2.769
N4007F4
N4008G2Y-2.786I3.259J-2.773
N4009F4
N4010G2Y-2.760I3.259J-2.773
N4011F4
N4012G2X3.264Y-2.761I3.259J-2.769
N4013F5
N4014G1X3.273Y-2.766
N4015G0Z0.100
N4016Z1.000
N4017G40
N4018( MACHINE COORDINATE SYSTEM )
N4019G53
N4020T0M67
N4021G0Z390.000
N4022X-50.000Y-600.000
N4023T99M6
N4024( PART PROGRAM COORDINATE SYSTEM )
N4025G54
N4026G42
N4027G0X3.259Y-2.243
N4028Z0.100
N4029F2
N4030G1Z=E1
N4031F5
N4032X3.252Y-2.236
N4033F4
N4034G2X3.259Y-2.220I3.259J-2.229
N4035F4
N4036G2Y-2.247I3.259J-2.233
N4037F4
N4038G2Y-2.220I3.259J-2.233
N4039F4
N4040G2X3.264Y-2.221I3.259J-2.229
N4041F5
N4042G1X3.273Y-2.226
N4043G0Z0.100
N4044Z1.000
N4045G40
N4046( MACHINE COORDINATE SYSTEM )
N4047G53
N4048T0M67
N4049G0Z390.000
N4050X-50.000Y-600.000
N4051T99M6
N4052( PART PROGRAM COORDINATE SYSTEM )
N4053G54
N4054G42
N4055G0X3.369Y-2.089
N4056Z0.100
N4057F2
N4058G1Z=E1
N4059F5
N4060X3.362Y-2.082
N4061F4
N4062G2X3.369Y-2.066I3.369J-2.075
N4063F4
N4064G2Y-2.092I3.369J-2.079
N4065F4
N4066G2Y-2.066I3.369J-2.079
N4067F4
N4068G2X3.374Y-2.067I3.369J-2.075
N4069F5
N4070G1X3.383Y-2.072
N4071G0Z0.100
N4072Z1.000
N4073G40
N4074( MACHINE COORDINATE SYSTEM )
N4075G53
N4076T0M67
N4077G0Z390.000
N4078X-50.000Y-600.000
N4079T99M6
N4080( PART PROGRAM COORDINATE SYSTEM )
N4081G54
N4082G42
N4083G0X3.369Y-1.787
N4084Z0.100
N4085F2
N4086G1Z=E1
N4087F5
N4088X3.362Y-1.780
N4089F4
N4090G2X3.369Y-1.763I3.369J-1.773
N4091F4
N4092G2Y-1.790I3.369J-1.777
N4093F4
N4094G2Y-1.763I3.369J-1.777
N4095F4
N4096G2X3.374Y-1.765I3.369J-1.773
N4097F5
N4098G1X3.383Y-1.770
N4099G0Z0.100
N4100Z1.000
N4101G40
N4102( MACHINE COORDINATE SYSTEM )
N4103G53
N4104T0M67
N4105G0Z390.000
N4106X-50.000Y-600.000
N4107T101M6
N4108( PART PROGRAM COORDINATE SYSTEM )
N4109G56
N4110S2209M3
N4111G0X0.300Y-3.480
N4112Z0.100
N4113F6
N4114G81Y0.100Z-0.060F6
N4115G79Z-0.175
N4116G0Z1.000
N4117( MACHINE COORDINATE SYSTEM )
N4118G53
N4119T0M67
N4120G0Z390.000
N4121X-50.000Y-600.000
N4122T101M6
N4123( PART PROGRAM COORDINATE SYSTEM )
N4124G56
N4125G0X0.300Y-1.580
N4126Z0.100
N4127G81Y0.100Z-0.060F6
N4128G79Z-0.175
N4129G0Z1.000
N4130( MACHINE COORDINATE SYSTEM )
N4131G53
N4132T0M67
N4133G0Z390.000
N4134X-50.000Y-600.000
N4135T101M6
N4136( PART PROGRAM COORDINATE SYSTEM )
N4137G56
N4138G0X0.300Y-1.180
N4139Z0.100
N4140G81Y0.100Z-0.060F6
N4141G79Z-0.175
N4142G0Z1.000
N4143Z4.000
N4144( MACHINE COORDINATE SYSTEM )
N4145G53
N4146T0M67
N4147G0Z390.000
N4148X-50.000Y-600.000
N4149T101M6
N4150( PART PROGRAM COORDINATE SYSTEM )
N4151G57
N4152G0X-0.265Y-1.360
N4153Z1.000
N4154Z0.100
N4155G81Y0.100Z-0.060F6
N4156G79Z-0.180
N4157G0Z1.000
N4158( MACHINE COORDINATE SYSTEM )
N4159G53
N4160T0M67
N4161G0Z390.000
N4162X-50.000Y-600.000
N4163T109M6
N4164( PART PROGRAM COORDINATE SYSTEM )
N4165G57
N4166S2600M3
N4167G0X-0.265Y-0.715
N4168Z0.100
N4169F54
N4170G81Y0.100Z-0.132F54
N4171G79Z-0.180
N4172G0Z1.000
N4173( MACHINE COORDINATE SYSTEM )
N4174G53
N4175T0M67
N4176G0Z390.000
N4177X-50.000Y-600.000
N4178T109M6
N4179( PART PROGRAM COORDINATE SYSTEM )
N4180G57
N4181G0X-0.265Y-2.590
N4182Z0.100
N4183G81Y0.100Z-0.132F54
N4184G79Z-0.180
N4185G0Z1.000
N4186( MACHINE COORDINATE SYSTEM )
N4187G53
N4188T0M67
N4189G0Z390.000
N4190X-50.000Y-600.000
N4191T109M6
N4192( PART PROGRAM COORDINATE SYSTEM )
N4193G57
N4194S5600M3
N4195G0X-0.265Y-3.210
N4196Z0.100
N4197F117
N4198G81Y0.100Z-0.055F117
N4199G79Z-0.180
N4200G0Z1.000
N4201( MACHINE COORDINATE SYSTEM )
N4202G53
N4203T0M67
N4204G0Z390.000
N4205X-50.000Y-600.000
N4206T109M6
N4207( PART PROGRAM COORDINATE SYSTEM )
N4208G57
N4209S2600M3
N4210G0X-0.265Y-3.835
N4211Z0.100
N4212F54
N4213G81Y0.100Z-0.132F54
N4214G79Z-0.180
N4215G0Z0.100
N4216Z1.000
N4217( MACHINE COORDINATE SYSTEM )
N4218G53
N4219T0M67
N4220G0Z390.000
N4221X-50.000Y-600.000
N4222T107M6
N4223( PART PROGRAM COORDINATE SYSTEM )
N4224G54
N4225S5600M3
N4226G0X0.753Y-0.185
N4227Z0.100
N4228F52
N4229G81Y0.100Z-0.030F52
N4230G79Z-0.137
N4231G0Z1.000
N4232( MACHINE COORDINATE SYSTEM )
N4233G53
N4234T0M67
N4235G0Z390.000
N4236X-50.000Y-600.000
N4237T107M6
N4238( PART PROGRAM COORDINATE SYSTEM )
N4239G54
N4240G0X0.770Y-0.354
N4241Z0.100
N4242G81Y0.100Z-0.030F52
N4243G79Z-0.357
N4244G0Z1.000
N4245( MACHINE COORDINATE SYSTEM )
N4246G53
N4247T0M67
N4248G0Z390.000
N4249X-50.000Y-600.000
N4250T107M6
N4251( PART PROGRAM COORDINATE SYSTEM )
N4252G54
N4253G0X0.545Y-0.354
N4254Z0.100
N4255G81Y0.100Z-0.030F52
N4256G79Z-0.357
N4257G0Z1.000
N4258( MACHINE COORDINATE SYSTEM )
N4259G53
N4260T0M67
N4261G0Z390.000
N4262X-50.000Y-600.000
N4263T107M6
N4264( PART PROGRAM COORDINATE SYSTEM )
N4265G54
N4266G0X0.545Y-0.932
N4267Z0.100
N4268G81Y0.100Z-0.030F52
N4269G79Z-0.357
N4270G0Z1.000
N4271( MACHINE COORDINATE SYSTEM )
N4272G53
N4273T0M67
N4274G0Z390.000
N4275X-50.000Y-600.000
N4276T107M6
N4277( PART PROGRAM COORDINATE SYSTEM )
N4278G54
N4279G0X0.715Y-1.480
N4280Z0.100
N4281G81Y0.100Z-0.030F52
N4282G79Z-0.357
N4283G0Z1.000
N4284( MACHINE COORDINATE SYSTEM )
N4285G53
N4286T0M67
N4287G0Z390.000
N4288X-50.000Y-600.000
N4289T107M6
N4290( PART PROGRAM COORDINATE SYSTEM )
N4291G54
N4292G0X0.658Y-2.080
N4293Z0.100
N4294G81Y0.100Z-0.030F52
N4295G79Z-0.357
N4296G0Z1.000
N4297( MACHINE COORDINATE SYSTEM )
N4298G53
N4299T0M67
N4300G0Z390.000
N4301X-50.000Y-600.000
N4302T107M6
N4303( PART PROGRAM COORDINATE SYSTEM )
N4304G54
N4305G0X0.658Y-2.330
N4306Z0.100
N4307G81Y0.100Z-0.030F52
N4308G79Z-0.357
N4309G0Z1.000
N4310( MACHINE COORDINATE SYSTEM )
N4311G53
N4312T0M67
N4313G0Z390.000
N4314X-50.000Y-600.000
N4315T107M6
N4316( PART PROGRAM COORDINATE SYSTEM )
N4317G54
N4318G0X0.658Y-2.580
N4319Z0.100
N4320G81Y0.100Z-0.030F52
N4321G79Z-0.357
N4322G0Z1.000
N4323( MACHINE COORDINATE SYSTEM )
N4324G53
N4325T0M67
N4326G0Z390.000
N4327X-50.000Y-600.000
N4328T107M6
N4329( PART PROGRAM COORDINATE SYSTEM )
N4330G54
N4331G0X0.715Y-3.180
N4332Z0.100
N4333G81Y0.100Z-0.030F52
N4334G79Z-0.357
N4335G0Z1.000
N4336( MACHINE COORDINATE SYSTEM )
N4337G53
N4338T0M67
N4339G0Z390.000
N4340X-50.000Y-600.000
N4341T107M6
N4342( PART PROGRAM COORDINATE SYSTEM )
N4343G54
N4344G0X0.545Y-3.788
N4345Z0.100
N4346G81Y0.100Z-0.030F52
N4347G79Z-0.357
N4348G0Z1.000
N4349( MACHINE COORDINATE SYSTEM )
N4350G53
N4351T0M67
N4352G0Z390.000
N4353X-50.000Y-600.000
N4354T107M6
N4355( PART PROGRAM COORDINATE SYSTEM )
N4356G54
N4357G0X0.545Y-4.305
N4358Z0.100
N4359G81Y0.100Z-0.030F52
N4360G79Z-0.357
N4361G0Z1.000
N4362( MACHINE COORDINATE SYSTEM )
N4363G53
N4364T0M67
N4365G0Z390.000
N4366X-50.000Y-600.000
N4367T107M6
N4368( PART PROGRAM COORDINATE SYSTEM )
N4369G54
N4370G0X0.770Y-4.305
N4371Z0.100
N4372G81Y0.100Z-0.030F52
N4373G79Z-0.357
N4374G0Z1.000
N4375( MACHINE COORDINATE SYSTEM )
N4376G53
N4377T0M67
N4378G0Z390.000
N4379X-50.000Y-600.000
N4380T107M6
N4381( PART PROGRAM COORDINATE SYSTEM )
N4382G54
N4383G0X0.753Y-4.475
N4384Z0.100
N4385G81Y0.100Z-0.030F52
N4386G79Z-0.137
N4387G0Z1.000
N4388( MACHINE COORDINATE SYSTEM )
N4389G53
N4390T0M67
N4391G0Z390.000
N4392X-50.000Y-600.000
N4393T107M6
N4394( PART PROGRAM COORDINATE SYSTEM )
N4395G54
N4396G0X1.880Y-4.035
N4397Z0.100
N4398G81Y0.100Z-0.030F52
N4399G79Z-0.357
N4400G0Z1.000
N4401( MACHINE COORDINATE SYSTEM )
N4402G53
N4403T0M67
N4404G0Z390.000
N4405X-50.000Y-600.000
N4406T107M6
N4407( PART PROGRAM COORDINATE SYSTEM )
N4408G54
N4409G0X2.052Y-4.157
N4410Z0.100
N4411G81Y0.100Z-0.030F52
N4412G79Z-0.357
N4413G0Z1.000
N4414( MACHINE COORDINATE SYSTEM )
N4415G53
N4416T0M67
N4417G0Z390.000
N4418X-50.000Y-600.000
N4419T107M6
N4420( PART PROGRAM COORDINATE SYSTEM )
N4421G54
N4422G0X2.065Y-4.315
N4423Z0.100
N4424G81Y0.100Z-0.030F52
N4425G79Z-0.137
N4426G0Z1.000
N4427( MACHINE COORDINATE SYSTEM )
N4428G53
N4429T0M67
N4430G0Z390.000
N4431X-50.000Y-600.000
N4432T107M6
N4433( PART PROGRAM COORDINATE SYSTEM )
N4434G54
N4435G0X2.402Y-4.157
N4436Z0.100
N4437G81Y0.100Z-0.030F52
N4438G79Z-0.357
N4439G0Z1.000
N4440( MACHINE COORDINATE SYSTEM )
N4441G53
N4442T0M67
N4443G0Z390.000
N4444X-50.000Y-600.000
N4445T107M6
N4446( PART PROGRAM COORDINATE SYSTEM )
N4447G54
N4448G0X2.550Y-4.157
N4449Z0.100
N4450G81Y0.100Z-0.030F52
N4451G79Z-0.357
N4452G0Z1.000
N4453( MACHINE COORDINATE SYSTEM )
N4454G53
N4455T0M67
N4456G0Z390.000
N4457X-50.000Y-600.000
N4458T107M6
N4459( PART PROGRAM COORDINATE SYSTEM )
N4460G54
N4461G0X2.900Y-4.157
N4462Z0.100
N4463G81Y0.100Z-0.030F52
N4464G79Z-0.357
N4465G0Z1.000
N4466( MACHINE COORDINATE SYSTEM )
N4467G53
N4468T0M67
N4469G0Z390.000
N4470X-50.000Y-600.000
N4471T107M6
N4472( PART PROGRAM COORDINATE SYSTEM )
N4473G54
N4474G0X3.049Y-4.157
N4475Z0.100
N4476G81Y0.100Z-0.030F52
N4477G79Z-0.357
N4478G0Z1.000
N4479( MACHINE COORDINATE SYSTEM )
N4480G53
N4481T0M67
N4482G0Z390.000
N4483X-50.000Y-600.000
N4484T107M6
N4485( PART PROGRAM COORDINATE SYSTEM )
N4486G54
N4487G0X3.205Y-4.315
N4488Z0.100
N4489G81Y0.100Z-0.030F52
N4490G79Z-0.137
N4491G0Z1.000
N4492( MACHINE COORDINATE SYSTEM )
N4493G53
N4494T0M67
N4495G0Z390.000
N4496X-50.000Y-600.000
N4497T107M6
N4498( PART PROGRAM COORDINATE SYSTEM )
N4499G54
N4500G0X3.535Y-4.157
N4501Z0.100
N4502G81Y0.100Z-0.030F52
N4503G79Z-0.357
N4504G0Z1.000
N4505( MACHINE COORDINATE SYSTEM )
N4506G53
N4507T0M67
N4508G0Z390.000
N4509X-50.000Y-600.000
N4510T107M6
N4511( PART PROGRAM COORDINATE SYSTEM )
N4512G54
N4513G0X3.535Y-3.627
N4514Z0.100
N4515G81Y0.100Z-0.030F52
N4516G79Z-0.357
N4517G0Z1.000
N4518( MACHINE COORDINATE SYSTEM )
N4519G53
N4520T0M67
N4521G0Z390.000
N4522X-50.000Y-600.000
N4523T107M6
N4524( PART PROGRAM COORDINATE SYSTEM )
N4525G54
N4526G0X3.049Y-3.627
N4527Z0.100
N4528G81Y0.100Z-0.030F52
N4529G79Z-0.357
N4530G0Z1.000
N4531( MACHINE COORDINATE SYSTEM )
N4532G53
N4533T0M67
N4534G0Z390.000
N4535X-50.000Y-600.000
N4536T107M6
N4537( PART PROGRAM COORDINATE SYSTEM )
N4538G54
N4539G0X2.900Y-3.627
N4540Z0.100
N4541G81Y0.100Z-0.030F52
N4542G79Z-0.357
N4543G0Z1.000
N4544( MACHINE COORDINATE SYSTEM )
N4545G53
N4546T0M67
N4547G0Z390.000
N4548X-50.000Y-600.000
N4549T107M6
N4550( PART PROGRAM COORDINATE SYSTEM )
N4551G54
N4552G0X3.030Y-3.354
N4553Z0.100
N4554G81Y0.100Z-0.045F52
N4555G79Z-0.357
N4556G0Z1.000
N4557( MACHINE COORDINATE SYSTEM )
N4558G53
N4559T0M67
N4560G0Z390.000
N4561X-50.000Y-600.000
N4562T107M6
N4563( PART PROGRAM COORDINATE SYSTEM )
N4564G54
N4565G0X3.215Y-3.131
N4566Z0.100
N4567G81Y0.100Z-0.045F52
N4568G79Z-0.357
N4569G0Z1.000
N4570( MACHINE COORDINATE SYSTEM )
N4571G53
N4572T0M67
N4573G0Z390.000
N4574X-50.000Y-600.000
N4575T107M6
N4576( PART PROGRAM COORDINATE SYSTEM )
N4577G54
N4578G0X3.535Y-2.790
N4579Z0.100
N4580G81Y0.100Z-0.030F52
N4581G79Z-0.357
N4582G0Z1.000
N4583( MACHINE COORDINATE SYSTEM )
N4584G53
N4585T0M67
N4586G0Z390.000
N4587X-50.000Y-600.000
N4588T107M6
N4589( PART PROGRAM COORDINATE SYSTEM )
N4590G54
N4591G0X3.535Y-2.390
N4592Z0.100
N4593G81Y0.100Z-0.030F52
N4594G79Z-0.357
N4595G0Z1.000
N4596( MACHINE COORDINATE SYSTEM )
N4597G53
N4598T0M67
N4599G0Z390.000
N4600X-50.000Y-600.000
N4601T107M6
N4602( PART PROGRAM COORDINATE SYSTEM )
N4603G54
N4604G0X3.215Y-1.526
N4605Z0.100
N4606G81Y0.100Z-0.045F52
N4607G79Z-0.357
N4608G0Z1.000
N4609( MACHINE COORDINATE SYSTEM )
N4610G53
N4611T0M67
N4612G0Z390.000
N4613X-50.000Y-600.000
N4614T107M6
N4615( PART PROGRAM COORDINATE SYSTEM )
N4616G54
N4617G0X3.030Y-1.305
N4618Z0.100
N4619G81Y0.100Z-0.045F52
N4620G79Z-0.357
N4621G0Z1.000
N4622( MACHINE COORDINATE SYSTEM )
N4623G53
N4624T0M67
N4625G0Z390.000
N4626X-50.000Y-600.000
N4627T107M6
N4628( PART PROGRAM COORDINATE SYSTEM )
N4629G54
N4630G0X3.049Y-1.037
N4631Z0.100
N4632G81Y0.100Z-0.030F52
N4633G79Z-0.357
N4634G0Z1.000
N4635( MACHINE COORDINATE SYSTEM )
N4636G53
N4637T0M67
N4638G0Z390.000
N4639X-50.000Y-600.000
N4640T107M6
N4641( PART PROGRAM COORDINATE SYSTEM )
N4642G54
N4643G0X2.900Y-1.037
N4644Z0.100
N4645G81Y0.100Z-0.030F52
N4646G79Z-0.357
N4647G0Z1.000
N4648( MACHINE COORDINATE SYSTEM )
N4649G53
N4650T0M67
N4651G0Z390.000
N4652X-50.000Y-600.000
N4653T107M6
N4654( PART PROGRAM COORDINATE SYSTEM )
N4655G54
N4656G0X2.550Y-1.037
N4657Z0.100
N4658G81Y0.100Z-0.030F52
N4659G79Z-0.357
N4660G0Z1.000
N4661( MACHINE COORDINATE SYSTEM )
N4662G53
N4663T0M67
N4664G0Z390.000
N4665X-50.000Y-600.000
N4666T107M6
N4667( PART PROGRAM COORDINATE SYSTEM )
N4668G54
N4669G0X2.402Y-1.037
N4670Z0.100
N4671G81Y0.100Z-0.030F52
N4672G79Z-0.357
N4673G0Z1.000
N4674( MACHINE COORDINATE SYSTEM )
N4675G53
N4676T0M67
N4677G0Z390.000
N4678X-50.000Y-600.000
N4679T107M6
N4680( PART PROGRAM COORDINATE SYSTEM )
N4681G54
N4682G0X2.240Y-1.305
N4683Z0.100
N4684G81Y0.100Z-0.045F52
N4685G79Z-0.357
N4686G0Z1.000
N4687( MACHINE COORDINATE SYSTEM )
N4688G53
N4689T0M67
N4690G0Z390.000
N4691X-50.000Y-600.000
N4692T107M6
N4693( PART PROGRAM COORDINATE SYSTEM )
N4694G54
N4695G0X2.055Y-1.526
N4696Z0.100
N4697G81Y0.100Z-0.045F52
N4698G79Z-0.357
N4699G0Z1.000
N4700( MACHINE COORDINATE SYSTEM )
N4701G53
N4702T0M67
N4703G0Z390.000
N4704X-50.000Y-600.000
N4705T107M6
N4706( PART PROGRAM COORDINATE SYSTEM )
N4707G54
N4708G0X1.880Y-1.894
N4709Z0.100
N4710G81Y0.100Z-0.030F52
N4711G79Z-0.357
N4712G0Z1.000
N4713( MACHINE COORDINATE SYSTEM )
N4714G53
N4715T0M67
N4716G0Z390.000
N4717X-50.000Y-600.000
N4718T107M6
N4719( PART PROGRAM COORDINATE SYSTEM )
N4720G54
N4721G0X1.880Y-2.294
N4722Z0.100
N4723G81Y0.100Z-0.030F52
N4724G79Z-0.357
N4725G0Z1.000
N4726( MACHINE COORDINATE SYSTEM )
N4727G53
N4728T0M67
N4729G0Z390.000
N4730X-50.000Y-600.000
N4731T107M6
N4732( PART PROGRAM COORDINATE SYSTEM )
N4733G54
N4734G0X2.055Y-3.131
N4735Z0.100
N4736G81Y0.100Z-0.045F52
N4737G79Z-0.357
N4738G0Z1.000
N4739( MACHINE COORDINATE SYSTEM )
N4740G53
N4741T0M67
N4742G0Z390.000
N4743X-50.000Y-600.000
N4744T107M6
N4745( PART PROGRAM COORDINATE SYSTEM )
N4746G54
N4747G0X2.240Y-3.354
N4748Z0.100
N4749G81Y0.100Z-0.045F52
N4750G79Z-0.357
N4751G0Z1.000
N4752( MACHINE COORDINATE SYSTEM )
N4753G53
N4754T0M67
N4755G0Z390.000
N4756X-50.000Y-600.000
N4757T107M6
N4758( PART PROGRAM COORDINATE SYSTEM )
N4759G54
N4760G0X2.402Y-3.627
N4761Z0.100
N4762G81Y0.100Z-0.030F52
N4763G79Z-0.357
N4764G0Z1.000
N4765( MACHINE COORDINATE SYSTEM )
N4766G53
N4767T0M67
N4768G0Z390.000
N4769X-50.000Y-600.000
N4770T107M6
N4771( PART PROGRAM COORDINATE SYSTEM )
N4772G54
N4773G0X2.550Y-3.627
N4774Z0.100
N4775G81Y0.100Z-0.030F52
N4776G79Z-0.357
N4777G0Z1.000
N4778( MACHINE COORDINATE SYSTEM )
N4779G53
N4780T0M67
N4781G0Z390.000
N4782X-50.000Y-600.000
N4783T107M6
N4784( PART PROGRAM COORDINATE SYSTEM )
N4785G54
N4786G0X2.052Y-3.627
N4787Z0.100
N4788G81Y0.100Z-0.030F52
N4789G79Z-0.357
N4790G0Z1.000
N4791( MACHINE COORDINATE SYSTEM )
N4792G53
N4793T0M67
N4794G0Z390.000
N4795X-50.000Y-600.000
N4796T107M6
N4797( PART PROGRAM COORDINATE SYSTEM )
N4798G54
N4799G0X1.880Y-3.635
N4800Z0.100
N4801G81Y0.100Z-0.030F52
N4802G79Z-0.357
N4803G0Z1.000
N4804( MACHINE COORDINATE SYSTEM )
N4805G53
N4806T0M67
N4807G0Z390.000
N4808X-50.000Y-600.000
N4809T107M6
N4810( PART PROGRAM COORDINATE SYSTEM )
N4811G54
N4812G0X2.052Y-1.037
N4813Z0.100
N4814G81Y0.100Z-0.030F52
N4815G79Z-0.357
N4816G0Z1.000
N4817( MACHINE COORDINATE SYSTEM )
N4818G53
N4819T0M67
N4820G0Z390.000
N4821X-50.000Y-600.000
N4822T107M6
N4823( PART PROGRAM COORDINATE SYSTEM )
N4824G54
N4825G0X1.880Y-0.915
N4826Z0.100
N4827G81Y0.100Z-0.030F52
N4828G79Z-0.357
N4829G0Z1.000
N4830( MACHINE COORDINATE SYSTEM )
N4831G53
N4832T0M67
N4833G0Z390.000
N4834X-50.000Y-600.000
N4835T107M6
N4836( PART PROGRAM COORDINATE SYSTEM )
N4837G54
N4838G0X1.880Y-0.515
N4839Z0.100
N4840G81Y0.100Z-0.030F52
N4841G79Z-0.357
N4842G0Z1.000
N4843( MACHINE COORDINATE SYSTEM )
N4844G53
N4845T0M67
N4846G0Z390.000
N4847X-50.000Y-600.000
N4848T107M6
N4849( PART PROGRAM COORDINATE SYSTEM )
N4850G54
N4851G0X2.052Y-0.507
N4852Z0.100
N4853G81Y0.100Z-0.030F52
N4854G79Z-0.357
N4855G0Z1.000
N4856( MACHINE COORDINATE SYSTEM )
N4857G53
N4858T0M67
N4859G0Z390.000
N4860X-50.000Y-600.000
N4861T107M6
N4862( PART PROGRAM COORDINATE SYSTEM )
N4863G54
N4864G0X2.065Y-0.349
N4865Z0.100
N4866G81Y0.100Z-0.030F52
N4867G79Z-0.137
N4868G0Z1.000
N4869( MACHINE COORDINATE SYSTEM )
N4870G53
N4871T0M67
N4872G0Z390.000
N4873X-50.000Y-600.000
N4874T107M6
N4875( PART PROGRAM COORDINATE SYSTEM )
N4876G54
N4877G0X2.402Y-0.507
N4878Z0.100
N4879G81Y0.100Z-0.030F52
N4880G79Z-0.357
N4881G0Z1.000
N4882( MACHINE COORDINATE SYSTEM )
N4883G53
N4884T0M67
N4885G0Z390.000
N4886X-50.000Y-600.000
N4887T107M6
N4888( PART PROGRAM COORDINATE SYSTEM )
N4889G54
N4890G0X2.550Y-0.507
N4891Z0.100
N4892G81Y0.100Z-0.030F52
N4893G79Z-0.357
N4894G0Z1.000
N4895( MACHINE COORDINATE SYSTEM )
N4896G53
N4897T0M67
N4898G0Z390.000
N4899X-50.000Y-600.000
N4900T107M6
N4901( PART PROGRAM COORDINATE SYSTEM )
N4902G54
N4903G0X2.900Y-0.507
N4904Z0.100
N4905G81Y0.100Z-0.030F52
N4906G79Z-0.357
N4907G0Z1.000
N4908( MACHINE COORDINATE SYSTEM )
N4909G53
N4910T0M67
N4911G0Z390.000
N4912X-50.000Y-600.000
N4913T107M6
N4914( PART PROGRAM COORDINATE SYSTEM )
N4915G54
N4916G0X3.049Y-0.507
N4917Z0.100
N4918G81Y0.100Z-0.030F52
N4919G79Z-0.357
N4920G0Z1.000
N4921( MACHINE COORDINATE SYSTEM )
N4922G53
N4923T0M67
N4924G0Z390.000
N4925X-50.000Y-600.000
N4926T107M6
N4927( PART PROGRAM COORDINATE SYSTEM )
N4928G54
N4929G0X3.205Y-0.349
N4930Z0.100
N4931G81Y0.100Z-0.030F52
N4932G79Z-0.137
N4933G0Z1.000
N4934( MACHINE COORDINATE SYSTEM )
N4935G53
N4936T0M67
N4937G0Z390.000
N4938X-50.000Y-600.000
N4939T107M6
N4940( PART PROGRAM COORDINATE SYSTEM )
N4941G54
N4942G0X3.535Y-0.507
N4943Z0.100
N4944G81Y0.100Z-0.030F52
N4945G79Z-0.357
N4946G0Z1.000
N4947( MACHINE COORDINATE SYSTEM )
N4948G53
N4949T0M67
N4950G0Z390.000
N4951X-50.000Y-600.000
N4952T107M6
N4953( PART PROGRAM COORDINATE SYSTEM )
N4954G54
N4955G0X3.535Y-1.037
N4956Z0.100
N4957G81Y0.100Z-0.030F52
N4958G79Z-0.357
N4959G0Z1.000
N4960( MACHINE COORDINATE SYSTEM )
N4961G53
N4962T0M67
N4963G0Z390.000
N4964X-50.000Y-600.000
N4965T109M6
N4966( PART PROGRAM COORDINATE SYSTEM )
N4967G56
N4968S2600M3
N4969G0X0.287Y-0.630
N4970Z0.100
N4971F54
N4972G81Y0.100Z-0.132F54
N4973G79Z-0.175
N4974G0Z1.000
N4975( MACHINE COORDINATE SYSTEM )
N4976G53
N4977T0M67
N4978G0Z390.000
N4979X-50.000Y-600.000
N4980T109M6
N4981( PART PROGRAM COORDINATE SYSTEM )
N4982G56
N4983G0X0.287Y-4.030
N4984Z0.100
N4985G81Y0.100Z-0.132F54
N4986G79Z-0.175
N4987G0Z1.000
N4988M30
