%PM
N9001
N1( PARTNO : 898752_PROD_1 )
N2G70
N3( MACHINE : MAHO MC 400 - US )
N4G0Z390.000
N5X-50.000Y-600.000
N6T42M6
N7( PART PROGRAM COORDINATE SYSTEM )
N8B0.000G54
N9G41
N10S459M3
N11M8
N12G0X6.488Y0.900
N13Z1.000
N14Z0.100
N15Z=E1
N16F8
N17G1Y-9.165
N18G0Z0.100
N19X5.269Y0.900
N20Z=E1
N21G1Y-9.165
N22G0Z0.100
N23X4.050Y0.900
N24Z=E1
N25G1Y-9.165
N26G0Z0.100
N27X2.832Y0.900
N28Z=E1
N29G1Y-9.165
N30G0Z0.100
N31X1.613Y0.900
N32Z=E1
N33G1Y-9.165
N34G0Z0.100
N35Z1.000
N36G40
N37( MACHINE COORDINATE SYSTEM )
N38G53
N39T0M67
N40G0Z390.000
N41X-50.000Y-600.000
N42T42M6
N43( PART PROGRAM COORDINATE SYSTEM )
N44B180.000G55
N45G41
N46G0X-6.533Y-9.165
N47Z0.100
N48Z=E1
N49G1Y0.900
N50G0Z0.100
N51X-5.314Y-9.165
N52Z=E1
N53G1Y0.900
N54G0Z0.100
N55X-4.095Y-9.165
N56Z=E1
N57G1Y0.900
N58G0Z0.100
N59X-2.877Y-9.165
N60Z=E1
N61G1Y0.900
N62G0Z0.100
N63X-1.658Y-9.165
N64Z=E1
N65G1Y0.900
N66G0Z0.100
N67Z1.000
N68G40
N69( MACHINE COORDINATE SYSTEM )
N70G53
N71T0M67
N72G0Z390.000
N73X-50.000Y-600.000
N74T75M6
N75( PART PROGRAM COORDINATE SYSTEM )
N76B0.000G54
N77G41
N78S919M3
N79M9
N80G0X5.625Y0.520
N81E1=-0.322
N82Z1.000
N83X5.625Y0.520
N84Z=E1
N85F12
N86G1Y0.270
N87F12
N88Y-0.180
N89F12
N90X5.700
N91F12
N92G2X6.165Y-0.645I5.700J-0.645
N93F12
N94G1Y-2.045
N95F12
N96X6.585
N97F12
N98G2X7.035Y-2.495I6.585J-2.495
N99F12
N100G1Y-2.570
N101F12
N102X7.485
N103G0Z1.000
N104E1=E1-0.188
N105G14N1=81N2=104J3
N106G0
N107G40
N108( MACHINE COORDINATE SYSTEM )
N109G53
N110T0M67
N111G0Z390.000
N112X-50.000Y-600.000
N113T75M6
N114( PART PROGRAM COORDINATE SYSTEM )
N115G54
N116G41
N117G0X7.485Y-5.300
N118E1=-0.322
N119Z1.000
N120X7.485Y-5.300
N121Z=E1
N122F12
N123G1X7.035
N124F12
N125Y-5.375
N126F12
N127G2X6.585Y-5.825I6.585J-5.375
N128F12
N129G1X6.165
N130F12
N131Y-7.225
N132F12
N133G2X5.700Y-7.690I5.700J-7.225
N134F12
N135G1X5.625
N136F12
N137Y-8.140
N138G0Z1.000
N139E1=E1-0.188
N140G14N1=118N2=139J3
N141G0
N142G40
N143( MACHINE COORDINATE SYSTEM )
N144G53
N145T0M67
N146G0Z390.000
N147X-50.000Y-600.000
N148T75M6
N149( PART PROGRAM COORDINATE SYSTEM )
N150G54
N151G41
N152G0X3.970Y-8.804
N153E1=-0.252
N154Z0.100
N155X3.970Y-8.804
N156Z=E1
N157F12
N158G1X2.605Y-8.274
N159F12
N160G2X0.561Y-6.721I4.290J-3.935
N161F12
N162G2X0.480Y-6.478I0.885J-6.478
N163F12
N164G1Y-4.590
N165F12
N166X-0.450
N167G0Y-8.800Z0.100
N168X3.981Y-8.776
N169Z=E1
N170F12
N171G1X2.616Y-8.246
N172F12
N173G2X0.585Y-6.703I4.290J-3.935
N174F12
N175G2X0.510Y-6.478I0.885J-6.478
N176F12
N177G1Y-4.560
N178F12
N179X-0.450
N180G0Y-8.800Z0.100
N181E1=E1-0.208
N182G14N1=153N2=181J3
N183G0Z1.000
N184G40
N185( MACHINE COORDINATE SYSTEM )
N186G53
N187T0M67
N188G0Z390.000
N189X-50.000Y-600.000
N190T75M6
N191( PART PROGRAM COORDINATE SYSTEM )
N192G54
N193G41
N194G0X-0.450Y-3.280
N195E1=-0.238
N196Z0.100
N197X-0.450Y-3.280
N198Z=E1
N199F12
N200G1X0.480
N201F12
N202Y-1.392
N203F12
N204G2X0.561Y-1.149I0.885J-1.392
N205F12
N206G2X2.531Y0.375I4.290J-3.935
N207F12
N208G1X2.573Y0.392
N209F12
N210X2.414Y0.781
N211G0X0.000Z0.100
N212X-0.450Y-3.310
N213Z=E1
N214F12
N215G1X0.510
N216F12
N217Y-1.392
N218F12
N219G2X0.585Y-1.167I0.885J-1.392
N220F12
N221G2X2.543Y0.347I4.290J-3.935
N222F12
N223G1X2.612Y0.376
N224F12
N225X2.442Y0.792
N226G0X0.000Z0.100
N227E1=E1-0.208
N228G14N1=195N2=227J3
N229G0Z1.000
N230G40
N231( MACHINE COORDINATE SYSTEM )
N232G53
N233T0M67
N234G0Z390.000
N235X-50.000Y-600.000
N236T75M6
N237( PART PROGRAM COORDINATE SYSTEM )
N238B180.000G55
N239G41
N240M8
N241G0X-0.410Y-4.710
N242Z0.100
N243Z=E1
N244F9
N245G3X-0.560Y-4.560I-0.560J-4.710
N246F12
N247G1X-0.760
N248F12
N249X-1.283
N250F12
N251Y-3.310
N252F12
N253X-0.760
N254F12
N255X-0.560
N256F9
N257G3X-0.410Y-3.160I-0.560J-3.160
N258G0Z0.100
N259Z1.000
N260G40
N261( MACHINE COORDINATE SYSTEM )
N262G53
N263T0M67
N264G0Z390.000
N265X-50.000Y-600.000
N266T75M6
N267( PART PROGRAM COORDINATE SYSTEM )
N268B0.000G54
N269G42
N270M9
N271G0X0.435Y-3.110
N272E1=-0.169
N273Z0.100
N274X0.435Y-3.110
N275Z=E1
N276F12
N277G1X1.050
N278F12
N279Y-3.310
N280F12
N281X-0.100
N282G0Z0.100
N283E1=E1-0.169
N284G14N1=272N2=283J3
N285G0Z1.000
N286G40
N287( MACHINE COORDINATE SYSTEM )
N288G53
N289T0M67
N290G0Z390.000
N291X-50.000Y-600.000
N292T98M6
N293( PART PROGRAM COORDINATE SYSTEM )
N294B180.000G55
N295G41
N296S3147M3
N297M8
N298G0X-0.626Y-3.150
N299E1=-0.135
N300Z0.100
N301X-0.626Y-3.150
N302Z=E1
N303F8
N304G3X-0.775Y-3.300I-0.626J-3.300
N305F11
N306G1Y-3.560
N307F8
N308G3X-0.760Y-3.576I-0.760J-3.560
N309F11
N310G1X-0.500
N311F8
N312G3X-0.350Y-3.425I-0.500J-3.425
N313G0Z0.100
N314E1=E1-0.075
N315G14N1=299N2=314J1
N316G0Z1.000
N317G40
N318( MACHINE COORDINATE SYSTEM )
N319G53
N320T0M67
N321G0Z390.000
N322X-50.000Y-600.000
N323T98M6
N324( PART PROGRAM COORDINATE SYSTEM )
N325B0.000G55
N326G41
N327G0X-0.398Y-4.441
N328E1=-0.146
N329Z0.100
N330X-0.398Y-4.441
N331Z=E1
N332G3X-0.549Y-4.293I-0.548J-4.443
N333F11
N334G1X-0.760Y-4.295
N335F8
N336G3X-0.775Y-4.310I-0.760J-4.310
N337F11
N338G1Y-4.550
N339F8
N340G3X-0.625Y-4.700I-0.626J-4.550
N341G0Z0.100
N342E1=E1-0.086
N343G14N1=328N2=342J7
N344G0Z1.000
N345G40
N346( MACHINE COORDINATE SYSTEM )
N347G53
N348T0M67
N349G0Z390.000
N350X-50.000Y-600.000
N351T83M6
N352( PART PROGRAM COORDINATE SYSTEM )
N353B180.000G54
N354G41
N355S2500M3
N356G0X3.757Y-3.935
N357E1=-0.282
N358Z0.100
N359X3.757Y-3.935
N360F15
N361G1Z=E1
N362G2X3.267Y-3.058I5.603J-2.327
N363G1X3.235Y-3.026
N364Y-3.150
N365G2X3.547Y-4.214I1.165J-4.335
N366G2X3.757Y-3.935I5.603J-5.543
N367G1X3.946Y-3.771
N368G2X3.488Y-2.926I5.603J-2.327
N369G1X3.079Y-2.517
N370G3X2.985Y-2.603I4.290J-3.935
N371G1Y-3.219
N372G2X3.074Y-5.291I1.165J-4.335
N373G1X3.113Y-5.320
N374X3.488Y-4.944
N375G2X4.104Y-3.935I5.603J-5.543
N376G2X3.946Y-3.771I5.603J-2.327
N377G1X4.134Y-3.607
N378G2X3.690Y-2.695I5.603J-2.327
N379G1X3.611
N380X3.111Y-2.195
N381X3.088
N382G3X2.735Y-2.501I4.290J-3.935
N383G1Y-3.292
N384G2X2.745Y-5.363I1.165J-4.335
N385G1X3.139Y-5.647
N386X3.611Y-5.175
N387X3.690
N388G2X4.503Y-3.935I5.603J-5.543
N389G2X4.134Y-3.607I5.603J-2.327
N390G1X4.323Y-3.442
N391G2X3.909Y-2.445I5.603J-2.327
N392G1X3.715
N393X3.215Y-1.945
N394X3.012
N395G3X2.485Y-2.407I4.290J-3.935
N396G1Y-3.370
N397G2X2.488Y-5.296I1.165J-4.335
N398G1X2.487Y-5.485
N399X3.097Y-5.925
N400X3.215
N401X3.715Y-5.425
N402X3.909
N403G2X4.728Y-4.088I5.603J-5.543
N404G2X4.886Y-3.935I5.940J-5.185
N405G2X4.728Y-3.782I5.940J-2.685
N406G2X4.323Y-3.442I5.603J-2.327
N407G1X4.511Y-3.278
N408G2X4.155Y-2.327I5.603J-2.327
N409G1Y-2.195
N410X3.818
N411X3.318Y-1.695
N412X2.941
N413G3X2.235Y-2.318I4.290J-3.935
N414G1Y-3.456
N415G2X2.238Y-5.211I1.165J-4.335
N416G1X2.237Y-5.613
N417X2.283Y-5.646
N418X3.017Y-6.175
N419X3.318
N420X3.818Y-5.675
N421X4.155
N422Y-5.543
N423G2X4.889Y-4.284I5.603J-5.543
N424G2X5.320Y-3.947I5.940J-5.185
N425G1Y-3.931
N426Y-3.923
N427G2X4.889Y-3.586I5.940J-2.685
N428G2X4.511Y-3.278I5.603J-2.327
N429G1X4.700Y-3.114
N430G2X4.405Y-2.327I5.603J-2.327
N431G1Y-1.945
N432X3.922
N433X3.422Y-1.445
N434X2.873
N435G3X1.985Y-2.233I4.290J-3.935
N436G1Y-3.550
N437G2X1.988Y-5.117I1.165J-4.335
N438G1X1.987Y-5.753
N439G2X2.135Y-5.847I1.418J-6.807
N440G1X2.936Y-6.425
N441X3.422
N442X3.922Y-5.925
N443X4.405
N444Y-5.543
N445G2X5.050Y-4.480I5.603J-5.543
N446G2X5.570Y-4.112I5.940J-5.185
N447G1Y-3.931
N448Y-3.758
N449G2X5.050Y-3.390I5.940J-2.685
N450G2X4.700Y-3.114I5.603J-2.327
N451G1X4.888Y-2.950
N452G2X4.655Y-2.327I5.603J-2.327
N453G1Y-1.695
N454X4.025
N455X3.525Y-1.195
N456X2.808
N457G3X1.735Y-2.153I4.290J-3.935
N458G1Y-3.658
N459G2X1.738Y-5.009I1.165J-4.335
N460G1X1.736Y-5.914
N461G2X1.987Y-6.049I1.418J-6.807
N462G1X2.855Y-6.675
N463X3.525
N464X4.025Y-6.175
N465X4.655
N466Y-5.543
N467G2X5.214Y-4.678I5.603J-5.543
N468G2X5.820Y-4.308I5.940J-5.185
N469G1Y-3.931
N470Y-3.562
N471G2X5.214Y-3.192I5.940J-2.685
N472G2X4.888Y-2.950I5.603J-2.327
N473G1X5.077Y-2.785
N474G2X4.905Y-2.327I5.603J-2.327
N475G1Y-1.445
N476X4.129
N477X3.629Y-0.945
N478X2.746
N479G3X1.485Y-2.076I4.290J-3.935
N480G1Y-3.787
N481G2X1.489Y-4.881I1.165J-4.335
N482G1X1.486Y-6.112
N483G2X1.839Y-6.250I1.418J-6.807
N484G1X2.774Y-6.925
N485X3.629
N486X4.129Y-6.425
N487X4.905
N488Y-5.543
N489G2X5.383Y-4.881I5.603J-5.543
N490G2X6.070Y-4.563I5.940J-5.185
N491G1Y-3.931
N492Y-3.307
N493G2X5.383Y-2.989I5.940J-2.685
N494G2X5.077Y-2.785I5.603J-2.327
N495G1X5.265Y-2.621
N496G2X5.155Y-2.327I5.603J-2.327
N497G1Y-1.195
N498X4.232
N499X3.732Y-0.695
N500X2.687
N501G3X1.235Y-2.002I4.290J-3.935
N502G1Y-3.965
N503X1.291
N504X1.350Y-3.997
N505G2X1.239Y-4.713I1.165J-4.335
N506G1X1.235Y-6.375
N507X1.249Y-6.392
N508G2X1.690Y-6.451I1.418J-6.807
N509G1X2.683Y-7.167
N510X2.716Y-7.175
N511X3.732
N512X4.232Y-6.675
N513X5.155
N514Y-5.543
N515G2X5.565Y-5.097I5.603J-5.543
N516G2X6.301Y-5.050I5.940J-5.185
N517G1X6.320Y-5.031
N518Y-3.931
N519Y-2.830
N520X6.303Y-2.813
N521G2X5.565Y-2.773I5.940J-2.685
N522G2X5.265Y-2.621I5.603J-2.327
N523G0Z0.100
N524E1=E1-0.147
N525G14N1=357N2=524J3
N526G0Z1.000
N527G40
N528( MACHINE COORDINATE SYSTEM )
N529G53
N530T0M67
N531G0Z390.000
N532X-50.000Y-600.000
N533T98M6
N534( PART PROGRAM COORDINATE SYSTEM )
N535G54
N536G41
N537S3147M3
N538G0X6.315Y-4.081
N539E1=-0.252
N540Z0.100
N541X6.315Y-4.081
N542F11
N543G1Z=E1
N544F11
N545G3X6.465Y-3.931I6.315J-3.931
N546F11
N547G1Y-2.774
N548F11
N549G3X6.462Y-2.767I6.455J-2.774
N550F11
N551G1X6.328Y-2.633
N552F11
N553G3X6.321Y-2.629I6.321J-2.640
N554F11
N555G1X6.190
N556F11
N557G3X6.180Y-2.640I6.190J-2.640
N558F11
N559G1Y-2.685
N560F11
N561G2X5.706Y-2.735I5.940J-2.685
N562F11
N563G3X5.583Y-2.629I5.573J-2.764
N564F11
N565G2X5.300Y-2.327I5.603J-2.327
N566F11
N567G1Y-1.185
N568F11
N569G3X5.165Y-1.049I5.165J-1.185
N570F11
N571G1X4.293
N572F11
N573X3.832Y-0.589
N574F11
N575G3X3.736Y-0.549I3.736J-0.685
N576F11
N577G1X2.684
N578F11
N579G3X2.624Y-0.564I2.684J-0.685
N580F11
N581G3X1.089Y-1.961I4.290J-3.935
N582F11
N583G1Y-3.975
N584F11
N585G3X1.225Y-4.111I1.225J-3.975
N586F11
N587G2X1.280Y-4.125I1.225J-4.225
N588F11
N589G2X1.203Y-4.571I1.165J-4.335
N590F11
N591G3X1.092Y-4.681I1.225J-4.705
N592F11
N593G1X1.081Y-4.737
N594F11
N595X1.089Y-4.778
N596F11
N597Y-6.422
N598F11
N599G3X1.092Y-6.429I1.100J-6.422
N600F11
N601G3X1.210Y-6.573I4.290J-3.935
N602F11
N603G3X1.225Y-6.574I1.218J-6.566
N604F11
N605G2X1.611I1.418J-6.807
N606F11
N607G3X2.624Y-7.306I4.290J-3.935
N608F11
N609G3X2.684Y-7.320I2.684J-7.185
N610F11
N611G1X3.736
N612F11
N613G3X3.832Y-7.281I3.736J-7.185
N614F11
N615G1X4.293Y-6.820
N616F11
N617X5.165
N618F11
N619G3X5.300Y-6.685I5.165J-6.685
N620F11
N621G1Y-5.543
N622F11
N623G2X5.583Y-5.241I5.603J-5.543
N624F11
N625G3X5.706Y-5.135I5.573J-5.106
N626F11
N627G2X6.180Y-5.185I5.940J-5.185
N628F11
N629G1Y-5.230
N630F11
N631G3X6.190Y-5.240I6.190J-5.230
N632F11
N633G1X6.312
N634F11
N635G3X6.319Y-5.237I6.312J-5.230
N636F11
N637G1X6.462Y-5.094
N638F11
N639G3X6.465Y-5.087I6.455J-5.087
N640F11
N641G1Y-3.931
N642F11
N643G3X6.315Y-3.780I6.315J-3.931
N644G0Z0.100
N645X6.320Y-4.081
N646F11
N647G1Z=E1
N648F11
N649G3X6.470Y-3.931I6.320J-3.931
N650F11
N651G1Y-2.774
N652F11
N653G3X6.466Y-2.763I6.455J-2.774
N654F11
N655G1X6.332Y-2.629
N656F11
N657G3X6.321Y-2.625I6.321J-2.640
N658F11
N659G1X6.190
N660F11
N661G3X6.174Y-2.640I6.190J-2.640
N662F11
N663G1Y-2.685
N664F11
N665G2X5.711Y-2.734I5.940J-2.685
N666F11
N667G3X5.583Y-2.624I5.573J-2.764
N668F11
N669G2X5.306Y-2.327I5.603J-2.327
N670F11
N671G1Y-1.185
N672F11
N673G3X5.165Y-1.044I5.165J-1.185
N674F11
N675G1X4.295
N676F11
N677X3.836Y-0.586
N678F11
N679G3X3.736Y-0.544I3.736J-0.685
N680F11
N681G1X2.684
N682F11
N683G3X2.622Y-0.559I2.684J-0.685
N684F11
N685G3X1.084Y-1.959I4.290J-3.935
N686F11
N687G1Y-3.975
N688F11
N689G3X1.225Y-4.116I1.225J-3.975
N690F11
N691G2X1.278Y-4.129I1.225J-4.225
N692F11
N693G2X1.203Y-4.566I1.165J-4.335
N694F11
N695G3X1.087Y-4.680I1.225J-4.705
N696F11
N697G1X1.076Y-4.737
N698F11
N699X1.084Y-4.779
N700F11
N701Y-6.422
N702F11
N703G3X1.088Y-6.432I1.100J-6.422
N704F11
N705G3X1.206Y-6.576I4.290J-3.935
N706F11
N707G3X1.228Y-6.578I1.218J-6.566
N708F11
N709G2X1.608Y-6.578I1.418J-6.807
N710F11
N711G3X2.622Y-7.311I4.290J-3.935
N712F11
N713G3X2.684Y-7.326I2.684J-7.185
N714F11
N715G1X3.736
N716F11
N717G3X3.836Y-7.284I3.736J-7.185
N718F11
N719G1X4.295Y-6.826
N720F11
N721X5.165
N722F11
N723G3X5.306Y-6.685I5.165J-6.685
N724F11
N725G1Y-5.543
N726F11
N727G2X5.583Y-5.246I5.603J-5.543
N728F11
N729G3X5.711Y-5.136I5.573J-5.106
N730F11
N731G2X6.174Y-5.185I5.940J-5.185
N732F11
N733G1Y-5.230
N734F11
N735G3X6.190Y-5.246I6.190J-5.230
N736F11
N737G1X6.312
N738F11
N739G3X6.323Y-5.241I6.312J-5.230
N740F11
N741G1X6.466Y-5.098
N742F11
N743G3X6.470Y-5.087I6.455J-5.087
N744F11
N745G1Y-3.931
N746F11
N747G3X6.320Y-3.780I6.320J-3.931
N748G0Z0.100
N749E1=E1-0.118
N750G14N1=539N2=749J4
N751G0Z1.000
N752G40
N753( MACHINE COORDINATE SYSTEM )
N754G53
N755T0M67
N756G0Z390.000
N757X-50.000Y-600.000
N758T75M6
N759( PART PROGRAM COORDINATE SYSTEM )
N760G54
N761G41
N762S1000M3
N763G0X1.530Y-3.795
N764Z0.100
N765Z=E1
N766G3X1.380Y-3.945I1.530J-3.945
N767G1Y-3.975
N768Y-4.705
N769Y-4.735
N770G3X1.530Y-4.885I1.530J-4.735
N771G0Z0.100
N772X1.500Y-3.795
N773Z=E1
N774G3X1.350Y-3.945I1.500J-3.945
N775G1Y-3.975
N776Y-4.705
N777Y-4.735
N778G3X1.500Y-4.885I1.500J-4.735
N779G0Z0.100
N780Z1.000
N781G40
N782( MACHINE COORDINATE SYSTEM )
N783G53
N784T0M67
N785G0Z390.000
N786X-50.000Y-600.000
N787T83M6
N788( PART PROGRAM COORDINATE SYSTEM )
N789G54
N790G41
N791G0X5.466Y-4.975
N792E1=-0.234
N793Z0.100
N794X5.466Y-4.975
N795Z=E1
N796G3X5.566Y-5.075I5.566J-4.975
N797G1X5.596
N798X6.190
N799X6.220
N800G3X6.320Y-4.975I6.220J-4.975
N801G0Z0.100
N802X5.466Y-5.005
N803Z=E1
N804G3X5.566Y-5.105I5.566J-5.005
N805G1X5.596
N806X6.190
N807X6.220
N808G3X6.320Y-5.005I6.220J-5.005
N809G0Z0.100
N810E1=E1-0.100
N811G14N1=792N2=810J1
N812G0Z1.000
N813G40
N814( MACHINE COORDINATE SYSTEM )
N815G53
N816T0M67
N817G0Z390.000
N818X-50.000Y-600.000
N819T83M6
N820( PART PROGRAM COORDINATE SYSTEM )
N821G54
N822G41
N823G0X6.320Y-2.895
N824E1=-0.234
N825Z0.100
N826X6.320Y-2.895
N827Z=E1
N828G3X6.220Y-2.795I6.220J-2.895
N829G1X6.190
N830X5.596
N831X5.566
N832G3X5.466Y-2.895I5.566J-2.895
N833G0Z0.100
N834X6.320Y-2.865
N835Z=E1
N836G3X6.220Y-2.765I6.220J-2.865
N837G1X6.190
N838X5.596
N839X5.566
N840G3X5.466Y-2.865I5.566J-2.865
N841G0Z0.100
N842E1=E1-0.100
N843G14N1=824N2=842J1
N844G0Z1.000
N845G40
N846( MACHINE COORDINATE SYSTEM )
N847G53
N848T0M67
N849G0Z390.000
N850X-50.000Y-600.000
N851T98M6
N852( PART PROGRAM COORDINATE SYSTEM )
N853G54
N854G41
N855S3147M3
N856M9
N857G0X1.738Y-6.555
N858E1=-0.201
N859Z0.100
N860X1.738Y-6.555
N861Z=E1
N862F11
N863G2X1.791Y-6.995I1.418J-6.807
N864F11
N865G3X2.610Y-7.510I4.290J-3.935
N866F11
N867G1X3.695
N868F11
N869Y-7.360
N870F11
N871Y-7.260
N872G0Z0.100
N873X1.500Y-6.500
N874X1.652Y-6.623
N875Z-0.201
N876F11
N877G2X1.647Y-6.997I1.418J-6.807
N878F11
N879G3X1.649Y-7.019I1.659J-7.007
N880F11
N881G3X2.583Y-7.619I4.290J-3.935
N882F11
N883G3X2.589Y-7.621I2.589J-7.605
N884F11
N885G1X3.790
N886F11
N887G3X3.806Y-7.605I3.790J-7.605
N888F11
N889G1Y-7.360
N890F11
N891Y-7.260
N892G0Z0.100
N893E1=E1-0.067
N894G14N1=858N2=893J2
N895G0Z1.000
N896G40
N897( MACHINE COORDINATE SYSTEM )
N898G53
N899T0M67
N900G0Z390.000
N901X-50.000Y-600.000
N902T98M6
N903( PART PROGRAM COORDINATE SYSTEM )
N904G54
N905G41
N906G0X1.664Y-1.375
N907E1=-0.234
N908Z0.100
N909X1.664Y-1.375
N910Z=E1
N911F11
N912G2X1.229Y-1.422I1.418J-1.063
N913F11
N914G3X1.184Y-1.477I4.290J-3.935
N915F11
N916G1Y-2.000
N917F11
N918Y-2.100
N919F11
N920G3X1.198Y-2.150I1.285J-2.100
N921G0Z0.100
N922X1.750Y-1.400
N923X1.602Y-1.297
N924Z-0.234
N925F11
N926G2X1.228Y-1.292I1.418J-1.063
N927F11
N928G3X1.206Y-1.294I1.218J-1.304
N929F11
N930G3X1.088Y-1.438I4.290J-3.935
N931F11
N932G3X1.084Y-1.448I1.100J-1.448
N933F11
N934G1Y-2.000
N935F11
N936Y-2.100
N937F11
N938G3X1.098Y-2.150I1.184J-2.100
N939G0Z0.100
N940E1=E1-0.100
N941G14N1=907N2=940J1
N942G0Z1.000
N943G40
N944( MACHINE COORDINATE SYSTEM )
N945G53
N946T0M67
N947G0Z390.000
N948X-50.000Y-600.000
N949T98M6
N950( PART PROGRAM COORDINATE SYSTEM )
N951G54
N952G41
N953G0X3.767Y-0.658
N954E1=-0.234
N955Z0.100
N956X3.767Y-0.658
N957Z=E1
N958F11
N959G1X3.703Y-0.594
N960F11
N961X3.705Y-0.349
N962F11
N963X2.608
N964F11
N965G3X1.770Y-0.879I4.290J-3.935
N966F11
N967G2X1.671Y-1.369I1.418J-1.063
N968G0Z0.100
N969X3.800Y-0.700
N970Z=E1
N971F11
N972G1X3.803Y-0.553
N973F11
N974X3.805Y-0.265
N975F11
N976G3X3.790Y-0.250I3.790J-0.265
N977F11
N978G1X2.589
N979F11
N980G3X2.583Y-0.251I2.589J-0.265
N981F11
N982G3X1.649Y-0.851I4.290J-3.935
N983F11
N984G3X1.647Y-0.873I1.659J-0.863
N985F11
N986G2X1.652Y-1.247I1.418J-1.063
N987G0Z0.100
N988E1=E1-0.100
N989G14N1=954N2=988J1
N990G0Z1.000
N991G40
N992( MACHINE COORDINATE SYSTEM )
N993G53
N994T0M67
N995G0Z390.000
N996X-50.000Y-600.000
N997T98M6
N998( PART PROGRAM COORDINATE SYSTEM )
N999G54
N1000G41
N1001G0X5.200Y-2.500
N1002E1=-0.234
N1003Z0.100
N1004X5.200Y-2.000
N1005Z=E1
N1006F11
N1007G1X5.492Y-1.921
N1008F11
N1009Y-1.134
N1010F11
N1011X5.212Y-0.854
N1012F11
N1013X3.800
N1014G0Z0.100
N1015X5.306Y-2.500
N1016Z=E1
N1017F11
N1018G1Y-2.303
N1019F11
N1020G2X5.586Y-2.030I5.602J-2.327
N1021F11
N1022G3X5.599Y-2.009I5.585J-2.014
N1023F11
N1024G1X5.601Y-1.093
N1025F11
N1026G3X5.596Y-1.082I5.585J-1.093
N1027F11
N1028G1X5.263Y-0.749
N1029F11
N1030G3X5.252Y-0.744I5.252J-0.760
N1031F11
N1032G1X3.800
N1033G0Z0.100
N1034E1=E1-0.100
N1035G14N1=1002N2=1034J1
N1036G0Z1.000
N1037G40
N1038( MACHINE COORDINATE SYSTEM )
N1039G53
N1040T0M67
N1041G0Z390.000
N1042X-50.000Y-600.000
N1043T98M6
N1044( PART PROGRAM COORDINATE SYSTEM )
N1045G54
N1046G41
N1047M8
N1048G0X3.909Y-7.025
N1049E1=-0.885
N1050Z0.100
N1051X3.909Y-7.025
N1052Z=E1
N1053F11
N1054G1X5.217
N1055F11
N1056X5.501Y-6.742
N1057F11
N1058Y-5.927
N1059F11
N1060G2X5.207Y-5.503I5.602J-5.543
N1061F11
N1062G1X5.183Y-5.665
N1063G0Z0.100
N1064X3.909Y-7.126
N1065Z=E1
N1066F11
N1067G1X5.252
N1068F11
N1069G3X5.263Y-7.121I5.252J-7.110
N1070F11
N1071G1X5.596Y-6.788
N1072F11
N1073G3X5.601Y-6.777I5.585J-6.777
N1074F11
N1075G1Y-5.856
N1076F11
N1077G3X5.586Y-5.840I5.585J-5.856
N1078F11
N1079G2X5.306Y-5.574I5.602J-5.543
N1080F11
N1081G1X5.304Y-5.552
N1082F11
N1083X5.173Y-5.565
N1084G0Z0.100
N1085E1=E1-0.100
N1086G14N1=1049N2=1085J1
N1087G0Z1.000
N1088G40
N1089( MACHINE COORDINATE SYSTEM )
N1090G53
N1091T0M67
N1092G0Z390.000
N1093X-50.000Y-600.000
N1094T9M6
N1095( PART PROGRAM COORDINATE SYSTEM )
N1096G54
N1097S5600M3
N1098G0X4.350Y-0.430
N1099Z0.100
N1100F69
N1101G81Y0.100Z-0.047F69
N1102G79Z-0.134
N1103G0Z1.000
N1104( MACHINE COORDINATE SYSTEM )
N1105G53
N1106T0M67
N1107G0Z390.000
N1108X-50.000Y-600.000
N1109T9M6
N1110( PART PROGRAM COORDINATE SYSTEM )
N1111G54
N1112G0X4.290Y-3.935
N1113Z0.100
N1114G81Y0.100Z-0.038F69
N1115G79Z-0.724
N1116G0Z1.000
N1117( MACHINE COORDINATE SYSTEM )
N1118G53
N1119T0M67
N1120G0Z390.000
N1121X-50.000Y-600.000
N1122T9M6
N1123( PART PROGRAM COORDINATE SYSTEM )
N1124G54
N1125G0X4.350Y-7.440
N1126Z0.100
N1127G81Y0.100Z-0.047F69
N1128G79Z-0.134
N1129G0Z1.000
N1130( MACHINE COORDINATE SYSTEM )
N1131G53
N1132T0M67
N1133G0Z390.000
N1134X-50.000Y-600.000
N1135T9M6
N1136( PART PROGRAM COORDINATE SYSTEM )
N1137G54
N1138G0X0.110Y-3.935
N1139Z0.100
N1140G81Y0.100Z-0.060F69
N1141G79Z0.000
N1142G0Z1.000
N1143Z4.000
N1144( MACHINE COORDINATE SYSTEM )
N1145G53
N1146T0M67
N1147G0Z390.000
N1148X-50.000Y-600.000
N1149T9M6
N1150( PART PROGRAM COORDINATE SYSTEM )
N1151G56
N1152G0X0.370Y-1.835
N1153Z1.000
N1154Z0.100
N1155G81Y0.100Z-0.056F69
N1156G79Z-0.885
N1157G0Z1.000
N1158( MACHINE COORDINATE SYSTEM )
N1159G53
N1160T0M67
N1161G0Z390.000
N1162X-50.000Y-600.000
N1163T9M6
N1164( PART PROGRAM COORDINATE SYSTEM )
N1165G56
N1166G0X0.185Y-2.205
N1167Z0.100
N1168G81Y0.100Z-0.060F69
N1169G79Z-0.885
N1170G0Z1.000
N1171Z4.000
N1172( MACHINE COORDINATE SYSTEM )
N1173G53
N1174T0M67
N1175G0Z390.000
N1176X-50.000Y-600.000
N1177T9M6
N1178( PART PROGRAM COORDINATE SYSTEM )
N1179G57
N1180S5038M3
N1181G0X-0.320Y-3.935
N1182Z1.000
N1183Z0.100
N1184F62
N1185G81Y0.100Z-0.068F62
N1186G79Z0.000
N1187G0Z1.000
N1188Z4.000
N1189( MACHINE COORDINATE SYSTEM )
N1190G53
N1191T0M67
N1192G0Z390.000
N1193X-50.000Y-600.000
N1194T94M6
N1195( PART PROGRAM COORDINATE SYSTEM )
N1196G54
N1197S3446M3
N1198G0X0.110Y-3.935
N1199Z1.000
N1200Z0.100
N1201F20
N1202G81Y0.100Z-0.925F20
N1203G79Z0.000
N1204G0Z1.000
N1205Z4.000
N1206( MACHINE COORDINATE SYSTEM )
N1207G53
N1208T0M67
N1209G0Z390.000
N1210X-50.000Y-600.000
N1211T94M6
N1212( PART PROGRAM COORDINATE SYSTEM )
N1213G56
N1214G0X0.185Y-2.205
N1215Z1.000
N1216Z0.100
N1217G81Y0.100Z-0.771F20
N1218G79Z-0.885
N1219G0Z1.000
N1220( MACHINE COORDINATE SYSTEM )
N1221G53
N1222T0M67
N1223G0Z390.000
N1224X-50.000Y-600.000
N1225T93M6
N1226( PART PROGRAM COORDINATE SYSTEM )
N1227G56
N1228G42
N1229S3726M3
N1230G0X0.180Y-2.215
N1231E1=0.000
N1232Z0.100
N1233X0.180Y-2.215
N1234F10
N1235G1Z=E1
N1236F10
N1237G2X0.177Y-2.205I0.198J-2.205
N1238F10
N1239G1Y-2.105
N1240F10
N1241G2X0.192I0.185J-2.105
N1242F10
N1243G1Y-2.305
N1244F10
N1245G3X0.177I0.185J-2.305
N1246F10
N1247G1Y-2.205
N1248F10
N1249G2X0.180Y-2.195I0.198J-2.205
N1250G0Z0.100
N1251E1=E1-0.085
N1252G14N1=1231N2=1251J7
N1253G0Z1.000
N1254G40
N1255( MACHINE COORDINATE SYSTEM )
N1256G53
N1257T0M67
N1258G0Z390.000
N1259X-50.000Y-600.000
N1260T9M6
N1261( PART PROGRAM COORDINATE SYSTEM )
N1262G56
N1263S5600M3
N1264G0X0.345Y-3.935
N1265Z0.100
N1266F69
N1267G81Y0.100Z-0.060F69
N1268G79Z0.000
N1269G0Z1.000
N1270( MACHINE COORDINATE SYSTEM )
N1271G53
N1272T0M67
N1273G0Z390.000
N1274X-50.000Y-600.000
N1275T94M6
N1276( PART PROGRAM COORDINATE SYSTEM )
N1277G56
N1278S3446M3
N1279G0X0.345Y-3.935
N1280Z0.100
N1281F20
N1282G81Y0.100Z-0.099F20
N1283G79Z0.000
N1284G0Z1.000
N1285( MACHINE COORDINATE SYSTEM )
N1286G53
N1287T0M67
N1288G0Z390.000
N1289X-50.000Y-600.000
N1290T3M6
N1291( PART PROGRAM COORDINATE SYSTEM )
N1292G56
N1293S2205M3
N1294G0X0.345Y-3.935
N1295Z0.100
N1296G81Y0.100Z-0.151F20
N1297G79Z0.000
N1298G0Z1.000
N1299( MACHINE COORDINATE SYSTEM )
N1300G53
N1301T0M67
N1302G0Z390.000
N1303X-50.000Y-600.000
N1304T93M6
N1305( PART PROGRAM COORDINATE SYSTEM )
N1306G56
N1307G42
N1308S3726M3
N1309M9
N1310G0X0.300Y-3.943
N1311E1=0.000
N1312Z0.100
N1313X0.300Y-3.943
N1314Z=E1
N1315F10
N1316G1X-0.019
N1317F10
N1318Y-3.928
N1319F10
N1320X0.853
N1321F10
N1322Y-3.943
N1323F10
N1324X0.400
N1325G0Z0.100
N1326E1=E1-0.018
N1327G14N1=1311N2=1326J5
N1328G0Z1.000
N1329G40
N1330( MACHINE COORDINATE SYSTEM )
N1331G53
N1332T0M67
N1333G0Z390.000
N1334X-50.000Y-600.000
N1335T68M6
N1336( PART PROGRAM COORDINATE SYSTEM )
N1337G56
N1338S3675M3
N1339M8
N1340G0X0.370Y-1.835
N1341Z0.100
N1342F20
N1343G81Y0.100Z-0.331F20
N1344G79Z-0.885
N1345G0Z1.000
N1346Z4.000
N1347( MACHINE COORDINATE SYSTEM )
N1348G53
N1349T0M67
N1350G0Z390.000
N1351X-50.000Y-600.000
N1352T86M6
N1353( PART PROGRAM COORDINATE SYSTEM )
N1354G57
N1355S3022M3
N1356G0X-0.320Y-3.935
N1357Z1.000
N1358Z0.100
N1359G81Y0.100Z-0.204F20
N1360G79Z0.000
N1361G0Z1.000
N1362Z4.000
N1363( MACHINE COORDINATE SYSTEM )
N1364G53
N1365T0M67
N1366G0Z390.000
N1367X-50.000Y-600.000
N1368T71M6
N1369( PART PROGRAM COORDINATE SYSTEM )
N1370G57
N1371G41
N1372S919M3
N1373M9
N1374G0X-0.295Y-3.985
N1375Z1.000
N1376Z0.100
N1377F12
N1378G1Z=E1
N1379F12
N1380G3X-0.245Y-3.935I-0.295J-3.935
N1381F12
N1382G1Y-3.020
N1383F12
N1384X-0.395
N1385F12
N1386Y-4.850
N1387F12
N1388X-0.245
N1389F12
N1390Y-3.935
N1391F12
N1392G3X-0.295Y-3.885I-0.295J-3.935
N1393G0Z0.100
N1394Z1.000
N1395G40
N1396( MACHINE COORDINATE SYSTEM )
N1397G53
N1398T0M67
N1399G0Z390.000
N1400X-50.000Y-600.000
N1401T11M6
N1402( PART PROGRAM COORDINATE SYSTEM )
N1403G57
N1404G41
N1405S5600M3
N1406G0X-0.235Y-4.045
N1407E1=0.000
N1408Z0.100
N1409X-0.235Y-4.045
N1410F2
N1411G1Z=E1
N1412F2
N1413G3X-0.135Y-3.945I-0.235J-3.945
N1414F2
N1415G1Y-3.935
N1416F2
N1417Y-2.915
N1418F2
N1419G3X-0.140Y-2.910I-0.140J-2.915
N1420F2
N1421G1X-0.500
N1422F2
N1423G3X-0.505Y-2.915I-0.500J-2.915
N1424F2
N1425G1Y-4.955
N1426F2
N1427G3X-0.500Y-4.960I-0.500J-4.955
N1428F2
N1429G1X-0.140
N1430F2
N1431G3X-0.135Y-4.955I-0.140J-4.955
N1432F2
N1433G1Y-3.935
N1434F2
N1435Y-3.925
N1436F2
N1437G3X-0.235Y-3.825I-0.235J-3.925
N1438G0Z0.100
N1439E1=E1-0.027
N1440G14N1=1407N2=1439J3
N1441G0Z1.000
N1442G40
N1443( MACHINE COORDINATE SYSTEM )
N1444G53
N1445T0M67
N1446G0Z390.000
N1447X-50.000Y-600.000
N1448T20M6
N1449( PART PROGRAM COORDINATE SYSTEM )
N1450G54
N1451S4412M3
N1452M8
N1453G0X4.350Y-0.430
N1454Z0.100
N1455F20
N1456G81Y0.100Z-0.711F20
N1457G79Z-0.134
N1458G0Z1.000
N1459( MACHINE COORDINATE SYSTEM )
N1460G53
N1461T0M67
N1462G0Z390.000
N1463X-50.000Y-600.000
N1464T20M6
N1465( PART PROGRAM COORDINATE SYSTEM )
N1466G54
N1467G0X4.350Y-7.440
N1468Z0.100
N1469G81Y0.100Z-0.711F20
N1470G79Z-0.134
N1471G0Z1.000
N1472Z4.000
N1473( MACHINE COORDINATE SYSTEM )
N1474G53
N1475T0M67
N1476G0Z390.000
N1477X-50.000Y-600.000
N1478T88M6
N1479( PART PROGRAM COORDINATE SYSTEM )
N1480G56
N1481S1837M3
N1482G0X0.345Y-3.935
N1483Z1.000
N1484Z0.100
N1485F6
N1486G81Y0.100Z-0.214F6
N1487G79Z0.000
N1488G0Z1.000
N1489( MACHINE COORDINATE SYSTEM )
N1490G53
N1491T0M67
N1492G0Z390.000
N1493X-50.000Y-600.000
N1494T88M6
N1495( PART PROGRAM COORDINATE SYSTEM )
N1496G56
N1497G41
N1498S1838M3
N1499G0X0.438Y-8.271
N1500E1=0.000
N1501Z0.100
N1502X0.438Y-8.271
N1503F7
N1504G1Z=E1
N1505F14
N1506X0.444Y-8.272
N1507F14
N1508Y-8.085
N1509F10
N1510G3X0.389I0.417J-8.085
N1511F14
N1512G1Y-8.266
N1513F14
N1514X0.438Y-8.271
N1515G0Z0.100
N1516E1=E1-0.022
N1517G14N1=1500N2=1516J42
N1518G0Z1.000
N1519G40
N1520( MACHINE COORDINATE SYSTEM )
N1521G53
N1522T0M67
N1523G0Z390.000
N1524X-50.000Y-600.000
N1525T95M6
N1526( PART PROGRAM COORDINATE SYSTEM )
N1527G56
N1528S2418M3
N1529G0X0.370Y-1.835
N1530Z0.100
N1531F20
N1532G81Y0.100Z-0.375F20
N1533G79Z-0.885
N1534G0Z1.000
N1535Z4.000
N1536( MACHINE COORDINATE SYSTEM )
N1537G53
N1538T0M67
N1539G0Z390.000
N1540X-50.000Y-600.000
N1541T67M6
N1542( PART PROGRAM COORDINATE SYSTEM )
N1543G54
N1544S5513M3
N1545G0X4.290Y-3.935
N1546Z1.000
N1547Z0.100
N1548G81Y0.100Z-0.107F20
N1549G79Z-0.724
N1550G0Z1.000
N1551Z4.000
N1552( MACHINE COORDINATE SYSTEM )
N1553G53
N1554T0M67
N1555G0Z390.000
N1556X-50.000Y-600.000
N1557T4M6
N1558( PART PROGRAM COORDINATE SYSTEM )
N1559G54
N1560S2756M3
N1561G0X4.350Y-7.440
N1562Z1.000
N1563Z0.100
N1564G81Y0.100Z-0.754F20
N1565G79Z-0.134
N1566G0Z1.000
N1567( MACHINE COORDINATE SYSTEM )
N1568G53
N1569T0M67
N1570G0Z390.000
N1571X-50.000Y-600.000
N1572T4M6
N1573( PART PROGRAM COORDINATE SYSTEM )
N1574G54
N1575G0X4.350Y-0.430
N1576Z0.100
N1577G81Y0.100Z-0.754F20
N1578G79Z-0.134
N1579G0Z1.000
N1580M30
